; generated by Slic3r 1.1.7 on 2016-10-13 at 20:12:35

; perimeters extrusion width = 0.40mm
; infill extrusion width = 0.42mm
; solid infill extrusion width = 0.42mm
; top infill extrusion width = 0.42mm

G21 ; set units to millimeters
M107
M190 S60 ; wait for bed temperature to be reached
M104 S185 ; set temperature
G28 ; home all axes
G1 Z5 F5000 ; lift nozzle
M109 S185 ; wait for temperature to be reached
G90 ; use absolute coordinates
G92 E0
M82 ; use absolute distances for extrusion
G1 F1800.000 E-1.00000
G92 E0
G1 Z0.400 F9000.000
G1 X33.433 Y61.535 F9000.000
G1 E1.00000 F1800.000
G1 X34.834 Y60.935 E1.13804 F960.000
G1 X71.200 Y54.073 E4.48947
G1 X98.500 Y54.073 E6.96178
G1 X100.804 Y54.919 E7.18406
G1 X108.845 Y61.755 E8.13981
G1 X116.845 Y68.767 E9.10322
G1 X117.809 Y70.137 E9.25491
G1 X118.057 Y71.442 E9.37524
G1 X118.057 Y72.557 E9.47622
G1 X117.663 Y74.185 E9.62791
G1 X115.838 Y75.853 E9.85179
G1 X46.838 Y103.866 E16.59583
G1 X45.500 Y104.127 E16.71929
G1 X35.500 Y104.127 E17.62490
G1 X33.872 Y103.733 E17.77659
G1 X32.605 Y102.637 E17.92828
G1 X31.943 Y100.570 E18.12484
G1 X31.943 Y64.430 E21.39776
G1 X32.337 Y62.802 E21.54945
G1 X33.394 Y61.580 E21.69571
G1 F1800.000 E20.69571
G92 E0
G1 X108.063 Y71.143 F9000.000
G1 E1.00000 F1800.000
G1 X54.727 Y71.143 E5.83014 F600.000
G1 X44.086 Y81.784 E7.19300
G1 X44.086 Y99.156 E8.76619
G1 X36.914 Y99.156 E9.41566
G1 X36.914 Y65.844 E12.43244
G1 X64.134 Y65.844 E14.89747
G1 X64.346 Y65.909 E14.91757
G1 X65.387 Y65.873 E15.01191
G1 X65.546 Y65.844 E15.02658
G1 X105.638 Y65.844 E18.65732
G1 X108.136 Y67.942 E18.95274
G1 X107.782 Y68.471 E19.01035
G1 X107.558 Y69.597 E19.11431
G1 X107.782 Y70.723 E19.21826
G1 X108.030 Y71.093 E19.25860
G1 X108.888 Y71.700 F9000.000
G1 X54.958 Y71.700 E24.14252 F600.000
G1 X44.643 Y82.015 E25.46359
G1 X44.643 Y99.713 E27.06633
G1 X36.357 Y99.713 E27.81670
G1 X36.357 Y65.287 E30.93438
G1 X64.218 Y65.287 E33.45747
G1 X64.420 Y65.349 E33.47667
G1 X65.327 Y65.317 E33.55885
G1 X65.496 Y65.287 E33.57440
G1 X105.841 Y65.287 E37.22806
G1 X108.876 Y67.837 E37.58705
G1 X108.307 Y68.689 E37.67983
G1 X108.126 Y69.597 E37.76371
G1 X108.307 Y70.505 E37.84759
G1 X108.821 Y71.276 E37.93147
G1 X108.983 Y71.384 E37.94913
G1 X108.905 Y71.643 E37.97363
G1 X112.112 Y71.700 F9000.000
G1 X112.016 Y71.384 E38.00356 F600.000
G1 X112.179 Y71.276 E38.02121
G1 X112.463 Y70.850 E38.06756
G1 X113.475 Y71.700 E38.18724
G1 X112.172 Y71.700 E38.30517
G1 F1800.000 E37.30517
G92 E0
G1 X98.200 Y64.730 F9000.000
G1 E1.00000 F1800.000
G1 X106.200 Y64.730 E1.72449 F420.000
G1 X106.200 Y64.861 E1.73637
G1 X109.833 Y67.913 E2.16603
G1 X109.223 Y68.320 E2.23242
G1 X108.832 Y68.906 E2.29623
G1 X108.694 Y69.597 E2.36004
G1 X108.709 Y69.669 E2.36672
G1 X108.832 Y70.288 E2.42385
G1 X109.223 Y70.874 E2.48766
G1 X109.809 Y71.265 E2.55148
G1 X110.427 Y71.388 E2.60858
G1 X110.500 Y71.403 E2.61529
G1 X111.191 Y71.265 E2.67910
G1 X111.777 Y70.874 E2.74291
G1 X112.168 Y70.288 E2.80671
G1 X112.239 Y69.934 E2.83938
G1 X114.200 Y71.582 E3.07133
G1 X114.200 Y72.257 E3.13249
G1 X57.989 Y72.257 E8.22304
G1 X60.817 Y75.086 E8.58528
G1 X59.966 Y75.086 E8.66239
G1 X57.137 Y72.257 E9.02463
G1 X55.189 Y72.257 E9.20110
G1 X45.200 Y82.246 E10.48037
G1 X45.200 Y100.270 E12.11266
G1 X35.800 Y100.270 E12.96394
G1 X35.800 Y64.730 E16.18252
G1 X64.302 Y64.730 E18.76367
G1 X64.495 Y64.789 E18.78196
G1 X65.267 Y64.762 E18.85197
G1 X65.446 Y64.730 E18.86842
G1 X71.500 Y64.730 E19.41666
G1 X71.500 Y57.930 E20.03248
G1 X72.900 Y57.930 E20.15926
G1 X72.900 Y64.730 E20.77508
G1 X79.700 Y64.730 E21.39089
G1 X79.700 Y57.930 E22.00671
G1 X81.100 Y57.930 E22.13349
G1 X81.100 Y64.730 E22.74931
G1 X88.600 Y64.730 E23.42851
G1 X88.600 Y57.930 E24.04433
G1 X90.000 Y57.930 E24.17111
G1 X90.000 Y64.730 E24.78693
G1 X96.800 Y64.730 E25.40274
G1 X96.800 Y57.930 E26.01856
G1 X98.200 Y57.930 E26.14534
G1 X98.200 Y64.670 E26.75572
G1 X98.200 Y65.130 F9000.000
G1 X107.435 Y67.855 F9000.000
G1 X107.613 Y68.033 E26.77849 F960.000
G1 X107.369 Y68.578 E26.83259
G1 X105.019 Y66.228 E27.13366
G1 X104.229 Y66.228 E27.20513
G1 X107.238 Y69.237 E27.59049
G1 X107.255 Y70.043 E27.66352
G1 X103.440 Y66.228 E28.15214
G1 X102.651 Y66.228 E28.22360
G1 X107.183 Y70.759 E28.80396
G1 X106.393 Y70.759 E28.87543
G1 X101.862 Y66.228 E29.45579
G1 X101.073 Y66.228 E29.52726
G1 X105.604 Y70.759 E30.10762
G1 X104.815 Y70.759 E30.17909
G1 X100.284 Y66.228 E30.75945
G1 X99.494 Y66.228 E30.83092
G1 X104.026 Y70.759 E31.41128
G1 X103.237 Y70.759 E31.48275
G1 X98.705 Y66.228 E32.06311
G1 X97.916 Y66.228 E32.13458
G1 X102.448 Y70.759 E32.71494
G1 X101.658 Y70.759 E32.78641
G1 X97.127 Y66.228 E33.36677
G1 X96.338 Y66.228 E33.43824
G1 X100.869 Y70.759 E34.01860
G1 X100.080 Y70.759 E34.09007
G1 X95.549 Y66.228 E34.67043
G1 X94.759 Y66.228 E34.74189
G1 X99.291 Y70.759 E35.32226
G1 X98.502 Y70.759 E35.39372
G1 X93.970 Y66.228 E35.97408
G1 X93.181 Y66.228 E36.04555
G1 X97.713 Y70.759 E36.62591
G1 X96.923 Y70.759 E36.69738
G1 X92.392 Y66.228 E37.27774
G1 X91.603 Y66.228 E37.34921
G1 X96.134 Y70.759 E37.92957
G1 X95.345 Y70.759 E38.00104
G1 X90.814 Y66.228 E38.58140
G1 X90.024 Y66.228 E38.65287
G1 X94.556 Y70.759 E39.23323
G1 X93.767 Y70.759 E39.30470
G1 X89.235 Y66.228 E39.88506
G1 X88.446 Y66.228 E39.95653
G1 X92.977 Y70.759 E40.53689
G1 X92.188 Y70.759 E40.60836
G1 X87.657 Y66.228 E41.18872
G1 X86.868 Y66.228 E41.26019
G1 X91.399 Y70.759 E41.84055
G1 X90.610 Y70.759 E41.91201
G1 X86.078 Y66.228 E42.49238
G1 X85.289 Y66.228 E42.56384
G1 X89.821 Y70.759 E43.14420
G1 X89.032 Y70.759 E43.21567
G1 X84.500 Y66.228 E43.79603
G1 X83.711 Y66.228 E43.86750
G1 X88.242 Y70.759 E44.44786
G1 X87.453 Y70.759 E44.51933
G1 X82.922 Y66.228 E45.09969
G1 X82.133 Y66.228 E45.17116
G1 X86.664 Y70.759 E45.75152
G1 X85.875 Y70.759 E45.82299
G1 X81.343 Y66.228 E46.40335
G1 X80.554 Y66.228 E46.47482
G1 X85.086 Y70.759 E47.05518
G1 X84.297 Y70.759 E47.12665
G1 X79.765 Y66.228 E47.70701
G1 X78.976 Y66.228 E47.77848
G1 X83.507 Y70.759 E48.35884
G1 X82.718 Y70.759 E48.43031
G1 X78.187 Y66.228 E49.01067
G1 X77.398 Y66.228 E49.08213
G1 X81.929 Y70.759 E49.66250
G1 X81.140 Y70.759 E49.73396
G1 X76.608 Y66.228 E50.31432
G1 X75.819 Y66.228 E50.38579
G1 X80.351 Y70.759 E50.96615
G1 X79.562 Y70.759 E51.03762
G1 X75.030 Y66.228 E51.61798
G1 X74.241 Y66.228 E51.68945
G1 X78.772 Y70.759 E52.26981
G1 X77.983 Y70.759 E52.34128
G1 X73.452 Y66.228 E52.92164
G1 X72.663 Y66.228 E52.99311
G1 X77.194 Y70.759 E53.57347
G1 X76.405 Y70.759 E53.64494
G1 X71.873 Y66.228 E54.22530
G1 X71.084 Y66.228 E54.29677
G1 X75.616 Y70.759 E54.87713
G1 X74.826 Y70.759 E54.94860
G1 X70.295 Y66.228 E55.52896
G1 X69.506 Y66.228 E55.60043
G1 X74.037 Y70.759 E56.18079
G1 X73.248 Y70.759 E56.25225
G1 X68.717 Y66.228 E56.83261
G1 X67.927 Y66.228 E56.90408
G1 X72.459 Y70.759 E57.48444
G1 X71.670 Y70.759 E57.55591
G1 X67.138 Y66.228 E58.13627
G1 X66.349 Y66.228 E58.20774
G1 X70.881 Y70.759 E58.78810
G1 X70.091 Y70.759 E58.85957
G1 X65.563 Y66.231 E59.43952
G1 X64.820 Y66.277 E59.50696
G1 X69.302 Y70.759 E60.08104
G1 X68.513 Y70.759 E60.15251
G1 X63.982 Y66.228 E60.73287
G1 X63.192 Y66.228 E60.80433
G1 X67.724 Y70.759 E61.38470
G1 X66.935 Y70.759 E61.45616
G1 X62.403 Y66.228 E62.03652
G1 X61.614 Y66.228 E62.10799
G1 X66.146 Y70.759 E62.68835
G1 X65.356 Y70.759 E62.75982
G1 X60.825 Y66.228 E63.34018
G1 X60.036 Y66.228 E63.41165
G1 X64.567 Y70.759 E63.99201
G1 X63.778 Y70.759 E64.06348
G1 X59.247 Y66.228 E64.64384
G1 X58.457 Y66.228 E64.71531
G1 X62.989 Y70.759 E65.29567
G1 X62.200 Y70.759 E65.36714
G1 X57.668 Y66.228 E65.94750
G1 X56.879 Y66.228 E66.01896
G1 X61.411 Y70.759 E66.59932
G1 X60.621 Y70.759 E66.67079
G1 X56.090 Y66.228 E67.25115
G1 X55.301 Y66.228 E67.32262
G1 X59.832 Y70.759 E67.90298
G1 X59.043 Y70.759 E67.97445
G1 X54.512 Y66.228 E68.55481
G1 X53.722 Y66.228 E68.62628
G1 X58.254 Y70.759 E69.20664
G1 X57.465 Y70.759 E69.27811
G1 X52.933 Y66.228 E69.85847
G1 X52.144 Y66.228 E69.92994
G1 X56.675 Y70.759 E70.51030
G1 X55.886 Y70.759 E70.58176
G1 X51.355 Y66.228 E71.16212
G1 X50.566 Y66.228 E71.23359
G1 X55.097 Y70.759 E71.81395
G1 X54.438 Y70.889 E71.87479
G1 X49.776 Y66.228 E72.47181
G1 X48.987 Y66.228 E72.54328
G1 X54.043 Y71.284 E73.19084
G1 X53.649 Y71.679 E73.24138
G1 X48.198 Y66.228 E73.93947
G1 X47.409 Y66.228 E74.01094
G1 X53.254 Y72.073 E74.75957
G1 X52.860 Y72.468 E74.81010
G1 X46.620 Y66.228 E75.60927
G1 X45.831 Y66.228 E75.68074
G1 X52.465 Y72.862 E76.53044
G1 X52.071 Y73.257 E76.58097
G1 X45.041 Y66.228 E77.48121
G1 X44.252 Y66.228 E77.55268
G1 X51.676 Y73.651 E78.50345
G1 X51.281 Y74.046 E78.55399
G1 X43.463 Y66.228 E79.55529
G1 X42.674 Y66.228 E79.62676
G1 X50.887 Y74.441 E80.67861
G1 X50.492 Y74.835 E80.72914
G1 X41.885 Y66.228 E81.83152
G1 X41.096 Y66.228 E81.90299
G1 X50.098 Y75.230 E83.05591
G1 X49.703 Y75.624 E83.10644
G1 X40.306 Y66.228 E84.30989
G1 X39.517 Y66.228 E84.38136
G1 X49.308 Y76.019 E85.63535
G1 X48.914 Y76.414 E85.68588
G1 X38.728 Y66.228 E86.99041
G1 X37.939 Y66.228 E87.06187
G1 X48.519 Y76.808 E88.41693
G1 X48.125 Y77.203 E88.46747
G1 X37.298 Y66.376 E89.85407
G1 X37.298 Y67.165 E89.92553
G1 X47.730 Y77.597 E91.26160
G1 X47.336 Y77.992 E91.31213
G1 X37.298 Y67.954 E92.59766
G1 X37.298 Y68.744 E92.66913
G1 X46.941 Y78.387 E93.90412
G1 X46.546 Y78.781 E93.95465
G1 X37.298 Y69.533 E95.13911
G1 X37.298 Y70.322 E95.21057
G1 X46.152 Y79.176 E96.34449
G1 X45.757 Y79.570 E96.39503
G1 X37.298 Y71.111 E97.47841
G1 X37.298 Y71.900 E97.54988
G1 X45.363 Y79.965 E98.58273
G1 X44.968 Y80.359 E98.63326
G1 X37.298 Y72.689 E99.61558
G1 X37.298 Y73.479 E99.68704
G1 X44.573 Y80.754 E100.61882
G1 X44.179 Y81.149 E100.66936
G1 X37.298 Y74.268 E101.55060
G1 X37.298 Y75.057 E101.62206
G1 X43.784 Y81.543 E102.45277
G1 X43.702 Y82.250 E102.51722
G1 X37.298 Y75.846 E103.33739
G1 X37.298 Y76.635 E103.40886
G1 X43.702 Y83.039 E104.22903
G1 X43.702 Y83.828 E104.30050
G1 X37.298 Y77.425 E105.12067
G1 X37.298 Y78.214 E105.19214
G1 X43.702 Y84.618 E106.01231
G1 X43.702 Y85.407 E106.08378
G1 X37.298 Y79.003 E106.90395
G1 X37.298 Y79.792 E106.97542
G1 X43.702 Y86.196 E107.79559
G1 X43.702 Y86.985 E107.86706
G1 X37.298 Y80.581 E108.68723
G1 X37.298 Y81.370 E108.75870
G1 X43.702 Y87.774 E109.57887
G1 X43.702 Y88.564 E109.65034
G1 X37.298 Y82.160 E110.47051
G1 X37.298 Y82.949 E110.54198
G1 X43.702 Y89.353 E111.36215
G1 X43.702 Y90.142 E111.43361
G1 X37.298 Y83.738 E112.25379
G1 X37.298 Y84.527 E112.32525
G1 X43.702 Y90.931 E113.14542
G1 X43.702 Y91.720 E113.21689
G1 X37.298 Y85.316 E114.03706
G1 X37.298 Y86.105 E114.10853
G1 X43.702 Y92.509 E114.92870
G1 X43.702 Y93.299 E115.00017
G1 X37.298 Y86.895 E115.82034
G1 X37.298 Y87.684 E115.89181
G1 X43.702 Y94.088 E116.71198
G1 X43.702 Y94.877 E116.78345
G1 X37.298 Y88.473 E117.60362
G1 X37.298 Y89.262 E117.67509
G1 X43.702 Y95.666 E118.49526
G1 X43.702 Y96.455 E118.56673
G1 X37.298 Y90.051 E119.38690
G1 X37.298 Y90.840 E119.45837
G1 X43.702 Y97.244 E120.27854
G1 X43.702 Y98.034 E120.35001
G1 X37.298 Y91.630 E121.17018
G1 X37.298 Y92.419 E121.24165
G1 X43.651 Y98.772 E122.05534
G1 X42.862 Y98.772 E122.12681
G1 X37.298 Y93.208 E122.83943
G1 X37.298 Y93.997 E122.91090
G1 X42.073 Y98.772 E123.52245
G1 X41.284 Y98.772 E123.59392
G1 X37.298 Y94.786 E124.10440
G1 X37.298 Y95.576 E124.17587
G1 X40.495 Y98.772 E124.58528
G1 X39.706 Y98.772 E124.65675
G1 X37.298 Y96.365 E124.96508
G1 X37.298 Y97.154 E125.03655
G1 X38.916 Y98.772 E125.24382
G1 X38.127 Y98.772 E125.31529
G1 X37.298 Y97.943 E125.42148
G1 X37.298 Y98.732 E125.49295
G1 X37.338 Y98.772 E125.49807
G1 F1800.000 E124.49807
G92 E0
G1 X109.310 Y71.267 F9000.000
G1 E1.00000 F1800.000
G1 X109.466 Y71.703 E1.02419 F240.000
G1 X109.656 Y71.751 E1.03443
G1 X110.471 Y71.831 E1.07725
G1 X111.344 Y71.751 E1.12305
G1 X111.534 Y71.703 E1.13329
G1 X111.690 Y71.267 E1.15748
G1 F1800.000 E0.15748
G92 E0
G1 X97.500 Y65.008 F9000.000
G1 E1.00000 F1800.000
G1 X97.500 Y58.208 E1.90000 F240.000
G1 F1800.000 E0.90000
G92 E0
G1 X89.300 Y58.208 F9000.000
G1 E1.00000 F1800.000
G1 X89.300 Y65.008 E1.90000 F240.000
G1 X80.400 Y65.008 F9000.000
G1 X80.400 Y58.208 E2.79999 F240.000
G1 F1800.000 E1.79999
G92 E0
G1 X72.200 Y58.208 F9000.000
G1 E1.00000 F1800.000
G1 X72.200 Y65.008 E1.90000 F240.000
M106 S129
G1 F1800.000 E0.90000
G92 E0
G1 Z0.750 F9000.000
G1 X108.993 Y67.632 F9000.000
G1 E1.00000 F1800.000
G1 X108.718 Y67.815 E1.01879 F3000.000
G1 X108.172 Y68.633 E1.07473
G1 X107.980 Y69.597 E1.13067
G1 X108.172 Y70.561 E1.18660
G1 X108.838 Y71.557 E1.25476
G1 X54.899 Y71.557 E4.32374
G1 X44.500 Y81.956 E5.16048
G1 X44.500 Y99.945 E6.18401
G1 X36.500 Y99.945 E6.63919
G1 X36.500 Y65.055 E8.62437
G1 X63.794 Y65.055 E10.17731
G1 X64.773 Y65.357 E10.23561
G1 X65.714 Y65.324 E10.28919
G1 X66.415 Y65.197 E10.32976
G1 X66.850 Y65.055 E10.35580
G1 X105.925 Y65.055 E12.57906
G1 X108.947 Y67.593 E12.80360
G1 X97.900 Y64.655 F9000.000
G1 X106.071 Y64.655 E13.26852 F3000.000
G1 X109.658 Y67.668 E13.53509
G1 X109.007 Y68.104 E13.57967
G1 X108.549 Y68.789 E13.62656
G1 X108.388 Y69.597 E13.67344
G1 X108.549 Y70.405 E13.72032
G1 X109.007 Y71.090 E13.76720
G1 X109.692 Y71.548 E13.81408
G1 X110.298 Y71.669 E13.84926
G1 X110.270 Y71.957 E13.86576
G1 X55.064 Y71.957 E17.00680
G1 X44.900 Y82.122 E17.82468
G1 X44.900 Y100.345 E18.86155
G1 X36.100 Y100.345 E19.36224
G1 X36.100 Y64.655 E21.39294
G1 X63.955 Y64.655 E22.97783
G1 X64.007 Y64.702 E22.98180
G1 X64.826 Y64.955 E23.03060
G1 X65.671 Y64.925 E23.07870
G1 X66.317 Y64.808 E23.11606
G1 X66.787 Y64.655 E23.14417
G1 X71.800 Y64.655 E23.42941
G1 X71.800 Y58.230 E23.79497
G1 X72.600 Y58.230 E23.84049
G1 X72.600 Y64.655 E24.20606
G1 X80.000 Y64.655 E24.62710
G1 X80.000 Y58.230 E24.99266
G1 X80.800 Y58.230 E25.03818
G1 X80.800 Y64.655 E25.40374
G1 X88.900 Y64.655 E25.86461
G1 X88.900 Y58.230 E26.23018
G1 X89.700 Y58.230 E26.27570
G1 X89.700 Y64.655 E26.64126
G1 X97.100 Y64.655 E27.06230
G1 X97.100 Y58.230 E27.42787
G1 X97.900 Y58.230 E27.47338
G1 X97.900 Y64.595 E27.83553
G1 F1800.000 E26.83553
G92 E0
G1 X112.162 Y71.557 F9000.000
G1 E1.00000 F1800.000
G1 X112.703 Y70.748 E1.05535 F3000.000
G1 X113.665 Y71.557 E1.12689
G1 X112.222 Y71.557 E1.20900
G1 X110.702 Y71.669 F9000.000
G1 X111.308 Y71.548 E1.24418 F3000.000
G1 X111.993 Y71.090 E1.29106
G1 X112.451 Y70.405 E1.33793
G1 X112.518 Y70.071 E1.35735
G1 X113.900 Y71.232 E1.46007
G1 X113.900 Y71.957 E1.50134
G1 X110.730 Y71.957 E1.68169
G1 X110.708 Y71.728 E1.69478
G1 X98.300 Y64.255 F9000.000
G1 X106.217 Y64.255 E2.14523 F2100.000
G1 X110.487 Y67.842 E2.46255
G1 X109.846 Y68.024 E2.50045
G1 X109.295 Y68.392 E2.53816
G1 X108.926 Y68.945 E2.57599
G1 X108.796 Y69.597 E2.61381
G1 X108.926 Y70.249 E2.65164
G1 X109.295 Y70.802 E2.68947
G1 X109.848 Y71.171 E2.72730
G1 X110.420 Y71.285 E2.76050
G1 X110.500 Y71.301 E2.76512
G1 X111.152 Y71.171 E2.80295
G1 X111.705 Y70.802 E2.84078
G1 X112.074 Y70.249 E2.87860
G1 X112.257 Y69.329 E2.93197
G1 X114.300 Y71.046 E3.08380
G1 X114.300 Y72.357 E3.15843
G1 X58.230 Y72.357 E6.34866
G1 X61.059 Y75.186 E6.57625
G1 X59.924 Y75.186 E6.64078
G1 X57.096 Y72.357 E6.86837
G1 X55.230 Y72.357 E6.97453
G1 X45.300 Y82.287 E7.77355
G1 X45.300 Y100.745 E8.82375
G1 X35.700 Y100.745 E9.36997
G1 X35.700 Y64.255 E11.44618
G1 X64.111 Y64.255 E13.06268
G1 X64.211 Y64.346 E13.07038
G1 X64.880 Y64.553 E13.11022
G1 X65.628 Y64.527 E13.15284
G1 X66.219 Y64.420 E13.18700
G1 X66.723 Y64.255 E13.21717
G1 X71.400 Y64.255 E13.48328
G1 X71.400 Y57.830 E13.84884
G1 X73.000 Y57.830 E13.93988
G1 X73.000 Y64.255 E14.30544
G1 X79.600 Y64.255 E14.68097
G1 X79.600 Y57.830 E15.04653
G1 X81.200 Y57.830 E15.13757
G1 X81.200 Y64.255 E15.50313
G1 X88.500 Y64.255 E15.91848
G1 X88.500 Y57.830 E16.28405
G1 X90.100 Y57.830 E16.37508
G1 X90.100 Y64.255 E16.74065
G1 X96.700 Y64.255 E17.11617
G1 X96.700 Y57.830 E17.48174
G1 X98.300 Y57.830 E17.57277
G1 X98.300 Y64.195 E17.93492
G1 X98.300 Y64.655 F9000.000
G1 X108.303 Y71.249 F9000.000
G1 X108.269 Y71.284 E17.93780 F4800.000
G1 X108.066 Y70.895 E17.96371
G1 X107.678 Y71.284 E17.99621
G1 X107.087 Y71.284 E18.03115
