; generated by Slic3r 1.2.9 on 2018-12-16 at 17:54:21

; external perimeters extrusion width = 0.35mm
; perimeters extrusion width = 0.39mm
; infill extrusion width = 0.39mm
; solid infill extrusion width = 0.39mm
; top infill extrusion width = 0.39mm

M107
M190 S80 ; set bed temperature
M104 S230 ; set temperature
G28 ; home all axes
G1 Z5 F5000 ; lift nozzle
M109 S230 ; wait for temperature to be reached
G21 ; set units to millimeters
G90 ; use absolute coordinates
M82 ; use absolute distances for extrusion
G92 E0
G1 E-1.00000 F1800.00000
G92 E0
G1 Z0.350 F7800.000
G1 X39.488 Y31.444 F7800.000
G1 E1.00000 F1800.00000
G1 X40.706 Y30.177 E1.09347 F1080.000
G1 X41.497 Y29.482 E1.14949
G1 X42.912 Y28.439 E1.24295
G1 X43.810 Y27.888 E1.29898
G1 X45.381 Y27.100 E1.39244
G1 X46.359 Y26.709 E1.44847
G1 X48.040 Y26.198 E1.54192
G1 X49.026 Y25.988 E1.59549
G1 X50.814 Y25.759 E1.69140
G1 X52.280 Y25.709 E1.76937
G1 X107.720 Y25.709 E4.71778
G1 X109.186 Y25.759 E4.79577
G1 X110.929 Y25.979 E4.88922
G1 X111.960 Y26.198 E4.94524
G1 X113.641 Y26.709 E5.03870
G1 X114.619 Y27.100 E5.09472
G1 X116.190 Y27.888 E5.18819
G1 X117.088 Y28.439 E5.24423
G1 X118.503 Y29.482 E5.33768
G1 X119.294 Y30.177 E5.39370
G1 X120.512 Y31.444 E5.48716
G1 X121.175 Y32.263 E5.54318
G1 X122.160 Y33.718 E5.63665
G1 X122.675 Y34.637 E5.69267
G1 X123.400 Y36.238 E5.78612
G1 X123.751 Y37.231 E5.84216
G1 X124.195 Y38.932 E5.93563
G1 X124.373 Y39.970 E5.99164
G1 X124.522 Y41.721 E6.08511
G1 X124.522 Y42.774 E6.14112
G1 X124.475 Y43.762 E6.19369
G1 X116.692 Y124.933 E10.53031
G1 X116.025 Y127.724 E10.68293
G1 X114.616 Y130.225 E10.83555
G1 X112.575 Y132.242 E10.98817
G1 X110.058 Y133.621 E11.14079
G1 X106.395 Y134.291 E11.33884
G1 X56.395 Y134.291 E13.99791
G1 X53.553 Y133.893 E14.15053
G1 X50.929 Y132.729 E14.30316
G1 X48.727 Y130.890 E14.45578
G1 X47.114 Y128.516 E14.60840
G1 X46.137 Y125.282 E14.78806
G1 X35.564 Y44.111 E19.14134
G1 X35.478 Y42.774 E19.21254
G1 X35.478 Y41.721 E19.26856
G1 X35.627 Y39.970 E19.36203
G1 X35.805 Y38.932 E19.41806
G1 X36.249 Y37.231 E19.51151
G1 X36.600 Y36.238 E19.56753
G1 X37.325 Y34.637 E19.66100
G1 X37.840 Y33.718 E19.71702
G1 X38.825 Y32.263 E19.81049
G1 X39.455 Y31.485 E19.86371
G1 E18.86371 F1800.00000
G92 E0
G1 X41.200 Y32.889 F7800.000
G1 E1.00000 F1800.00000
G1 X41.446 Y32.585 E1.02079 F1080.000
G1 X41.924 Y32.088 E1.05747
G1 X43.234 Y30.938 E1.15017
G1 X43.789 Y30.529 E1.18685
G1 X45.275 Y29.617 E1.27956
G1 X45.892 Y29.308 E1.31623
G1 X47.510 Y28.661 E1.40894
G1 X48.170 Y28.461 E1.44561
G1 X49.493 Y28.179 E1.51752
G1 X49.875 Y28.097 E1.53831
G1 X50.559 Y28.011 E1.57499
G1 X52.301 Y27.942 E1.66770
G1 X52.990 Y27.973 E1.70437
G1 X54.718 Y28.199 E1.79707
G1 X55.392 Y28.347 E1.83375
G1 X57.057 Y28.862 E1.92646
G1 X57.696 Y29.121 E1.96313
G1 X59.250 Y29.911 E2.05583
G1 X59.836 Y30.275 E2.09251
G1 X60.953 Y31.108 E2.16661
G1 X61.059 Y31.143 E2.17254
G1 X69.629 Y31.143 E2.62829
G1 X69.756 Y31.090 E2.63558
G1 X72.643 Y28.203 E2.85274
G1 X87.357 Y28.203 E3.63526
G1 X90.244 Y31.090 E3.85242
G1 X90.371 Y31.143 E3.85971
G1 X98.941 Y31.143 E4.31546
G1 X99.047 Y31.108 E4.32139
G1 X100.164 Y30.275 E4.39550
G1 X100.750 Y29.911 E4.43217
G1 X102.304 Y29.121 E4.52488
G1 X102.943 Y28.862 E4.56155
G1 X104.608 Y28.347 E4.65425
G1 X105.282 Y28.199 E4.69093
G1 X107.010 Y27.973 E4.78363
G1 X107.699 Y27.942 E4.82031
G1 X109.050 Y27.996 E4.89222
G1 X109.441 Y28.011 E4.91302
G1 X110.125 Y28.097 E4.94969
G1 X111.830 Y28.461 E5.04239
G1 X112.490 Y28.661 E5.07907
G1 X114.108 Y29.308 E5.17177
G1 X114.725 Y29.617 E5.20845
G1 X116.211 Y30.529 E5.30116
G1 X116.766 Y30.938 E5.33783
G1 X118.076 Y32.088 E5.43053
G1 X118.554 Y32.585 E5.46721
G1 X119.650 Y33.940 E5.55990
G1 X120.037 Y34.511 E5.59659
G1 X120.888 Y36.032 E5.68927
G1 X121.173 Y36.660 E5.72596
G1 X121.755 Y38.304 E5.81867
G1 X121.929 Y38.971 E5.85535
G1 X122.224 Y40.689 E5.94805
G1 X122.282 Y41.376 E5.98473
G1 X122.282 Y43.119 E6.07742
G1 X122.224 Y43.806 E6.11410
G1 X121.929 Y45.524 E6.20681
G1 X121.755 Y46.192 E6.24349
G1 X121.173 Y47.835 E6.33617
G1 X120.889 Y48.463 E6.37286
G1 X120.037 Y49.985 E6.46558
G1 X119.650 Y50.555 E6.50225
G1 X118.554 Y51.910 E6.59495
G1 X118.076 Y52.408 E6.63162
G1 X116.766 Y53.557 E6.72432
G1 X116.211 Y53.967 E6.76100
G1 X114.725 Y54.878 E6.85369
G1 X114.108 Y55.187 E6.89038
G1 X112.490 Y55.834 E6.98308
G1 X111.830 Y56.035 E7.01976
G1 X110.125 Y56.398 E7.11246
G1 X109.441 Y56.484 E7.14914
G1 X107.699 Y56.554 E7.24184
G1 X107.010 Y56.523 E7.27852
G1 X105.282 Y56.296 E7.37121
G1 X104.608 Y56.149 E7.40790
G1 X102.943 Y55.633 E7.50061
G1 X102.304 Y55.374 E7.53728
G1 X100.750 Y54.584 E7.62998
G1 X100.164 Y54.220 E7.66666
G1 X99.047 Y53.388 E7.74076
G1 X98.941 Y53.353 E7.74669
G1 X88.496 Y53.353 E8.30219
G1 X88.369 Y53.405 E8.30948
G1 X87.357 Y54.417 E8.38557
G1 X72.643 Y54.417 E9.16810
G1 X71.631 Y53.405 E9.24418
G1 X71.504 Y53.353 E9.25148
G1 X61.059 Y53.353 E9.80698
G1 X60.953 Y53.388 E9.81290
G1 X59.836 Y54.220 E9.88700
G1 X59.250 Y54.584 E9.92369
G1 X57.696 Y55.374 E10.01639
G1 X57.057 Y55.633 E10.05307
G1 X55.392 Y56.149 E10.14577
G1 X54.718 Y56.296 E10.18245
G1 X52.990 Y56.523 E10.27515
G1 X52.301 Y56.554 E10.31183
G1 X50.559 Y56.484 E10.40452
G1 X49.875 Y56.398 E10.44120
G1 X48.170 Y56.035 E10.53391
G1 X47.510 Y55.834 E10.57059
G1 X45.891 Y55.187 E10.66329
G1 X45.275 Y54.878 E10.69997
G1 X43.789 Y53.967 E10.79266
G1 X43.234 Y53.557 E10.82934
G1 X41.924 Y52.408 E10.92204
G1 X41.446 Y51.910 E10.95872
G1 X40.350 Y50.555 E11.05142
G1 X39.963 Y49.984 E11.08810
G1 X39.302 Y48.804 E11.16001
G1 X39.111 Y48.463 E11.18081
G1 X38.827 Y47.835 E11.21748
G1 X38.245 Y46.192 E11.31018
G1 X38.071 Y45.524 E11.34686
G1 X37.776 Y43.806 E11.43957
G1 X37.718 Y43.119 E11.47625
G1 X37.718 Y41.376 E11.56894
G1 X37.776 Y40.689 E11.60562
G1 X38.071 Y38.971 E11.69833
G1 X38.245 Y38.304 E11.73500
G1 X38.827 Y36.661 E11.82769
G1 X39.111 Y36.032 E11.86438
G1 X39.963 Y34.511 E11.95708
G1 X40.350 Y33.940 E11.99376
G1 X41.167 Y32.930 E12.06288
G1 X41.468 Y33.106 F7800.000
G1 X41.705 Y32.814 E12.08289 F1080.000
G1 X42.163 Y32.337 E12.11801
G1 X43.451 Y31.207 E12.20914
G1 X43.982 Y30.815 E12.24426
G1 X45.443 Y29.919 E12.33541
G1 X46.033 Y29.623 E12.37052
G1 X47.625 Y28.987 E12.46167
G1 X48.256 Y28.795 E12.49678
G1 X49.564 Y28.516 E12.56791
G1 X49.932 Y28.438 E12.58792
G1 X50.588 Y28.355 E12.62304
G1 X52.300 Y28.287 E12.71419
G1 X52.960 Y28.317 E12.74930
G1 X54.659 Y28.539 E12.84043
G1 X55.304 Y28.680 E12.87555
G1 X56.941 Y29.187 E12.96670
G1 X57.553 Y29.436 E13.00182
G1 X59.081 Y30.212 E13.09295
G1 X59.642 Y30.560 E13.12807
G1 X60.839 Y31.453 E13.20748
G1 X60.945 Y31.488 E13.21340
G1 X69.772 Y31.488 E13.68283
G1 X69.898 Y31.435 E13.69013
G1 X72.786 Y28.548 E13.90728
G1 X87.214 Y28.548 E14.67461
G1 X90.102 Y31.435 E14.89176
G1 X90.228 Y31.488 E14.89906
G1 X99.055 Y31.488 E15.36849
G1 X99.161 Y31.453 E15.37441
G1 X100.358 Y30.560 E15.45383
G1 X100.919 Y30.212 E15.48894
G1 X102.447 Y29.435 E15.58009
G1 X103.059 Y29.187 E15.61520
G1 X104.696 Y28.680 E15.70634
G1 X105.341 Y28.539 E15.74146
G1 X107.040 Y28.317 E15.83260
G1 X107.700 Y28.287 E15.86771
G1 X109.412 Y28.355 E15.95886
G1 X110.068 Y28.438 E15.99398
G1 X111.744 Y28.795 E16.08511
G1 X112.375 Y28.987 E16.12023
G1 X113.967 Y29.623 E16.21137
G1 X114.557 Y29.919 E16.24649
G1 X116.018 Y30.815 E16.33764
G1 X116.549 Y31.207 E16.37275
G1 X117.837 Y32.337 E16.46388
G1 X118.295 Y32.814 E16.49900
G1 X119.373 Y34.146 E16.59014
G1 X119.743 Y34.692 E16.62526
G1 X120.580 Y36.188 E16.71638
G1 X120.853 Y36.789 E16.75151
G1 X121.425 Y38.405 E16.84266
G1 X121.591 Y39.044 E16.87778
G1 X121.881 Y40.733 E16.96892
G1 X121.938 Y41.391 E17.00404
G1 X121.938 Y43.105 E17.09517
G1 X121.881 Y43.763 E17.13029
G1 X121.591 Y45.452 E17.22143
G1 X121.425 Y46.091 E17.25656
G1 X120.853 Y47.706 E17.34768
G1 X120.580 Y48.308 E17.38280
G1 X119.743 Y49.803 E17.47396
G1 X119.373 Y50.350 E17.50907
G1 X118.295 Y51.682 E17.60021
G1 X117.837 Y52.158 E17.63532
G1 X116.550 Y53.288 E17.72646
G1 X116.018 Y53.680 E17.76158
G1 X114.557 Y54.576 E17.85271
G1 X113.967 Y54.873 E17.88784
G1 X112.375 Y55.508 E17.97898
G1 X111.744 Y55.700 E18.01410
G1 X110.068 Y56.058 E18.10523
G1 X109.412 Y56.140 E18.14035
G1 X107.700 Y56.208 E18.23149
G1 X107.040 Y56.179 E18.26661
G1 X105.341 Y55.956 E18.35774
G1 X104.696 Y55.815 E18.39287
G1 X103.059 Y55.308 E18.48402
G1 X102.447 Y55.060 E18.51913
G1 X100.919 Y54.283 E18.61026
G1 X100.358 Y53.935 E18.64539
G1 X99.161 Y53.043 E18.72479
G1 X99.055 Y53.008 E18.73072
G1 X88.353 Y53.008 E19.29989
G1 X88.226 Y53.060 E19.30719
G1 X87.214 Y54.072 E19.38328
G1 X72.786 Y54.072 E20.15061
G1 X71.774 Y53.060 E20.22670
G1 X71.647 Y53.008 E20.23400
G1 X60.945 Y53.008 E20.80317
G1 X60.839 Y53.043 E20.80910
G1 X59.642 Y53.935 E20.88850
G1 X59.081 Y54.283 E20.92362
G1 X57.553 Y55.060 E21.01476
G1 X56.941 Y55.308 E21.04988
G1 X55.304 Y55.815 E21.14103
G1 X54.659 Y55.956 E21.17614
G1 X52.960 Y56.179 E21.26728
G1 X52.300 Y56.208 E21.30240
G1 X50.588 Y56.140 E21.39353
G1 X49.932 Y56.058 E21.42865
G1 X48.256 Y55.700 E21.51980
G1 X47.625 Y55.508 E21.55491
G1 X46.033 Y54.873 E21.64606
G1 X45.443 Y54.576 E21.68117
G1 X43.982 Y53.680 E21.77230
G1 X43.451 Y53.289 E21.80743
G1 X42.163 Y52.158 E21.89857
G1 X41.705 Y51.682 E21.93369
G1 X40.627 Y50.350 E22.02483
G1 X40.257 Y49.803 E22.05994
G1 X39.603 Y48.636 E22.13107
G1 X39.419 Y48.308 E22.15109
G1 X39.147 Y47.706 E22.18620
G1 X38.575 Y46.091 E22.27734
G1 X38.409 Y45.452 E22.31246
G1 X38.118 Y43.762 E22.40361
G1 X38.062 Y43.105 E22.43872
G1 X38.062 Y41.391 E22.52986
G1 X38.118 Y40.733 E22.56497
G1 X38.409 Y39.044 E22.65612
G1 X38.575 Y38.405 E22.69124
G1 X39.147 Y36.790 E22.78236
G1 X39.419 Y36.188 E22.81749
G1 X40.257 Y34.693 E22.90863
G1 X40.627 Y34.146 E22.94375
G1 X41.435 Y33.147 E23.01208
G1 X41.736 Y33.323 F7800.000
G1 X41.964 Y33.042 E23.03131 F1080.000
G1 X42.401 Y32.587 E23.06487
G1 X43.667 Y31.476 E23.15445
G1 X44.175 Y31.101 E23.18801
G1 X45.611 Y30.221 E23.27759
G1 X46.175 Y29.938 E23.31115
G1 X47.739 Y29.313 E23.40073
G1 X48.343 Y29.129 E23.43428
G1 X49.636 Y28.854 E23.50463
G1 X49.990 Y28.778 E23.52386
G1 X50.616 Y28.699 E23.55742
G1 X52.299 Y28.632 E23.64701
G1 X52.930 Y28.661 E23.68056
G1 X54.600 Y28.879 E23.77013
G1 X55.216 Y29.014 E23.80369
G1 X56.825 Y29.512 E23.89328
G1 X57.410 Y29.750 E23.92683
G1 X58.911 Y30.513 E24.01640
G1 X59.447 Y30.846 E24.04996
G1 X60.725 Y31.798 E24.13467
G1 X60.830 Y31.833 E24.14060
G1 X69.915 Y31.833 E24.62371
G1 X70.041 Y31.780 E24.63100
G1 X72.929 Y28.893 E24.84815
G1 X87.071 Y28.893 E25.60029
G1 X89.959 Y31.780 E25.81745
G1 X90.085 Y31.833 E25.82474
G1 X99.170 Y31.833 E26.30785
G1 X99.275 Y31.798 E26.31378
G1 X100.553 Y30.846 E26.39849
G1 X101.089 Y30.513 E26.43205
G1 X102.590 Y29.750 E26.52163
G1 X103.175 Y29.512 E26.55518
G1 X104.784 Y29.014 E26.64476
G1 X105.400 Y28.879 E26.67832
G1 X107.071 Y28.661 E26.76790
G1 X107.701 Y28.632 E26.80145
G1 X109.023 Y28.685 E26.87180
G1 X109.384 Y28.700 E26.89104
G1 X110.010 Y28.778 E26.92459
G1 X111.657 Y29.129 E27.01416
G1 X112.261 Y29.313 E27.04772
G1 X113.825 Y29.938 E27.13730
G1 X114.389 Y30.221 E27.17086
G1 X115.825 Y31.102 E27.26045
G1 X116.333 Y31.476 E27.29400
G1 X117.599 Y32.587 E27.38357
G1 X118.036 Y33.042 E27.41713
G1 X119.096 Y34.351 E27.50671
G1 X119.450 Y34.874 E27.54027
G1 X120.272 Y36.343 E27.62983
G1 X120.533 Y36.918 E27.66339
G1 X121.095 Y38.506 E27.75299
G1 X121.254 Y39.117 E27.78655
G1 X121.539 Y40.777 E27.87612
G1 X121.593 Y41.406 E27.90968
G1 X121.593 Y43.090 E27.99925
G1 X121.539 Y43.719 E28.03281
G1 X121.254 Y45.379 E28.12239
G1 X121.095 Y45.989 E28.15595
G1 X120.533 Y47.577 E28.24552
G1 X120.272 Y48.152 E28.27908
G1 X119.449 Y49.622 E28.36868
G1 X119.096 Y50.144 E28.40223
G1 X118.036 Y51.454 E28.49180
G1 X117.599 Y51.909 E28.52536
G1 X116.333 Y53.020 E28.61493
G1 X115.825 Y53.394 E28.64849
G1 X114.389 Y54.275 E28.73806
G1 X113.825 Y54.558 E28.77163
G1 X112.261 Y55.183 E28.86120
G1 X111.657 Y55.366 E28.89476
G1 X110.010 Y55.717 E28.98434
G1 X109.384 Y55.796 E29.01790
G1 X107.701 Y55.863 E29.10748
G1 X107.070 Y55.835 E29.14104
G1 X105.401 Y55.616 E29.23061
G1 X104.784 Y55.481 E29.26417
G1 X103.175 Y54.983 E29.35376
G1 X102.590 Y54.746 E29.38731
G1 X101.089 Y53.983 E29.47688
G1 X100.553 Y53.650 E29.51044
G1 X99.275 Y52.698 E29.59516
G1 X99.170 Y52.663 E29.60108
G1 X88.210 Y52.663 E30.18394
G1 X88.083 Y52.715 E30.19123
G1 X87.071 Y53.727 E30.26732
G1 X72.929 Y53.727 E31.01946
G1 X71.917 Y52.715 E31.09555
G1 X71.790 Y52.663 E31.10284
G1 X60.830 Y52.663 E31.68570
G1 X60.725 Y52.698 E31.69163
G1 X59.447 Y53.650 E31.77633
G1 X58.911 Y53.983 E31.80989
G1 X57.410 Y54.746 E31.89947
G1 X56.825 Y54.983 E31.93303
G1 X55.216 Y55.481 E32.02261
G1 X54.600 Y55.616 E32.05617
G1 X52.929 Y55.835 E32.14575
G1 X52.299 Y55.863 E32.17930
G1 X50.616 Y55.796 E32.26887
G1 X49.990 Y55.717 E32.30244
G1 X48.343 Y55.366 E32.39202
G1 X47.739 Y55.183 E32.42558
G1 X46.175 Y54.558 E32.51516
G1 X45.611 Y54.275 E32.54871
G1 X44.175 Y53.394 E32.63828
G1 X43.667 Y53.020 E32.67185
G1 X42.401 Y51.909 E32.76142
G1 X41.964 Y51.454 E32.79498
G1 X40.904 Y50.144 E32.88456
G1 X40.550 Y49.622 E32.91812
G1 X39.904 Y48.468 E32.98847
G1 X39.728 Y48.152 E33.00770
G1 X39.467 Y47.577 E33.04126
G1 X38.905 Y45.989 E33.13083
G1 X38.746 Y45.379 E33.16439
G1 X38.461 Y43.719 E33.25398
G1 X38.407 Y43.090 E33.28753
G1 X38.407 Y41.406 E33.37710
G1 X38.461 Y40.777 E33.41066
G1 X38.746 Y39.117 E33.50025
G1 X38.905 Y38.506 E33.53380
G1 X39.467 Y36.918 E33.62337
G1 X39.728 Y36.344 E33.65693
G1 X40.550 Y34.874 E33.74651
G1 X40.904 Y34.351 E33.78007
G1 X41.703 Y33.364 E33.84762
G1 X42.004 Y33.540 F7800.000
G1 X42.223 Y33.270 E33.86607 F1080.000
G1 X42.640 Y32.837 E33.89807
G1 X43.883 Y31.745 E33.98609
G1 X44.368 Y31.388 E34.01809
G1 X45.779 Y30.522 E34.10611
G1 X46.316 Y30.253 E34.13810
G1 X47.853 Y29.638 E34.22612
G1 X48.429 Y29.464 E34.25812
G1 X50.048 Y29.119 E34.34613
G1 X50.645 Y29.044 E34.37813
G1 X52.298 Y28.977 E34.46616
G1 X52.899 Y29.005 E34.49815
G1 X54.540 Y29.219 E34.58616
G1 X55.128 Y29.348 E34.61816
G1 X56.709 Y29.838 E34.70619
G1 X57.267 Y30.064 E34.73818
G1 X58.742 Y30.814 E34.82619
G1 X59.253 Y31.131 E34.85819
G1 X60.610 Y32.142 E34.94820
G1 X60.716 Y32.178 E34.95412
G1 X70.057 Y32.178 E35.45091
G1 X70.184 Y32.125 E35.45821
G1 X73.071 Y29.238 E35.67536
G1 X86.929 Y29.238 E36.41231
G1 X89.816 Y32.125 E36.62946
G1 X89.943 Y32.178 E36.63676
G1 X99.284 Y32.178 E37.13355
G1 X99.390 Y32.142 E37.13947
G1 X100.747 Y31.131 E37.22949
G1 X101.258 Y30.814 E37.26148
G1 X102.734 Y30.064 E37.34951
G1 X103.291 Y29.838 E37.38150
G1 X104.872 Y29.348 E37.46951
G1 X105.460 Y29.219 E37.50151
G1 X107.101 Y29.005 E37.58953
G1 X107.702 Y28.977 E37.62152
G1 X109.356 Y29.044 E37.70955
G1 X109.953 Y29.119 E37.74154
G1 X111.571 Y29.464 E37.82955
G1 X112.147 Y29.638 E37.86155
G1 X113.684 Y30.253 E37.94957
G1 X114.221 Y30.522 E37.98157
G1 X115.632 Y31.388 E38.06960
G1 X116.117 Y31.745 E38.10159
G1 X117.360 Y32.836 E38.18960
G1 X117.777 Y33.270 E38.22159
G1 X118.818 Y34.557 E38.30961
G1 X119.156 Y35.055 E38.34161
G1 X119.964 Y36.499 E38.42961
G1 X120.212 Y37.047 E38.46161
G1 X120.765 Y38.608 E38.54965
G1 X120.917 Y39.190 E38.58164
G1 X121.197 Y40.821 E38.66965
G1 X121.248 Y41.420 E38.70165
G1 X121.248 Y43.075 E38.78967
G1 X121.197 Y43.675 E38.82166
G1 X120.917 Y45.306 E38.90968
G1 X120.765 Y45.888 E38.94169
G1 X120.212 Y47.448 E39.02969
G1 X119.964 Y47.996 E39.06169
G1 X119.156 Y49.441 E39.14972
G1 X118.818 Y49.939 E39.18171
G1 X117.777 Y51.225 E39.26973
G1 X117.360 Y51.659 E39.30172
G1 X116.117 Y52.751 E39.38973
G1 X115.632 Y53.108 E39.42173
G1 X114.222 Y53.973 E39.50975
G1 X113.684 Y54.243 E39.54175
G1 X112.147 Y54.857 E39.62977
G1 X111.571 Y55.032 E39.66177
G1 X109.953 Y55.377 E39.74978
G1 X109.355 Y55.452 E39.78178
G1 X107.702 Y55.518 E39.86980
G1 X107.101 Y55.491 E39.90179
G1 X105.460 Y55.276 E39.98980
G1 X104.872 Y55.148 E40.02181
G1 X103.291 Y54.658 E40.10983
G1 X102.733 Y54.432 E40.14183
G1 X101.258 Y53.682 E40.22984
G1 X100.747 Y53.365 E40.26184
G1 X99.390 Y52.353 E40.35185
