; generated by Slic3r 1.2.9 on 2018-09-06 at 17:15:35

; external perimeters extrusion width = 0.37mm
; perimeters extrusion width = 0.58mm
; infill extrusion width = 0.58mm
; solid infill extrusion width = 0.58mm
; top infill extrusion width = 0.58mm

M107
M190 S80 ; set bed temperature
M104 S230 ; set temperature
G28 ; home all axes
G1 Z5 F5000 ; lift nozzle
M109 S230 ; wait for temperature to be reached
G21 ; set units to millimeters
G90 ; use absolute coordinates
M82 ; use absolute distances for extrusion
G92 E0
G1 E-1.00000 F1800.00000
G92 E0
G1 Z0.300 F7800.000
G1 X49.121 Y57.976 F7800.000
G1 E1.00000 F1800.00000
G1 X50.978 Y56.732 E1.08734 F1080.000
G1 X53.500 Y56.204 E1.18801
G1 X102.300 Y56.204 E3.09473
G1 X104.500 Y56.601 E3.18207
G1 X106.422 Y57.742 E3.26940
G1 X107.308 Y58.685 E3.31994
G1 X113.708 Y67.085 E3.73256
G1 X114.725 Y69.075 E3.81989
G1 X114.996 Y70.900 E3.89199
G1 X114.996 Y72.500 E3.95450
G1 X114.971 Y73.052 E3.97608
G1 X112.771 Y98.052 E4.95666
G1 X112.183 Y100.208 E5.04400
G1 X110.879 Y102.023 E5.13134
G1 X109.022 Y103.268 E5.21867
G1 X106.500 Y103.796 E5.31935
G1 X51.300 Y103.796 E7.47613
G1 X49.100 Y103.399 E7.56346
G1 X47.178 Y102.258 E7.65080
G1 X45.775 Y100.518 E7.73814
G1 X45.004 Y97.500 E7.85984
G1 X45.004 Y87.500 E8.25056
G1 X45.029 Y86.948 E8.27215
G1 X47.229 Y61.948 E9.25272
G1 X47.817 Y59.792 E9.34006
G1 X49.089 Y58.022 E9.42523
G1 E8.42523 F1800.00000
G92 E0
G1 X75.029 Y88.271 F7800.000
G1 E1.00000 F1800.00000
G1 X76.229 Y88.271 E1.04689 F540.000
G1 X76.229 Y96.729 E1.37734
G1 X71.771 Y96.729 E1.55150
G1 X71.771 Y88.029 E1.89143
G1 X70.371 Y88.029 E1.94613
G1 X70.371 Y82.519 E2.16140
G1 X71.334 Y63.271 E2.91440
G1 X74.066 Y63.271 E3.02117
G1 X75.029 Y82.519 E3.77417
G1 X75.029 Y88.216 E3.99675
G1 X66.229 Y88.271 F7800.000
G1 X66.229 Y96.729 E4.32720 F270.000
G1 X63.071 Y96.729 E4.45057
G1 X63.071 Y88.271 E4.78102
G1 X66.173 Y88.271 E4.90223
G1 X56.729 Y88.271 F7800.000
G1 X57.529 Y88.271 E4.93348 F540.000
G1 X57.529 Y96.729 E5.26394
G1 X52.071 Y96.729 E5.47717
G1 X52.071 Y88.271 E5.80763
G1 X53.271 Y88.271 E5.85451
G1 X53.271 Y82.519 E6.07925
G1 X54.234 Y63.271 E6.83225
G1 X55.766 Y63.271 E6.89214
G1 X56.729 Y82.519 E7.64514
G1 X56.729 Y88.216 E7.86771
G1 X57.024 Y87.976 F7800.000
G1 X70.076 Y87.976 E8.37765 F540.000
G1 X70.076 Y82.512 E8.59113
G1 X71.052 Y62.976 E9.35541
G1 X74.348 Y62.976 E9.48416
G1 X75.324 Y82.512 E10.24843
G1 X75.324 Y87.976 E10.46191
G1 X76.524 Y87.976 E10.50880
G1 X76.524 Y97.024 E10.86235
G1 X71.476 Y97.024 E11.05962
G1 X71.476 Y88.324 E11.39955
G1 X66.524 Y88.324 E11.59300
G1 X66.524 Y97.024 E11.93293
G1 X62.776 Y97.024 E12.07940
G1 X62.776 Y88.324 E12.41933
G1 X57.824 Y88.324 E12.61278
G1 X57.824 Y97.024 E12.95271
G1 X51.776 Y97.024 E13.18905
G1 X51.776 Y87.976 E13.54260
G1 X52.976 Y87.976 E13.58949
G1 X52.976 Y82.512 E13.80297
G1 X53.952 Y62.976 E14.56724
G1 X56.048 Y62.976 E14.64910
G1 X57.024 Y82.512 E15.41338
G1 X57.024 Y87.920 E15.62469
G1 X57.320 Y87.680 F7800.000
G1 X69.780 Y87.680 E16.11153 F378.000
G1 X69.780 Y82.504 E16.31375
G1 X70.771 Y62.680 E17.08930
G1 X74.629 Y62.680 E17.24002
G1 X75.620 Y82.504 E18.01557
G1 X75.620 Y87.680 E18.21779
G1 X76.820 Y87.680 E18.26468
G1 X76.820 Y97.320 E18.64133
G1 X71.180 Y97.320 E18.86170
G1 X71.180 Y88.620 E19.20163
G1 X66.820 Y88.620 E19.37198
G1 X66.820 Y97.320 E19.71191
G1 X62.480 Y97.320 E19.88148
G1 X62.480 Y88.620 E20.22141
G1 X58.120 Y88.620 E20.39176
G1 X58.120 Y97.320 E20.73169
G1 X51.480 Y97.320 E20.99113
G1 X51.480 Y87.680 E21.36778
G1 X52.680 Y87.680 E21.41467
G1 X52.680 Y82.504 E21.61689
G1 X53.671 Y62.680 E22.39244
G1 X56.329 Y62.680 E22.49628
G1 X57.320 Y82.504 E23.27183
G1 X57.320 Y87.624 E23.47188
G1 X57.320 Y88.050 F7800.000
G1 X57.677 Y88.150 F7800.000
G1 X62.923 Y88.150 E23.67688 F360.000
G1 X66.060 Y88.605 F7800.000
G1 X65.895 Y88.440 E23.68616 F540.000
G1 X65.470 Y88.440 E23.70299
G1 X66.060 Y89.030 E23.73608
G1 X66.060 Y89.454 E23.75291
G1 X65.046 Y88.440 E23.80980
G1 X64.622 Y88.440 E23.82664
G1 X66.060 Y89.878 E23.90733
G1 X66.060 Y90.303 E23.92417
G1 X64.197 Y88.440 E24.02867
G1 X63.773 Y88.440 E24.04550
G1 X66.060 Y90.727 E24.17381
G1 X66.060 Y91.152 E24.19065
G1 X63.348 Y88.440 E24.34276
G1 X63.240 Y88.756 E24.35601
G1 X66.060 Y91.576 E24.51422
G1 X66.060 Y92.000 E24.53105
G1 X63.240 Y89.180 E24.68926
G1 X63.240 Y89.604 E24.70609
G1 X66.060 Y92.425 E24.86430
G1 X66.060 Y92.849 E24.88113
G1 X63.240 Y90.029 E25.03934
G1 X63.240 Y90.453 E25.05617
G1 X66.060 Y93.274 E25.21438
G1 X66.060 Y93.698 E25.23121
G1 X63.240 Y90.878 E25.38942
G1 X63.240 Y91.302 E25.40625
G1 X66.060 Y94.122 E25.56446
G1 X66.060 Y94.547 E25.58129
G1 X63.240 Y91.726 E25.73950
G1 X63.240 Y92.151 E25.75633
G1 X66.060 Y94.971 E25.91454
G1 X66.060 Y95.396 E25.93137
G1 X63.240 Y92.575 E26.08958
G1 X63.240 Y93.000 E26.10641
G1 X66.060 Y95.820 E26.26462
G1 X66.060 Y96.244 E26.28145
G1 X63.240 Y93.424 E26.43966
G1 X63.240 Y93.848 E26.45649
G1 X65.952 Y96.560 E26.60861
G1 X65.527 Y96.560 E26.62544
G1 X63.240 Y94.273 E26.75375
G1 X63.240 Y94.697 E26.77058
G1 X65.103 Y96.560 E26.87509
G1 X64.678 Y96.560 E26.89192
G1 X63.240 Y95.122 E26.97262
G1 X63.240 Y95.546 E26.98945
G1 X64.254 Y96.560 E27.04634
G1 X63.830 Y96.560 E27.06317
G1 X63.240 Y95.970 E27.09626
G1 X63.240 Y96.395 E27.11309
G1 X63.405 Y96.560 E27.12237
G1 X66.377 Y88.150 F7800.000
G1 X70.223 Y88.150 E27.27267 F360.000
G1 X70.943 Y87.860 F7800.000
G1 X70.540 Y87.457 E27.29502 F540.000
G1 X70.540 Y87.038 E27.31141
G1 X71.362 Y87.860 E27.35693
G1 X71.781 Y87.860 F7800.000
G1 X70.540 Y86.619 E27.42564 F540.000
G1 X70.540 Y86.200 E27.44203
G1 X76.060 Y91.721 E27.74760
G1 X76.060 Y91.302 E27.76399
G1 X70.540 Y85.781 E28.06956
G1 X70.540 Y85.363 E28.08595
G1 X76.060 Y90.883 E28.39151
G1 X76.060 Y90.464 E28.40791
G1 X70.540 Y84.944 E28.71347
G1 X70.540 Y84.525 E28.72986
G1 X76.060 Y90.045 E29.03543
G1 X76.060 Y88.789 F7800.000
G1 X75.711 Y88.440 E29.05476 F540.000
G1 X75.292 Y88.440 E29.07116
G1 X76.060 Y89.208 E29.11367
G1 X76.060 Y89.627 E29.13006
G1 X70.540 Y84.106 E29.43563
G1 X70.540 Y83.687 E29.45202
G1 X74.860 Y88.008 E29.69116
G1 X74.860 Y87.589 E29.70756
G1 X70.540 Y83.269 E29.94670
G1 X70.540 Y82.850 E29.96309
G1 X74.860 Y87.170 E30.20224
G1 X74.860 Y86.751 E30.21863
G1 X70.541 Y82.433 E30.45769
G1 X70.561 Y82.034 E30.47332
G1 X74.860 Y86.333 E30.71128
G1 X74.860 Y85.914 E30.72767
G1 X70.581 Y81.635 E30.96453
G1 X70.601 Y81.236 E30.98016
G1 X74.860 Y85.495 E31.21591
G1 X74.860 Y85.076 E31.23230
G1 X70.621 Y80.837 E31.46695
G1 X70.641 Y80.438 E31.48258
G1 X74.860 Y84.657 E31.71612
G1 X74.860 Y84.239 E31.73251
G1 X70.661 Y80.039 E31.96495
G1 X70.681 Y79.641 E31.98058
G1 X74.860 Y83.820 E32.21192
G1 X74.860 Y83.401 E32.22831
G1 X70.701 Y79.242 E32.45854
G1 X70.721 Y78.843 E32.47417
G1 X74.860 Y82.982 E32.70330
G1 X74.859 Y82.562 E32.71974
G1 X70.741 Y78.444 E32.94769
G1 X70.761 Y78.045 E32.96332
G1 X74.837 Y82.121 E33.18895
G1 X74.815 Y81.681 E33.20623
G1 X70.781 Y77.646 E33.42954
G1 X70.801 Y77.247 E33.44517
G1 X74.793 Y81.240 E33.66615
G1 X74.771 Y80.799 E33.68342
G1 X70.820 Y76.849 E33.90208
G1 X70.840 Y76.450 E33.91771
G1 X74.749 Y80.358 E34.13404
G1 X74.727 Y79.917 E34.15132
G1 X70.860 Y76.051 E34.36533
G1 X70.880 Y75.652 E34.38096
G1 X74.705 Y79.476 E34.59265
G1 X74.683 Y79.036 E34.60992
G1 X70.900 Y75.253 E34.81928
G1 X70.920 Y74.854 E34.83491
G1 X74.661 Y78.595 E35.04195
G1 X74.639 Y78.154 E35.05923
G1 X70.940 Y74.455 E35.26394
G1 X70.960 Y74.057 E35.27957
G1 X74.616 Y77.713 E35.48196
G1 X74.594 Y77.272 E35.49924
G1 X70.980 Y73.658 E35.69931
G1 X71.000 Y73.259 E35.71494
G1 X74.572 Y76.831 E35.91268
G1 X74.550 Y76.391 E35.92995
G1 X71.020 Y72.860 E36.12537
G1 X71.040 Y72.461 E36.14100
G1 X74.528 Y75.950 E36.33410
G1 X74.506 Y75.509 E36.35137
G1 X71.060 Y72.062 E36.54214
G1 X71.080 Y71.664 E36.55777
G1 X74.484 Y75.068 E36.74622
G1 X74.462 Y74.627 E36.76350
G1 X71.100 Y71.265 E36.94962
G1 X71.120 Y70.866 E36.96525
G1 X74.440 Y74.186 E37.14905
G1 X74.418 Y73.746 E37.16632
G1 X71.140 Y70.467 E37.34780
G1 X71.159 Y70.068 E37.36343
G1 X74.396 Y73.305 E37.54258
G1 X74.374 Y72.864 E37.55986
G1 X71.179 Y69.669 E37.73668
G1 X71.199 Y69.270 E37.75231
G1 X74.352 Y72.423 E37.92682
G1 X74.330 Y71.982 E37.94409
G1 X71.219 Y68.872 E38.11627
G1 X71.239 Y68.473 E38.13190
G1 X74.308 Y71.541 E38.30176
G1 X74.286 Y71.100 E38.31903
G1 X71.259 Y68.074 E38.48656
G1 X71.279 Y67.675 E38.50219
G1 X74.264 Y70.660 E38.66740
G1 X74.242 Y70.219 E38.68468
G1 X71.299 Y67.276 E38.84756
G1 X71.319 Y66.877 E38.86319
G1 X74.220 Y69.778 E39.02375
G1 X74.198 Y69.337 E39.04103
G1 X71.339 Y66.478 E39.19926
G1 X71.359 Y66.080 E39.21489
G1 X74.176 Y68.896 E39.37080
G1 X74.154 Y68.455 E39.38808
G1 X71.379 Y65.681 E39.54167
G1 X71.399 Y65.282 E39.55730
G1 X74.132 Y68.015 E39.70856
G1 X74.110 Y67.574 E39.72584
G1 X71.419 Y64.883 E39.87478
G1 X71.439 Y64.484 E39.89041
G1 X74.087 Y67.133 E40.03702
G1 X74.065 Y66.692 E40.05430
G1 X71.459 Y64.085 E40.19859
G1 X71.479 Y63.686 E40.21422
G1 X74.043 Y66.251 E40.35619
G1 X74.021 Y65.810 E40.37347
G1 X71.651 Y63.440 E40.50469
G1 X72.069 Y63.440 E40.52108
G1 X73.999 Y65.370 E40.62790
G1 X73.977 Y64.929 E40.64518
G1 X72.488 Y63.440 E40.72760
G1 X72.907 Y63.440 E40.74399
G1 X73.955 Y64.488 E40.80201
G1 X73.933 Y64.047 E40.81928
G1 X73.326 Y63.440 E40.85290
G1 X73.745 Y63.440 E40.86929
G1 X73.911 Y63.606 E40.87851
G1 X71.940 Y88.019 F7800.000
G1 X76.060 Y92.139 E41.10658 F540.000
G1 X76.060 Y92.558 E41.12297
G1 X71.940 Y88.438 E41.35105
G1 X71.940 Y88.857 E41.36744
G1 X76.060 Y92.977 E41.59551
G1 X76.060 Y93.396 E41.61191
G1 X71.940 Y89.275 E41.83998
G1 X71.940 Y89.694 E41.85637
G1 X76.060 Y93.815 E42.08445
G1 X76.060 Y94.233 E42.10084
G1 X71.940 Y90.113 E42.32891
G1 X71.940 Y90.532 E42.34530
G1 X76.060 Y94.652 E42.57338
G1 X76.060 Y95.071 E42.58977
G1 X71.940 Y90.951 E42.81784
G1 X71.940 Y91.369 E42.83424
G1 X76.060 Y95.490 E43.06231
G1 X76.060 Y95.909 E43.07870
G1 X71.940 Y91.788 E43.30678
G1 X71.940 Y92.207 E43.32317
G1 X76.060 Y96.327 E43.55124
G1 X75.874 Y96.560 E43.56291
G1 X71.940 Y92.626 E43.78069
G1 X71.940 Y93.044 E43.79708
G1 X75.456 Y96.560 E43.99168
G1 X75.037 Y96.560 E44.00808
G1 X71.940 Y93.463 E44.17950
G1 X71.940 Y93.882 E44.19589
G1 X74.618 Y96.560 E44.34413
G1 X74.199 Y96.560 E44.36052
G1 X71.940 Y94.301 E44.48558
G1 X71.940 Y94.720 E44.50197
G1 X73.780 Y96.560 E44.60385
G1 X73.362 Y96.560 E44.62024
G1 X71.940 Y95.138 E44.69894
G1 X71.940 Y95.557 E44.71533
G1 X72.943 Y96.560 E44.77085
G1 X72.524 Y96.560 E44.78724
G1 X71.940 Y95.976 E44.81957
G1 X71.940 Y96.395 E44.83596
G1 X72.105 Y96.560 E44.84512
G1 E43.84512 F1800.00000
G92 E0
G1 X57.360 Y89.742 F7800.000
G1 E1.00000 F1800.00000
G1 X53.440 Y85.822 E1.21787 F540.000
G1 X53.440 Y86.242 E1.23439
G1 X57.360 Y90.163 E1.45226
G1 X57.360 Y90.583 E1.46878
G1 X53.440 Y86.663 E1.68665
G1 X53.440 Y87.083 E1.70318
G1 X57.360 Y91.004 E1.92105
G1 X57.360 Y91.424 E1.93757
G1 X53.440 Y87.504 E2.15544
G1 X53.440 Y87.924 E2.17196
G1 X57.360 Y91.845 E2.38983
G1 X57.360 Y92.265 E2.40635
G1 X53.440 Y88.345 E2.62422
G1 X53.114 Y88.440 F7800.000
G1 X57.360 Y92.686 E2.86017 F540.000
G1 X57.360 Y93.106 E2.87669
G1 X52.694 Y88.440 E3.13601
G1 X52.274 Y88.440 E3.15253
G1 X57.360 Y93.526 E3.43521
G1 X57.360 Y93.947 E3.45173
G1 X52.240 Y88.826 E3.73629
G1 X52.240 Y89.247 E3.75281
G1 X57.360 Y94.367 E4.03737
G1 X57.360 Y94.788 E4.05389
G1 X52.240 Y89.667 E4.33845
G1 X52.240 Y90.088 E4.35497
G1 X57.360 Y95.208 E4.63953
G1 X57.360 Y95.629 E4.65605
G1 X52.240 Y90.508 E4.94061
G1 X52.240 Y90.929 E4.95713
G1 X57.360 Y96.049 E5.24169
G1 X57.360 Y96.470 E5.25821
G1 X52.240 Y91.349 E5.54277
G1 X52.240 Y91.770 E5.55929
G1 X57.030 Y96.560 E5.82551
G1 X56.610 Y96.560 E5.84203
G1 X52.240 Y92.190 E6.08489
G1 X52.240 Y92.611 E6.10141
G1 X56.189 Y96.560 E6.32090
G1 X55.769 Y96.560 E6.33742
G1 X52.240 Y93.031 E6.53354
G1 X52.240 Y93.452 E6.55006
G1 X55.348 Y96.560 E6.72282
G1 X54.928 Y96.560 E6.73934
G1 X52.240 Y93.872 E6.88873
G1 X52.240 Y94.293 E6.90525
G1 X54.507 Y96.560 E7.03127
G1 X54.087 Y96.560 E7.04779
G1 X52.240 Y94.713 E7.15045
G1 X52.240 Y95.133 E7.16697
G1 X53.667 Y96.560 E7.24626
G1 X53.246 Y96.560 E7.26278
G1 X52.240 Y95.554 E7.31871
G1 X52.240 Y95.974 E7.33523
G1 X52.826 Y96.560 E7.36778
G1 X52.405 Y96.560 E7.38431
G1 X52.240 Y96.395 E7.39350
G1 X56.899 Y88.440 F7800.000
G1 X57.360 Y88.901 E7.41915 F540.000
G1 X57.360 Y89.322 E7.43567
G1 X53.440 Y85.401 E7.65354
G1 X53.440 Y84.981 E7.67006
G1 X56.560 Y88.101 E7.84347
G1 X56.560 Y87.681 E7.86000
G1 X53.440 Y84.560 E8.03341
G1 X53.440 Y84.140 E8.04993
G1 X56.560 Y87.260 E8.22334
G1 X56.560 Y86.840 E8.23986
G1 X53.440 Y83.720 E8.41328
G1 X53.440 Y83.299 E8.42980
G1 X56.560 Y86.419 E8.60321
G1 X56.560 Y85.999 E8.61973
G1 X53.440 Y82.879 E8.79314
G1 X53.440 Y82.458 E8.80966
G1 X56.560 Y85.579 E8.98306
G1 X56.560 Y85.158 E8.99958
G1 X53.460 Y82.058 E9.17187
G1 X53.480 Y81.657 E9.18762
G1 X56.560 Y84.738 E9.35880
G1 X56.560 Y84.317 E9.37532
G1 X53.500 Y81.257 E9.54538
G1 X53.520 Y80.857 E9.56114
G1 X56.560 Y83.897 E9.73009
G1 X56.560 Y83.476 E9.74661
G1 X53.540 Y80.456 E9.91445
G1 X53.560 Y80.056 E9.93020
G1 X56.560 Y83.056 E10.09693
G1 X56.560 Y82.635 E10.11345
G1 X53.580 Y79.655 E10.27906
G1 X53.600 Y79.255 E10.29482
G1 X56.541 Y82.195 E10.45822
G1 X56.518 Y81.753 E10.47564
G1 X53.620 Y78.854 E10.63670
G1 X53.640 Y78.454 E10.65246
G1 X56.496 Y81.310 E10.81118
G1 X56.474 Y80.867 E10.82860
G1 X53.660 Y78.053 E10.98498
G1 X53.680 Y77.653 E11.00073
G1 X56.452 Y80.425 E11.15477
G1 X56.430 Y79.982 E11.17218
G1 X53.700 Y77.253 E11.32388
G1 X53.720 Y76.852 E11.33963
G1 X56.408 Y79.540 E11.48899
G1 X56.386 Y79.097 E11.50640
G1 X53.740 Y76.452 E11.65341
G1 X53.760 Y76.051 E11.66917
G1 X56.364 Y78.654 E11.81384
G1 X56.341 Y78.212 E11.83125
G1 X53.780 Y75.651 E11.97357
G1 X53.800 Y75.250 E11.98933
G1 X56.319 Y77.769 E12.12931
G1 X56.297 Y77.327 E12.14673
G1 X53.820 Y74.850 E12.28437
G1 X53.840 Y74.449 E12.30012
G1 X56.275 Y76.884 E12.43542
G1 X56.253 Y76.442 E12.45283
G1 X53.860 Y74.049 E12.58579
G1 X53.880 Y73.649 E12.60155
G1 X56.231 Y75.999 E12.73216
G1 X56.209 Y75.556 E12.74957
G1 X53.900 Y73.248 E12.87784
G1 X53.921 Y72.848 E12.89360
G1 X56.187 Y75.114 E13.01953
G1 X56.164 Y74.671 E13.03694
G1 X53.941 Y72.447 E13.16053
G1 X53.961 Y72.047 E13.17628
G1 X56.142 Y74.229 E13.29752
G1 X56.120 Y73.786 E13.31494
G1 X53.981 Y71.646 E13.43384
G1 X54.001 Y71.246 E13.44959
G1 X56.098 Y73.343 E13.56615
G1 X56.076 Y72.901 E13.58357
G1 X54.021 Y70.846 E13.69778
G1 X54.041 Y70.445 E13.71354
G1 X56.054 Y72.458 E13.82541
G1 X56.032 Y72.016 E13.84282
G1 X54.061 Y70.045 E13.95235
G1 X54.081 Y69.644 E13.96811
G1 X56.009 Y71.573 E14.07530
G1 X55.987 Y71.130 E14.09271
G1 X54.101 Y69.244 E14.19756
G1 X54.121 Y68.843 E14.21331
G1 X55.965 Y70.688 E14.31582
G1 X55.943 Y70.245 E14.33323
G1 X54.141 Y68.443 E14.43339
G1 X54.161 Y68.042 E14.44915
G1 X55.921 Y69.803 E14.54696
G1 X55.899 Y69.360 E14.56438
G1 X54.181 Y67.642 E14.65985
G1 X54.201 Y67.242 E14.67561
G1 X55.877 Y68.917 E14.76874
G1 X55.855 Y68.475 E14.78616
G1 X54.221 Y66.841 E14.87695
G1 X54.241 Y66.441 E14.89270
G1 X55.832 Y68.032 E14.98115
G1 X55.810 Y67.590 E14.99856
G1 X54.261 Y66.040 E15.08467
G1 X54.281 Y65.640 E15.10042
G1 X55.788 Y67.147 E15.18419
G1 X55.766 Y66.704 E15.20160
G1 X54.301 Y65.239 E15.28302
G1 X54.321 Y64.839 E15.29878
G1 X55.744 Y66.262 E15.37786
G1 X55.722 Y65.819 E15.39527
G1 X54.341 Y64.438 E15.47200
G1 X54.361 Y64.038 E15.48776
G1 X55.700 Y65.377 E15.56215
G1 X55.678 Y64.934 E15.57957
G1 X54.381 Y63.638 E15.65162
G1 X54.604 Y63.440 E15.66332
G1 X55.655 Y64.491 E15.72177
G1 X55.633 Y64.049 E15.73918
G1 X55.024 Y63.440 E15.77303
G1 X55.445 Y63.440 E15.78955
G1 X55.611 Y63.606 E15.79880
G1 E14.79880 F1800.00000
G92 E0
G1 Z0.300 F7800.000
G1 X102.071 Y71.671 F7800.000
G1 E1.00000 F1800.00000
G1 X106.729 Y71.671 E1.18198 F540.000
G1 X106.729 Y77.481 E1.40897
G1 X105.766 Y96.729 E2.16197
G1 X103.034 Y96.729 E2.26874
G1 X102.071 Y77.481 E3.02174
G1 X102.071 Y71.727 E3.24656
G1 X101.529 Y71.729 F7800.000
