; generated by Slic3r 1.2.9 on 2018-09-03 at 22:00:33

; external perimeters extrusion width = 0.37mm
; perimeters extrusion width = 0.63mm
; infill extrusion width = 1.10mm
; solid infill extrusion width = 0.63mm
; top infill extrusion width = 0.63mm

M107
M190 S80 ; set bed temperature
M104 S230 ; set temperature
G28 ; home all axes
G1 Z5 F5000 ; lift nozzle
M109 S230 ; wait for temperature to be reached
G21 ; set units to millimeters
G90 ; use absolute coordinates
M82 ; use absolute distances for extrusion
G92 E0
G1 E-1.00000 F1800.00000
G92 E0
G1 Z0.300 F7800.000
G1 X48.768 Y58.029 F7800.000
G1 E1.00000 F1800.00000
G1 X50.609 Y56.762 E1.08734 F1080.000
G1 X53.200 Y56.204 E1.19088
G1 X102.500 Y56.204 E3.11713
G1 X104.700 Y56.601 E3.20447
G1 X106.622 Y57.742 E3.29181
G1 X107.522 Y58.703 E3.34325
G1 X113.722 Y66.903 E3.74491
G1 X114.732 Y68.897 E3.83225
G1 X114.996 Y70.700 E3.90345
G1 X114.996 Y72.500 E3.97378
G1 X114.978 Y72.977 E3.99243
G1 X113.078 Y97.977 E4.97205
G1 X112.515 Y100.140 E5.05939
G1 X111.232 Y101.971 E5.14672
G1 X109.391 Y103.238 E5.23406
G1 X106.800 Y103.796 E5.33760
G1 X51.300 Y103.796 E7.50610
G1 X49.100 Y103.399 E7.59344
G1 X47.178 Y102.258 E7.68078
G1 X45.775 Y100.518 E7.76811
G1 X45.004 Y97.500 E7.88982
G1 X45.004 Y87.500 E8.28054
G1 X45.022 Y87.023 E8.29919
G1 X46.922 Y62.023 E9.27881
G1 X47.485 Y59.860 E9.36615
G1 X48.736 Y58.074 E9.45132
G1 E8.45132 F1800.00000
G92 E0
G1 X75.329 Y88.271 F7800.000
G1 E1.00000 F1800.00000
G1 X76.229 Y88.271 E1.03516 F540.000
G1 X76.229 Y96.729 E1.36562
G1 X71.771 Y96.729 E1.53978
G1 X71.771 Y88.529 E1.86017
G1 X66.229 Y88.529 E2.07673
G1 X66.229 Y96.729 E2.39712
G1 X63.071 Y96.729 E2.52049
G1 X63.071 Y88.529 E2.84088
G1 X57.529 Y88.529 E3.05744
G1 X57.529 Y96.729 E3.37783
G1 X52.071 Y96.729 E3.59107
G1 X52.071 Y88.271 E3.92152
G1 X52.971 Y88.271 E3.95669
G1 X52.971 Y82.519 E4.18143
G1 X53.934 Y63.271 E4.93443
G1 X56.066 Y63.271 E5.01776
G1 X57.029 Y82.519 E5.77076
G1 X57.029 Y88.271 E5.99550
G1 X70.071 Y88.271 E6.50510
G1 X70.071 Y82.519 E6.72984
G1 X71.034 Y63.271 E7.48284
G1 X74.366 Y63.271 E7.61305
G1 X75.329 Y82.519 E8.36605
G1 X75.329 Y88.216 E8.58863
G1 X75.624 Y87.976 F7800.000
G1 X76.524 Y87.976 E8.62379 F540.000
G1 X76.524 Y97.024 E8.97734
G1 X71.476 Y97.024 E9.17461
G1 X71.476 Y88.824 E9.49500
G1 X66.524 Y88.824 E9.68846
G1 X66.524 Y97.024 E10.00885
G1 X62.776 Y97.024 E10.15532
G1 X62.776 Y88.824 E10.47571
G1 X57.824 Y88.824 E10.66917
G1 X57.824 Y97.024 E10.98956
G1 X51.776 Y97.024 E11.22590
G1 X51.776 Y87.976 E11.57945
G1 X52.676 Y87.976 E11.61461
G1 X52.676 Y82.512 E11.82809
G1 X53.652 Y62.976 E12.59237
G1 X56.348 Y62.976 E12.69767
G1 X57.324 Y82.512 E13.46195
G1 X57.324 Y87.976 E13.67543
G1 X69.776 Y87.976 E14.16193
G1 X69.776 Y82.512 E14.37541
G1 X70.752 Y62.976 E15.13968
G1 X74.648 Y62.976 E15.29187
G1 X75.624 Y82.512 E16.05615
G1 X75.624 Y87.920 E16.26746
G1 X75.920 Y87.680 F7800.000
G1 X76.820 Y87.680 E16.30262 F378.000
G1 X76.820 Y97.320 E16.67928
G1 X71.180 Y97.320 E16.89965
G1 X71.180 Y89.120 E17.22004
G1 X66.820 Y89.120 E17.39039
G1 X66.820 Y97.320 E17.71078
G1 X62.480 Y97.320 E17.88036
G1 X62.480 Y89.120 E18.20075
G1 X58.120 Y89.120 E18.37110
G1 X58.120 Y97.320 E18.69149
G1 X51.480 Y97.320 E18.95093
G1 X51.480 Y87.680 E19.32759
G1 X52.380 Y87.680 E19.36275
G1 X52.380 Y82.504 E19.56497
G1 X53.371 Y62.680 E20.34052
G1 X56.629 Y62.680 E20.46780
G1 X57.620 Y82.504 E21.24335
G1 X57.620 Y87.680 E21.44557
G1 X69.480 Y87.680 E21.90896
G1 X69.480 Y82.504 E22.11118
G1 X70.471 Y62.680 E22.88673
G1 X74.929 Y62.680 E23.06090
G1 X75.920 Y82.504 E23.83645
G1 X75.920 Y87.624 E24.03650
G1 X75.920 Y88.050 F7800.000
G1 X76.060 Y88.688 F7800.000
G1 X75.812 Y88.440 E24.05035 F540.000
G1 X75.390 Y88.440 E24.06703
G1 X76.060 Y89.110 E24.10446
G1 X71.940 Y88.791 F7800.000
G1 X76.060 Y92.912 E24.33450 F540.000
G1 X76.060 Y93.334 E24.35118
G1 X71.940 Y89.214 E24.58122
G1 X71.940 Y89.636 E24.59789
G1 X76.060 Y93.757 E24.82794
G1 X76.060 Y94.179 E24.84461
G1 X71.940 Y90.059 E25.07466
G1 X71.940 Y90.481 E25.09133
G1 X76.060 Y94.602 E25.32138
G1 X76.060 Y95.024 E25.33805
G1 X71.940 Y90.904 E25.56809
G1 X71.940 Y91.326 E25.58477
G1 X76.060 Y95.446 E25.81481
G1 X76.060 Y95.869 E25.83149
G1 X71.940 Y91.748 E26.06153
G1 X71.940 Y92.171 E26.07821
G1 X76.060 Y96.291 E26.30825
G1 X75.907 Y96.560 E26.32048
G1 X71.940 Y92.593 E26.54196
G1 X71.940 Y93.016 E26.55863
G1 X75.484 Y96.560 E26.75653
G1 X75.062 Y96.560 E26.77320
G1 X71.940 Y93.438 E26.94752
G1 X71.940 Y93.860 E26.96419
G1 X74.640 Y96.560 E27.11492
G1 X74.217 Y96.560 E27.13160
G1 X71.940 Y94.283 E27.25875
G1 X71.940 Y94.705 E27.27542
G1 X73.795 Y96.560 E27.37899
G1 X73.372 Y96.560 E27.39566
G1 X71.940 Y95.128 E27.47564
G1 X71.940 Y95.550 E27.49232
G1 X72.950 Y96.560 E27.54872
G1 X72.528 Y96.560 E27.56539
G1 X71.940 Y95.972 E27.59821
G1 X71.940 Y96.395 E27.61488
G1 X72.105 Y96.560 E27.62412
G1 E26.62412 F1800.00000
G92 E0
G1 X70.664 Y88.360 F7800.000
G1 E1.00000 F1800.00000
G1 X70.240 Y87.936 E1.02367 F540.000
G1 X70.240 Y87.514 E1.04034
G1 X71.086 Y88.360 E1.08759
G1 X71.509 Y88.360 E1.10427
G1 X70.240 Y87.091 E1.17510
G1 X70.240 Y86.669 E1.19177
G1 X76.060 Y92.490 E1.51673
G1 X76.060 Y92.067 E1.53340
G1 X70.240 Y86.247 E1.85836
G1 X70.240 Y85.824 E1.87503
G1 X76.060 Y91.645 E2.19999
G1 X76.060 Y91.222 E2.21666
G1 X70.240 Y85.402 E2.54162
G1 X70.240 Y84.979 E2.55829
G1 X76.060 Y90.800 E2.88325
G1 X76.060 Y90.377 E2.89992
G1 X70.240 Y84.557 E3.22488
G1 X70.240 Y84.135 E3.24155
G1 X76.060 Y89.955 E3.56650
G1 X76.060 Y89.533 E3.58318
G1 X70.240 Y83.712 E3.90813
G1 X70.240 Y83.290 E3.92481
G1 X75.160 Y88.210 E4.19952
G1 X75.160 Y87.788 E4.21619
G1 X70.240 Y82.867 E4.49090
G1 X70.241 Y82.446 E4.50754
G1 X75.160 Y87.365 E4.78220
G1 X75.160 Y86.943 E4.79888
G1 X70.261 Y82.044 E5.07242
G1 X70.281 Y81.641 E5.08832
G1 X75.160 Y86.521 E5.36073
G1 X75.160 Y86.098 E5.37741
G1 X70.301 Y81.239 E5.64870
G1 X70.321 Y80.837 E5.66460
G1 X75.160 Y85.676 E5.93477
G1 X75.160 Y85.253 E5.95145
G1 X70.341 Y80.434 E6.22049
G1 X70.361 Y80.032 E6.23639
G1 X75.160 Y84.831 E6.50432
G1 X75.160 Y84.409 E6.52099
G1 X70.381 Y79.630 E6.78779
G1 X70.402 Y79.227 E6.80369
G1 X75.160 Y83.986 E7.06937
G1 X75.160 Y83.564 E7.08605
G1 X70.422 Y78.825 E7.35060
G1 X70.442 Y78.423 E7.36650
G1 X75.160 Y83.141 E7.62993
G1 X75.160 Y82.719 E7.64661
G1 X70.462 Y78.021 E7.90892
G1 X70.482 Y77.618 E7.92482
G1 X75.145 Y82.281 E8.18515
G1 X75.123 Y81.837 E8.20272
G1 X70.502 Y77.216 E8.46069
G1 X70.522 Y76.814 E8.47659
G1 X75.100 Y81.392 E8.73219
G1 X75.078 Y80.947 E8.74976
G1 X70.542 Y76.411 E9.00300
G1 X70.562 Y76.009 E9.01890
G1 X75.056 Y80.503 E9.26977
G1 X75.034 Y80.058 E9.28735
G1 X70.583 Y75.607 E9.53586
G1 X70.603 Y75.205 E9.55176
G1 X75.011 Y79.613 E9.79790
G1 X74.989 Y79.169 E9.81548
G1 X70.623 Y74.802 E10.05926
G1 X70.643 Y74.400 E10.07516
G1 X74.967 Y78.724 E10.31657
G1 X74.945 Y78.279 E10.33415
G1 X70.663 Y73.998 E10.57320
G1 X70.683 Y73.595 E10.58910
G1 X74.923 Y77.835 E10.82579
G1 X74.900 Y77.390 E10.84336
G1 X70.703 Y73.193 E11.07769
G1 X70.723 Y72.791 E11.09359
G1 X74.878 Y76.946 E11.32555
G1 X74.856 Y76.501 E11.34312
G1 X70.743 Y72.388 E11.57272
G1 X70.764 Y71.986 E11.58862
G1 X74.834 Y76.056 E11.81585
G1 X74.811 Y75.612 E11.83342
G1 X70.784 Y71.584 E12.05829
G1 X70.804 Y71.182 E12.07419
G1 X74.789 Y75.167 E12.29669
G1 X74.767 Y74.722 E12.31427
G1 X70.824 Y70.779 E12.53441
G1 X70.844 Y70.377 E12.55031
G1 X74.745 Y74.278 E12.76808
G1 X74.722 Y73.833 E12.78566
G1 X70.864 Y69.975 E13.00107
G1 X70.884 Y69.572 E13.01697
G1 X74.700 Y73.388 E13.23001
G1 X74.678 Y72.944 E13.24759
G1 X70.904 Y69.170 E13.45827
G1 X70.925 Y68.768 E13.47417
G1 X74.656 Y72.499 E13.68249
G1 X74.634 Y72.054 E13.70006
G1 X70.945 Y68.366 E13.90601
G1 X70.965 Y67.963 E13.92191
G1 X74.611 Y71.610 E14.12550
G1 X74.589 Y71.165 E14.14308
G1 X70.985 Y67.561 E14.34430
G1 X71.005 Y67.159 E14.36020
G1 X74.567 Y70.721 E14.55906
G1 X74.545 Y70.276 E14.57664
G1 X71.025 Y66.756 E14.77313
G1 X71.045 Y66.354 E14.78903
G1 X74.522 Y69.831 E14.98317
G1 X74.500 Y69.387 E15.00074
G1 X71.065 Y65.952 E15.19251
G1 X71.085 Y65.549 E15.20841
G1 X74.478 Y68.942 E15.39781
G1 X74.456 Y68.497 E15.41539
G1 X71.106 Y65.147 E15.60243
G1 X71.126 Y64.745 E15.61833
G1 X74.433 Y68.053 E15.80300
G1 X74.411 Y67.608 E15.82058
G1 X71.146 Y64.343 E16.00289
G1 X71.166 Y63.940 E16.01879
G1 X74.389 Y67.163 E16.19873
G1 X74.367 Y66.719 E16.21631
G1 X71.186 Y63.538 E16.39389
G1 X71.510 Y63.440 E16.40726
G1 X74.345 Y66.274 E16.56551
G1 X74.322 Y65.829 E16.58308
G1 X71.933 Y63.440 E16.71650
G1 X72.355 Y63.440 E16.73317
G1 X74.300 Y65.385 E16.84177
G1 X74.278 Y64.940 E16.85934
G1 X72.777 Y63.440 E16.94311
G1 X73.200 Y63.440 E16.95978
G1 X74.256 Y64.496 E17.01873
G1 X74.233 Y64.051 E17.03630
G1 X73.622 Y63.440 E17.07042
G1 X74.045 Y63.440 E17.08710
G1 X74.211 Y63.606 E17.09640
G1 E16.09640 F1800.00000
G92 E0
G1 X55.911 Y63.606 F7800.000
G1 E1.00000 F1800.00000
G1 X55.745 Y63.440 E1.00922 F540.000
G1 X55.326 Y63.440 E1.02564
G1 X55.933 Y64.047 E1.05929
G1 X55.955 Y64.489 E1.07659
G1 X54.906 Y63.440 E1.13468
G1 X54.487 Y63.440 E1.15110
G1 X55.977 Y64.930 E1.23362
G1 X55.999 Y65.371 E1.25092
G1 X54.099 Y63.471 E1.35618
G1 X54.070 Y63.860 E1.37149
G1 X56.021 Y65.812 E1.47958
G1 X56.043 Y66.253 E1.49688
G1 X54.050 Y64.260 E1.60731
G1 X54.030 Y64.659 E1.62296
G1 X56.066 Y66.694 E1.73571
G1 X56.088 Y67.135 E1.75301
G1 X54.010 Y65.058 E1.86808
G1 X53.990 Y65.457 E1.88374
G1 X56.110 Y67.577 E2.00114
G1 X56.132 Y68.018 E2.01844
G1 X53.970 Y65.856 E2.13817
G1 X53.950 Y66.255 E2.15382
G1 X56.154 Y68.459 E2.27588
G1 X56.176 Y68.900 E2.29318
G1 X53.930 Y66.654 E2.41757
G1 X53.910 Y67.053 E2.43322
G1 X56.198 Y69.341 E2.55993
G1 X56.220 Y69.782 E2.57723
G1 X53.890 Y67.453 E2.70627
G1 X53.870 Y67.852 E2.72192
G1 X56.242 Y70.223 E2.85329
G1 X56.264 Y70.664 E2.87059
G1 X53.850 Y68.251 E3.00428
G1 X53.830 Y68.650 E3.01993
G1 X56.286 Y71.106 E3.15595
G1 X56.308 Y71.547 E3.17325
G1 X53.810 Y69.049 E3.31160
G1 X53.790 Y69.448 E3.32725
G1 X56.330 Y71.988 E3.46793
G1 X56.352 Y72.429 E3.48523
G1 X53.771 Y69.847 E3.62823
G1 X53.751 Y70.246 E3.64388
G1 X56.374 Y72.870 E3.78921
G1 X56.396 Y73.311 E3.80651
G1 X53.731 Y70.646 E3.95417
G1 X53.711 Y71.045 E3.96982
G1 X56.418 Y73.752 E4.11980
G1 X56.441 Y74.194 E4.13710
G1 X53.691 Y71.444 E4.28941
G1 X53.671 Y71.843 E4.30506
G1 X56.463 Y74.635 E4.45970
G1 X56.485 Y75.076 E4.47700
G1 X53.651 Y72.242 E4.63396
G1 X53.631 Y72.641 E4.64962
G1 X56.507 Y75.517 E4.80891
G1 X56.529 Y75.958 E4.82621
G1 X53.611 Y73.040 E4.98783
G1 X53.591 Y73.439 E5.00348
G1 X56.551 Y76.399 E5.16742
G1 X56.573 Y76.840 E5.18472
G1 X53.571 Y73.839 E5.35100
G1 X53.551 Y74.238 E5.36665
G1 X56.595 Y77.282 E5.53525
G1 X56.617 Y77.723 E5.55255
G1 X53.531 Y74.637 E5.72348
G1 X53.511 Y75.036 E5.73913
G1 X56.639 Y78.164 E5.91238
G1 X56.661 Y78.605 E5.92968
G1 X53.491 Y75.435 E6.10526
G1 X53.471 Y75.834 E6.12091
G1 X56.683 Y79.046 E6.29882
G1 X56.705 Y79.487 E6.31612
G1 X53.451 Y76.233 E6.49636
G1 X53.431 Y76.632 E6.51201
G1 X56.727 Y79.928 E6.69457
G1 X56.749 Y80.369 E6.71187
G1 X53.411 Y77.031 E6.89676
G1 X53.391 Y77.431 E6.91241
G1 X56.771 Y80.811 E7.09963
G1 X56.793 Y81.252 E7.11693
G1 X53.371 Y77.830 E7.30647
G1 X53.351 Y78.229 E7.32213
G1 X56.815 Y81.693 E7.51400
G1 X56.838 Y82.134 E7.53130
G1 X53.332 Y78.628 E7.72549
G1 X53.312 Y79.027 E7.74115
G1 X56.860 Y82.575 E7.93767
G1 X56.860 Y82.995 E7.95411
G1 X53.292 Y79.426 E8.15178
G1 X53.272 Y79.825 E8.16743
G1 X56.860 Y83.414 E8.36620
G1 X56.860 Y83.833 E8.38261
G1 X53.252 Y80.224 E8.58249
G1 X53.232 Y80.624 E8.59814
G1 X56.860 Y84.252 E8.79912
G1 X56.860 Y84.671 E8.81554
G1 X53.212 Y81.023 E9.01762
G1 X53.192 Y81.422 E9.03328
G1 X56.860 Y85.090 E9.23647
G1 X56.860 Y85.509 E9.25288
G1 X53.172 Y81.821 E9.45718
G1 X53.152 Y82.220 E9.47283
G1 X56.860 Y85.928 E9.67823
G1 X56.860 Y86.347 E9.69465
G1 X53.140 Y82.627 E9.90072
G1 X53.140 Y83.046 E9.91714
G1 X56.860 Y86.767 E10.12321
G1 X56.860 Y87.186 E10.13962
G1 X53.140 Y83.465 E10.34570
G1 X53.140 Y83.884 E10.36211
G1 X56.860 Y87.605 E10.56819
G1 X56.860 Y88.024 E10.58460
G1 X53.140 Y84.303 E10.79067
G1 X53.140 Y84.722 E10.80709
G1 X57.360 Y88.943 E11.04086
G1 X57.360 Y89.362 E11.05727
G1 X53.140 Y85.142 E11.29104
G1 X53.140 Y85.561 E11.30745
G1 X57.360 Y89.781 E11.54122
G1 X57.360 Y90.200 E11.55764
G1 X53.140 Y85.980 E11.79141
G1 X53.140 Y86.399 E11.80782
G1 X57.360 Y90.619 E12.04159
G1 X57.360 Y91.038 E12.05800
G1 X53.140 Y86.818 E12.29177
G1 X53.140 Y87.237 E12.30819
G1 X57.360 Y91.457 E12.54195
G1 X57.360 Y91.876 E12.55837
G1 X53.140 Y87.656 E12.79214
G1 X53.140 Y88.075 E12.80855
G1 X57.360 Y92.296 E13.04232
G1 X57.360 Y92.715 E13.05873
G1 X53.085 Y88.440 E13.29552
G1 X52.666 Y88.440 E13.31193
G1 X57.360 Y93.134 E13.57193
G1 X57.360 Y93.553 E13.58834
G1 X52.247 Y88.440 E13.87155
G1 X52.240 Y88.851 E13.88767
G1 X57.360 Y93.972 E14.17129
G1 X57.360 Y94.391 E14.18771
G1 X52.240 Y89.270 E14.47133
G1 X52.240 Y89.690 E14.48774
G1 X57.360 Y94.810 E14.77136
G1 X57.360 Y95.229 E14.78777
G1 X52.240 Y90.109 E15.07139
G1 X52.240 Y90.528 E15.08781
G1 X57.360 Y95.648 E15.37143
G1 X57.360 Y96.067 E15.38784
G1 X52.240 Y90.947 E15.67146
G1 X52.240 Y91.366 E15.68787
G1 X57.360 Y96.486 E15.97149
G1 X57.015 Y96.560 E15.98532
G1 X52.240 Y91.785 E16.24982
G1 X52.240 Y92.204 E16.26623
G1 X56.596 Y96.560 E16.50752
G1 X56.177 Y96.560 E16.52393
G1 X52.240 Y92.623 E16.74201
G1 X52.240 Y93.042 E16.75842
G1 X55.758 Y96.560 E16.95328
G1 X55.339 Y96.560 E16.96970
G1 X52.240 Y93.461 E17.14135
G1 X52.240 Y93.880 E17.15776
G1 X54.920 Y96.560 E17.30620
G1 X54.501 Y96.560 E17.32261
G1 X52.240 Y94.299 E17.44783
G1 X52.240 Y94.719 E17.46425
G1 X54.081 Y96.560 E17.56626
G1 X53.662 Y96.560 E17.58267
G1 X52.240 Y95.138 E17.66147
G1 X52.240 Y95.557 E17.67788
G1 X53.243 Y96.560 E17.73347
G1 X52.824 Y96.560 E17.74988
G1 X52.240 Y95.976 E17.78225
G1 X52.240 Y96.395 E17.79867
G1 X52.405 Y96.560 E17.80783
G1 E16.80783 F1800.00000
G92 E0
G1 X63.405 Y96.560 F7800.000
G1 E1.00000 F1800.00000
G1 X63.240 Y96.395 E1.00928 F540.000
G1 X63.240 Y95.970 E1.02611
G1 X63.830 Y96.560 E1.05920
G1 X64.254 Y96.560 E1.07603
G1 X63.240 Y95.546 E1.13292
G1 X63.240 Y95.122 E1.14975
G1 X64.678 Y96.560 E1.23045
G1 X65.103 Y96.560 E1.24728
G1 X63.240 Y94.697 E1.35178
G1 X63.240 Y94.273 E1.36862
G1 X65.527 Y96.560 E1.49693
G1 X65.952 Y96.560 E1.51376
G1 X63.240 Y93.848 E1.66587
G1 X63.240 Y93.424 E1.68271
G1 X66.060 Y96.244 E1.84091
G1 X66.060 Y95.820 E1.85775
G1 X63.240 Y93.000 E2.01595
G1 X63.240 Y92.575 E2.03279
G1 X66.060 Y95.396 E2.19100
G1 X66.060 Y94.971 E2.20783
G1 X63.240 Y92.151 E2.36604
G1 X63.240 Y91.726 E2.38287
G1 X66.060 Y94.547 E2.54108
G1 X66.060 Y94.122 E2.55791
G1 X63.240 Y91.302 E2.71612
G1 X63.240 Y90.878 E2.73295
G1 X66.060 Y93.698 E2.89116
G1 X66.060 Y93.274 E2.90799
G1 X63.240 Y90.453 E3.06620
G1 X63.240 Y90.029 E3.08303
G1 X66.060 Y92.849 E3.24124
G1 X66.060 Y92.425 E3.25807
G1 X63.240 Y89.604 E3.41628
G1 X63.240 Y89.180 E3.43311
G1 X66.060 Y92.000 E3.59132
G1 X66.060 Y91.576 E3.60815
G1 X63.240 Y88.756 E3.76636
G1 X63.348 Y88.440 E3.77961
G1 X66.060 Y91.152 E3.93172
G1 X66.060 Y90.727 E3.94855
G1 X63.773 Y88.440 E4.07686
G1 X64.197 Y88.440 E4.09370
G1 X66.060 Y90.303 E4.19820
G1 X66.060 Y89.878 E4.21503
G1 X64.622 Y88.440 E4.29573
G1 X65.046 Y88.440 E4.31256
G1 X66.060 Y89.454 E4.36946
G1 X66.060 Y89.030 E4.38629
G1 X65.470 Y88.440 E4.41937
G1 X65.895 Y88.440 E4.43621
G1 X66.060 Y88.605 E4.44549
G1 E3.44549 F1800.00000
G92 E0
G1 Z0.300 F7800.000
G1 X84.671 Y71.729 F7800.000
G1 E1.00000 F1800.00000
G1 X83.771 Y71.729 E1.03516 F540.000
G1 X83.771 Y71.471 E1.04523
G1 X90.971 Y71.471 E1.32655
G1 X90.971 Y63.271 E1.64694
G1 X93.029 Y63.271 E1.72733
G1 X93.029 Y71.471 E2.04772
G1 X99.671 Y71.471 E2.30726
G1 X99.671 Y63.271 E2.62765
G1 X101.729 Y63.271 E2.70804
G1 X101.729 Y71.471 E3.02843
G1 X107.929 Y71.471 E3.27068
G1 X107.929 Y71.729 E3.28074
G1 X107.029 Y71.729 E3.31590
G1 X107.029 Y77.481 E3.54064
G1 X106.066 Y96.729 E4.29364
G1 X102.734 Y96.729 E4.42386
