(Projekt Spannplatte)
(Erstellt mit Estlcam Version 11 Build 11,231)
(Laufzeit ca. 06:51:43 Stunden)

(Benoetigte Werkzeuge:)
(Fraeser 2mm)
G21
G90
G94
M03 S10000
G00 Z5.0000


(Nr. 1: Ausschnitt 2)
G00 X4.1266 Y3.8453
G00 Z0.5000
G01 Z0.0000 F60 S10000
G01 Z-2.0000
G01 X6.6914 F90
G01 X6.8914
G02 X5.6623 Y2.3663 I-1.4417 J-0.0520
G02 X5.3427 Y5.3442 I-0.2378 J1.4805
G02 X6.8285 Y4.3700 I0.0780 J-1.5011
G01 X6.8914 Y4.0346
G01 Y3.8453
G01 X6.6914
G01 Z-4.0000 F60
G01 X4.1266 F90
G01 X3.9395 Y3.9611
G02 X6.8285 Y4.3700 I1.4886 J-0.1069
G02 X6.6741 Y3.0118 I-1.6263 J-0.5030
G02 X5.0127 Y2.4082 I-1.2426 J0.8322
G02 X3.9395 Y3.9611 I0.3932 J1.4191
G01 X4.1266 Y3.8453
G01 Z-6.0000 F60
G01 X6.6914 F90
G01 X6.8914
G02 X5.6623 Y2.3663 I-1.4417 J-0.0520
G02 X5.3427 Y5.3442 I-0.2378 J1.4805
G02 X6.8285 Y4.3700 I0.0780 J-1.5011
G01 X6.8914 Y4.0346
G01 Y3.8453
G01 X6.6914
G01 Z-8.0000 F60
G01 X4.1266 F90
G01 X3.9395 Y3.9611
G02 X6.8285 Y4.3700 I1.4886 J-0.1069
G02 X6.6741 Y3.0118 I-1.6263 J-0.5030
G02 X5.0127 Y2.4082 I-1.2426 J0.8322
G02 X3.9395 Y3.9611 I0.3932 J1.4191
G01 X4.1266 Y3.8453
G01 Z-10.0000 F60
G01 X6.6914 F90
G01 X6.8914
G02 X5.6623 Y2.3663 I-1.4417 J-0.0520
G02 X5.3427 Y5.3442 I-0.2378 J1.4805
G02 X6.8285 Y4.3700 I0.0780 J-1.5011
G01 X6.8914 Y4.0346
G01 Y3.8453
G01 X6.6914
G01 Z-12.0000 F60
G01 X4.1266 F90
G01 X3.9395 Y3.9611
G02 X6.8285 Y4.3700 I1.4886 J-0.1069
G02 X6.6741 Y3.0118 I-1.6263 J-0.5030
G02 X5.0127 Y2.4082 I-1.2426 J0.8322
G02 X3.9395 Y3.9611 I0.3932 J1.4191
G01 X4.1266 Y3.8453
G00 Z5.0000


(Nr. 2: Ausschnitt 2)
G00 X24.1266 Y3.8453 Z5.0000
G00 Z0.5000
G01 Z0.0000 F60
G01 Z-2.0000
G01 X26.6914 F90
G01 X26.8914
G02 X25.6623 Y2.3663 I-1.4417 J-0.0520
G02 X25.3427 Y5.3442 I-0.2378 J1.4805
G02 X26.8285 Y4.3700 I0.0780 J-1.5011
G01 X26.8914 Y4.0346
G01 Y3.8453
G01 X26.6914
G01 Z-4.0000 F60
G01 X24.1266 F90
G01 X23.9395 Y3.9611
G02 X26.8285 Y4.3700 I1.4886 J-0.1069
G02 X26.6741 Y3.0118 I-1.6263 J-0.5030
G02 X25.0127 Y2.4082 I-1.2426 J0.8322
G02 X23.9395 Y3.9611 I0.3932 J1.4191
G01 X24.1266 Y3.8453
G01 Z-6.0000 F60
G01 X26.6914 F90
G01 X26.8914
G02 X25.6623 Y2.3663 I-1.4417 J-0.0520
G02 X25.3427 Y5.3442 I-0.2378 J1.4805
G02 X26.8285 Y4.3700 I0.0780 J-1.5011
G01 X26.8914 Y4.0346
G01 Y3.8453
G01 X26.6914
G01 Z-8.0000 F60
G01 X24.1266 F90
G01 X23.9395 Y3.9611
G02 X26.8285 Y4.3700 I1.4886 J-0.1069
G02 X26.6741 Y3.0118 I-1.6263 J-0.5030
G02 X25.0127 Y2.4082 I-1.2426 J0.8322
G02 X23.9395 Y3.9611 I0.3932 J1.4191
G01 X24.1266 Y3.8453
G01 Z-10.0000 F60
G01 X26.6914 F90
G01 X26.8914
G02 X25.6623 Y2.3663 I-1.4417 J-0.0520
G02 X25.3427 Y5.3442 I-0.2378 J1.4805
G02 X26.8285 Y4.3700 I0.0780 J-1.5011
G01 X26.8914 Y4.0346
G01 Y3.8453
G01 X26.6914
G01 Z-12.0000 F60
G01 X24.1266 F90
G01 X23.9395 Y3.9611
G02 X26.8285 Y4.3700 I1.4886 J-0.1069
G02 X26.6741 Y3.0118 I-1.6263 J-0.5030
G02 X25.0127 Y2.4082 I-1.2426 J0.8322
G02 X23.9395 Y3.9611 I0.3932 J1.4191
G01 X24.1266 Y3.8453
G00 Z5.0000


(Nr. 3: Ausschnitt 2)
G00 X44.1266 Y3.8453 Z5.0000
G00 Z0.5000
G01 Z0.0000 F60
G01 Z-2.0000
G01 X46.6914 F90
G01 X46.8914
G02 X45.6623 Y2.3663 I-1.4417 J-0.0520
G02 X45.3427 Y5.3442 I-0.2378 J1.4805
G02 X46.8285 Y4.3700 I0.0780 J-1.5011
G01 X46.8914 Y4.0346
G01 Y3.8453
G01 X46.6914
G01 Z-4.0000 F60
G01 X44.1266 F90
G01 X43.9395 Y3.9611
G02 X46.8285 Y4.3700 I1.4886 J-0.1069
G02 X46.6741 Y3.0118 I-1.6263 J-0.5030
G02 X45.0127 Y2.4082 I-1.2426 J0.8322
G02 X43.9395 Y3.9611 I0.3932 J1.4191
G01 X44.1266 Y3.8453
G01 Z-6.0000 F60
G01 X46.6914 F90
G01 X46.8914
G02 X45.6623 Y2.3663 I-1.4417 J-0.0520
G02 X45.3427 Y5.3442 I-0.2378 J1.4805
G02 X46.8285 Y4.3700 I0.0780 J-1.5011
G01 X46.8914 Y4.0346
G01 Y3.8453
G01 X46.6914
G01 Z-8.0000 F60
G01 X44.1266 F90
G01 X43.9395 Y3.9611
G02 X46.8285 Y4.3700 I1.4886 J-0.1069
G02 X46.6741 Y3.0118 I-1.6263 J-0.5030
G02 X45.0127 Y2.4082 I-1.2426 J0.8322
G02 X43.9395 Y3.9611 I0.3932 J1.4191
G01 X44.1266 Y3.8453
G01 Z-10.0000 F60
G01 X46.6914 F90
G01 X46.8914
G02 X45.6623 Y2.3663 I-1.4417 J-0.0520
G02 X45.3427 Y5.3442 I-0.2378 J1.4805
G02 X46.8285 Y4.3700 I0.0780 J-1.5011
G01 X46.8914 Y4.0346
G01 Y3.8453
G01 X46.6914
G01 Z-12.0000 F60
G01 X44.1266 F90
G01 X43.9395 Y3.9611
G02 X46.8285 Y4.3700 I1.4886 J-0.1069
G02 X46.6741 Y3.0118 I-1.6263 J-0.5030
G02 X45.0127 Y2.4082 I-1.2426 J0.8322
G02 X43.9395 Y3.9611 I0.3932 J1.4191
G01 X44.1266 Y3.8453
G00 Z5.0000


(Nr. 4: Ausschnitt 2)
G00 X64.1266 Y3.8453 Z5.0000
G00 Z0.5000
G01 Z0.0000 F60
G01 Z-2.0000
G01 X66.6914 F90
G01 X66.8914
G02 X65.6623 Y2.3663 I-1.4417 J-0.0520
G02 X65.3427 Y5.3442 I-0.2378 J1.4805
G02 X66.8285 Y4.3700 I0.0780 J-1.5011
G01 X66.8914 Y4.0346
G01 Y3.8453
G01 X66.6914
G01 Z-4.0000 F60
G01 X64.1266 F90
G01 X63.9395 Y3.9611
G02 X66.8285 Y4.3700 I1.4886 J-0.1069
G02 X66.6741 Y3.0118 I-1.6263 J-0.5030
G02 X65.0127 Y2.4082 I-1.2426 J0.8322
G02 X63.9395 Y3.9611 I0.3932 J1.4191
G01 X64.1266 Y3.8453
G01 Z-6.0000 F60
G01 X66.6914 F90
G01 X66.8914
G02 X65.6623 Y2.3663 I-1.4417 J-0.0520
G02 X65.3427 Y5.3442 I-0.2378 J1.4805
G02 X66.8285 Y4.3700 I0.0780 J-1.5011
G01 X66.8914 Y4.0346
G01 Y3.8453
G01 X66.6914
G01 Z-8.0000 F60
G01 X64.1266 F90
G01 X63.9395 Y3.9611
G02 X66.8285 Y4.3700 I1.4886 J-0.1069
G02 X66.6741 Y3.0118 I-1.6263 J-0.5030
G02 X65.0127 Y2.4082 I-1.2426 J0.8322
G02 X63.9395 Y3.9611 I0.3932 J1.4191
G01 X64.1266 Y3.8453
G01 Z-10.0000 F60
G01 X66.6914 F90
G01 X66.8914
G02 X65.6623 Y2.3663 I-1.4417 J-0.0520
G02 X65.3427 Y5.3442 I-0.2378 J1.4805
G02 X66.8285 Y4.3700 I0.0780 J-1.5011
G01 X66.8914 Y4.0346
G01 Y3.8453
G01 X66.6914
G01 Z-12.0000 F60
G01 X64.1266 F90
G01 X63.9395 Y3.9611
G02 X66.8285 Y4.3700 I1.4886 J-0.1069
G02 X66.6741 Y3.0118 I-1.6263 J-0.5030
G02 X65.0127 Y2.4082 I-1.2426 J0.8322
G02 X63.9395 Y3.9611 I0.3932 J1.4191
G01 X64.1266 Y3.8453
G00 Z5.0000


(Nr. 5: Ausschnitt 2)
G00 X84.1266 Y3.8453 Z5.0000
G00 Z0.5000
G01 Z0.0000 F60
G01 Z-2.0000
G01 X86.6914 F90
G01 X86.8914
G02 X85.6623 Y2.3663 I-1.4417 J-0.0520
G02 X85.3427 Y5.3442 I-0.2378 J1.4805
G02 X86.8285 Y4.3700 I0.0780 J-1.5011
G01 X86.8914 Y4.0346
G01 Y3.8453
G01 X86.6914
G01 Z-4.0000 F60
G01 X84.1266 F90
G01 X83.9395 Y3.9611
G02 X86.8285 Y4.3700 I1.4886 J-0.1069
G02 X86.6741 Y3.0118 I-1.6263 J-0.5030
G02 X85.0127 Y2.4082 I-1.2426 J0.8322
G02 X83.9395 Y3.9611 I0.3932 J1.4191
G01 X84.1266 Y3.8453
G01 Z-6.0000 F60
G01 X86.6914 F90
G01 X86.8914
G02 X85.6623 Y2.3663 I-1.4417 J-0.0520
G02 X85.3427 Y5.3442 I-0.2378 J1.4805
G02 X86.8285 Y4.3700 I0.0780 J-1.5011
G01 X86.8914 Y4.0346
G01 Y3.8453
G01 X86.6914
G01 Z-8.0000 F60
G01 X84.1266 F90
G01 X83.9395 Y3.9611
G02 X86.8285 Y4.3700 I1.4886 J-0.1069
G02 X86.6741 Y3.0118 I-1.6263 J-0.5030
G02 X85.0127 Y2.4082 I-1.2426 J0.8322
G02 X83.9395 Y3.9611 I0.3932 J1.4191
G01 X84.1266 Y3.8453
G01 Z-10.0000 F60
G01 X86.6914 F90
G01 X86.8914
G02 X85.6623 Y2.3663 I-1.4417 J-0.0520
G02 X85.3427 Y5.3442 I-0.2378 J1.4805
G02 X86.8285 Y4.3700 I0.0780 J-1.5011
G01 X86.8914 Y4.0346
G01 Y3.8453
G01 X86.6914
G01 Z-12.0000 F60
G01 X84.1266 F90
G01 X83.9395 Y3.9611
G02 X86.8285 Y4.3700 I1.4886 J-0.1069
G02 X86.6741 Y3.0118 I-1.6263 J-0.5030
G02 X85.0127 Y2.4082 I-1.2426 J0.8322
G02 X83.9395 Y3.9611 I0.3932 J1.4191
G01 X84.1266 Y3.8453
G00 Z5.0000


(Nr. 6: Ausschnitt 2)
G00 X104.1266 Y3.8453 Z5.0000
G00 Z0.5000
G01 Z0.0000 F60
G01 Z-2.0000
G01 X106.6914 F90
G01 X106.8914
G02 X105.6623 Y2.3663 I-1.4417 J-0.0520
G02 X105.3427 Y5.3442 I-0.2378 J1.4805
G02 X106.8285 Y4.3700 I0.0780 J-1.5011
G01 X106.8914 Y4.0346
G01 Y3.8453
G01 X106.6914
G01 Z-4.0000 F60
G01 X104.1266 F90
G01 X103.9395 Y3.9611
G02 X106.8285 Y4.3700 I1.4886 J-0.1069
G02 X106.6741 Y3.0118 I-1.6263 J-0.5030
G02 X105.0127 Y2.4082 I-1.2426 J0.8322
G02 X103.9395 Y3.9611 I0.3932 J1.4191
G01 X104.1266 Y3.8453
G01 Z-6.0000 F60
G01 X106.6914 F90
G01 X106.8914
G02 X105.6623 Y2.3663 I-1.4417 J-0.0520
G02 X105.3427 Y5.3442 I-0.2378 J1.4805
G02 X106.8285 Y4.3700 I0.0780 J-1.5011
G01 X106.8914 Y4.0346
G01 Y3.8453
G01 X106.6914
G01 Z-8.0000 F60
G01 X104.1266 F90
G01 X103.9395 Y3.9611
G02 X106.8285 Y4.3700 I1.4886 J-0.1069
G02 X106.6741 Y3.0118 I-1.6263 J-0.5030
G02 X105.0127 Y2.4082 I-1.2426 J0.8322
G02 X103.9395 Y3.9611 I0.3932 J1.4191
G01 X104.1266 Y3.8453
G01 Z-10.0000 F60
G01 X106.6914 F90
G01 X106.8914
G02 X105.6623 Y2.3663 I-1.4417 J-0.0520
G02 X105.3427 Y5.3442 I-0.2378 J1.4805
G02 X106.8285 Y4.3700 I0.0780 J-1.5011
G01 X106.8914 Y4.0346
G01 Y3.8453
G01 X106.6914
G01 Z-12.0000 F60
G01 X104.1266 F90
G01 X103.9395 Y3.9611
G02 X106.8285 Y4.3700 I1.4886 J-0.1069
G02 X106.6741 Y3.0118 I-1.6263 J-0.5030
G02 X105.0127 Y2.4082 I-1.2426 J0.8322
G02 X103.9395 Y3.9611 I0.3932 J1.4191
G01 X104.1266 Y3.8453
G00 Z5.0000


(Nr. 7: Ausschnitt 2)
G00 X124.1266 Y3.8453 Z5.0000
G00 Z0.5000
G01 Z0.0000 F60
G01 Z-2.0000
G01 X126.6914 F90
G01 X126.8914
G02 X125.6623 Y2.3663 I-1.4417 J-0.0520
G02 X125.3427 Y5.3442 I-0.2378 J1.4805
G02 X126.8285 Y4.3700 I0.0780 J-1.5011
G01 X126.8914 Y4.0346
G01 Y3.8453
G01 X126.6914
G01 Z-4.0000 F60
G01 X124.1266 F90
G01 X123.9395 Y3.9611
G02 X126.8285 Y4.3700 I1.4886 J-0.1069
G02 X126.6741 Y3.0118 I-1.6263 J-0.5030
G02 X125.0127 Y2.4082 I-1.2426 J0.8322
G02 X123.9395 Y3.9611 I0.3932 J1.4191
G01 X124.1266 Y3.8453
G01 Z-6.0000 F60
G01 X126.6914 F90
G01 X126.8914
G02 X125.6623 Y2.3663 I-1.4417 J-0.0520
G02 X125.3427 Y5.3442 I-0.2378 J1.4805
G02 X126.8285 Y4.3700 I0.0780 J-1.5011
G01 X126.8914 Y4.0346
G01 Y3.8453
G01 X126.6914
G01 Z-8.0000 F60
G01 X124.1266 F90
G01 X123.9395 Y3.9611
G02 X126.8285 Y4.3700 I1.4886 J-0.1069
G02 X126.6741 Y3.0118 I-1.6263 J-0.5030
G02 X125.0127 Y2.4082 I-1.2426 J0.8322
G02 X123.9395 Y3.9611 I0.3932 J1.4191
G01 X124.1266 Y3.8453
G01 Z-10.0000 F60
G01 X126.6914 F90
G01 X126.8914
G02 X125.6623 Y2.3663 I-1.4417 J-0.0520
G02 X125.3427 Y5.3442 I-0.2378 J1.4805
G02 X126.8285 Y4.3700 I0.0780 J-1.5011
G01 X126.8914 Y4.0346
G01 Y3.8453
G01 X126.6914
G01 Z-12.0000 F60
G01 X124.1266 F90
G01 X123.9395 Y3.9611
G02 X126.8285 Y4.3700 I1.4886 J-0.1069
G02 X126.6741 Y3.0118 I-1.6263 J-0.5030
G02 X125.0127 Y2.4082 I-1.2426 J0.8322
G02 X123.9395 Y3.9611 I0.3932 J1.4191
G01 X124.1266 Y3.8453
G00 Z5.0000


(Nr. 8: Ausschnitt 2)
G00 X144.1266 Y3.8453 Z5.0000
G00 Z0.5000
G01 Z0.0000 F60
G01 Z-2.0000
G01 X146.6914 F90
G01 X146.8914
G02 X145.6623 Y2.3663 I-1.4417 J-0.0520
G02 X145.3427 Y5.3442 I-0.2378 J1.4805
G02 X146.8285 Y4.3700 I0.0780 J-1.5011
G01 X146.8914 Y4.0346
G01 Y3.8453
G01 X146.6914
G01 Z-4.0000 F60
G01 X144.1266 F90
G01 X143.9395 Y3.9611
G02 X146.8285 Y4.3700 I1.4886 J-0.1069
G02 X146.6741 Y3.0118 I-1.6263 J-0.5030
G02 X145.0127 Y2.4082 I-1.2426 J0.8322
G02 X143.9395 Y3.9611 I0.3932 J1.4191
G01 X144.1266 Y3.8453
G01 Z-6.0000 F60
G01 X146.6914 F90
G01 X146.8914
G02 X145.6623 Y2.3663 I-1.4417 J-0.0520
G02 X145.3427 Y5.3442 I-0.2378 J1.4805
G02 X146.8285 Y4.3700 I0.0780 J-1.5011
G01 X146.8914 Y4.0346
G01 Y3.8453
G01 X146.6914
G01 Z-8.0000 F60
G01 X144.1266 F90
G01 X143.9395 Y3.9611
G02 X146.8285 Y4.3700 I1.4886 J-0.1069
G02 X146.6741 Y3.0118 I-1.6263 J-0.5030
G02 X145.0127 Y2.4082 I-1.2426 J0.8322
G02 X143.9395 Y3.9611 I0.3932 J1.4191
G01 X144.1266 Y3.8453
G01 Z-10.0000 F60
G01 X146.6914 F90
G01 X146.8914
G02 X145.6623 Y2.3663 I-1.4417 J-0.0520
G02 X145.3427 Y5.3442 I-0.2378 J1.4805
G02 X146.8285 Y4.3700 I0.0780 J-1.5011
G01 X146.8914 Y4.0346
G01 Y3.8453
G01 X146.6914
G01 Z-12.0000 F60
G01 X144.1266 F90
G01 X143.9395 Y3.9611
G02 X146.8285 Y4.3700 I1.4886 J-0.1069
G02 X146.6741 Y3.0118 I-1.6263 J-0.5030
G02 X145.0127 Y2.4082 I-1.2426 J0.8322
G02 X143.9395 Y3.9611 I0.3932 J1.4191
G01 X144.1266 Y3.8453
G00 Z5.0000


(Nr. 9: Ausschnitt 2)
G00 X164.1266 Y3.8453 Z5.0000
G00 Z0.5000
G01 Z0.0000 F60
G01 Z-2.0000
G01 X166.6914 F90
G01 X166.8914
G02 X165.6623 Y2.3663 I-1.4417 J-0.0520
G02 X165.3427 Y5.3442 I-0.2378 J1.4805
G02 X166.8285 Y4.3700 I0.0780 J-1.5011
G01 X166.8914 Y4.0346
G01 Y3.8453
G01 X166.6914
G01 Z-4.0000 F60
G01 X164.1266 F90
G01 X163.9395 Y3.9611
G02 X166.8285 Y4.3700 I1.4886 J-0.1069
G02 X166.6741 Y3.0118 I-1.6263 J-0.5030
G02 X165.0127 Y2.4082 I-1.2426 J0.8322
G02 X163.9395 Y3.9611 I0.3932 J1.4191
G01 X164.1266 Y3.8453
G01 Z-6.0000 F60
G01 X166.6914 F90
G01 X166.8914
G02 X165.6623 Y2.3663 I-1.4417 J-0.0520
G02 X165.3427 Y5.3442 I-0.2378 J1.4805
G02 X166.8285 Y4.3700 I0.0780 J-1.5011
G01 X166.8914 Y4.0346
G01 Y3.8453
G01 X166.6914
G01 Z-8.0000 F60
G01 X164.1266 F90
G01 X163.9395 Y3.9611
G02 X166.8285 Y4.3700 I1.4886 J-0.1069
G02 X166.6741 Y3.0118 I-1.6263 J-0.5030
G02 X165.0127 Y2.4082 I-1.2426 J0.8322
G02 X163.9395 Y3.9611 I0.3932 J1.4191
G01 X164.1266 Y3.8453
G01 Z-10.0000 F60
G01 X166.6914 F90
G01 X166.8914
G02 X165.6623 Y2.3663 I-1.4417 J-0.0520
G02 X165.3427 Y5.3442 I-0.2378 J1.4805
G02 X166.8285 Y4.3700 I0.0780 J-1.5011
G01 X166.8914 Y4.0346
G01 Y3.8453
G01 X166.6914
G01 Z-12.0000 F60
G01 X164.1266 F90
G01 X163.9395 Y3.9611
G02 X166.8285 Y4.3700 I1.4886 J-0.1069
G02 X166.6741 Y3.0118 I-1.6263 J-0.5030
G02 X165.0127 Y2.4082 I-1.2426 J0.8322
G02 X163.9395 Y3.9611 I0.3932 J1.4191
G01 X164.1266 Y3.8453
G00 Z5.0000


(Nr. 10: Ausschnitt 2)
G00 X184.1266 Y3.8453 Z5.0000
G00 Z0.5000
G01 Z0.0000 F60
G01 Z-2.0000
G01 X186.6914 F90
G01 X186.8914
G02 X185.6623 Y2.3663 I-1.4417 J-0.0520
G02 X185.3427 Y5.3442 I-0.2378 J1.4805
G02 X186.8285 Y4.3700 I0.0780 J-1.5011
G01 X186.8914 Y4.0346
G01 Y3.8453
G01 X186.6914
G01 Z-4.0000 F60
G01 X184.1266 F90
G01 X183.9395 Y3.9611
G02 X186.8285 Y4.3700 I1.4886 J-0.1069
G02 X186.6741 Y3.0118 I-1.6263 J-0.5030
G02 X185.0127 Y2.4082 I-1.2426 J0.8322
G02 X183.9395 Y3.9611 I0.3932 J1.4191
G01 X184.1266 Y3.8453
G01 Z-6.0000 F60
G01 X186.6914 F90
G01 X186.8914
G02 X185.6623 Y2.3663 I-1.4417 J-0.0520
G02 X185.3427 Y5.3442 I-0.2378 J1.4805
G02 X186.8285 Y4.3700 I0.0780 J-1.5011
G01 X186.8914 Y4.0346
G01 Y3.8453
G01 X186.6914
G01 Z-8.0000 F60
G01 X184.1266 F90
G01 X183.9395 Y3.9611
G02 X186.8285 Y4.3700 I1.4886 J-0.1069
G02 X186.6741 Y3.0118 I-1.6263 J-0.5030
G02 X185.0127 Y2.4082 I-1.2426 J0.8322
G02 X183.9395 Y3.9611 I0.3932 J1.4191
G01 X184.1266 Y3.8453
G01 Z-10.0000 F60
G01 X186.6914 F90
G01 X186.8914
G02 X185.6623 Y2.3663 I-1.4417 J-0.0520
G02 X185.3427 Y5.3442 I-0.2378 J1.4805
G02 X186.8285 Y4.3700 I0.0780 J-1.5011
G01 X186.8914 Y4.0346
G01 Y3.8453
G01 X186.6914
G01 Z-12.0000 F60
G01 X184.1266 F90
G01 X183.9395 Y3.9611
G02 X186.8285 Y4.3700 I1.4886 J-0.1069
G02 X186.6741 Y3.0118 I-1.6263 J-0.5030
G02 X185.0127 Y2.4082 I-1.2426 J0.8322
G02 X183.9395 Y3.9611 I0.3932 J1.4191
G01 X184.1266 Y3.8453
G00 Z5.0000


(Nr. 11: Ausschnitt 2)
G00 X204.1266 Y3.8453 Z5.0000
G00 Z0.5000
G01 Z0.0000 F60
G01 Z-2.0000
G01 X206.6914 F90
G01 X206.8914
G02 X205.6623 Y2.3663 I-1.4417 J-0.0520
G02 X205.3427 Y5.3442 I-0.2378 J1.4805
G02 X206.8285 Y4.3700 I0.0780 J-1.5011
G01 X206.8914 Y4.0346
G01 Y3.8453
G01 X206.6914
G01 Z-4.0000 F60
G01 X204.1266 F90
G01 X203.9395 Y3.9611
G02 X206.8285 Y4.3700 I1.4886 J-0.1069
G02 X206.6741 Y3.0118 I-1.6263 J-0.5030
G02 X205.0127 Y2.4082 I-1.2426 J0.8322
G02 X203.9395 Y3.9611 I0.3932 J1.4191
G01 X204.1266 Y3.8453
G01 Z-6.0000 F60
G01 X206.6914 F90
G01 X206.8914
G02 X205.6623 Y2.3663 I-1.4417 J-0.0520
G02 X205.3427 Y5.3442 I-0.2378 J1.4805
G02 X206.8285 Y4.3700 I0.0780 J-1.5011
G01 X206.8914 Y4.0346
G01 Y3.8453
G01 X206.6914
G01 Z-8.0000 F60
G01 X204.1266 F90
G01 X203.9395 Y3.9611
G02 X206.8285 Y4.3700 I1.4886 J-0.1069
G02 X206.6741 Y3.0118 I-1.6263 J-0.5030
G02 X205.0127 Y2.4082 I-1.2426 J0.8322
G02 X203.9395 Y3.9611 I0.3932 J1.4191
G01 X204.1266 Y3.8453
G01 Z-10.0000 F60
G01 X206.6914 F90
G01 X206.8914
G02 X205.6623 Y2.3663 I-1.4417 J-0.0520
G02 X205.3427 Y5.3442 I-0.2378 J1.4805
G02 X206.8285 Y4.3700 I0.0780 J-1.5011
G01 X206.8914 Y4.0346
G01 Y3.8453
G01 X206.6914
G01 Z-12.0000 F60
G01 X204.1266 F90
G01 X203.9395 Y3.9611
G02 X206.8285 Y4.3700 I1.4886 J-0.1069
G02 X206.6741 Y3.0118 I-1.6263 J-0.5030
G02 X205.0127 Y2.4082 I-1.2426 J0.8322
G02 X203.9395 Y3.9611 I0.3932 J1.4191
G01 X204.1266 Y3.8453
G00 Z5.0000


(Nr. 12: Ausschnitt 2)
G00 X224.1266 Y3.8453 Z5.0000
G00 Z0.5000
G01 Z0.0000 F60
G01 Z-2.0000
G01 X226.6914 F90
G01 X226.8914
G02 X225.6623 Y2.3663 I-1.4417 J-0.0520
G02 X225.3427 Y5.3442 I-0.2378 J1.4805
G02 X226.8285 Y4.3700 I0.0780 J-1.5011
G01 X226.8914 Y4.0346
G01 Y3.8453
G01 X226.6914
G01 Z-4.0000 F60
G01 X224.1266 F90
G01 X223.9395 Y3.9611
G02 X226.8285 Y4.3700 I1.4886 J-0.1069
G02 X226.6741 Y3.0118 I-1.6263 J-0.5030
G02 X225.0127 Y2.4082 I-1.2426 J0.8322
G02 X223.9395 Y3.9611 I0.3932 J1.4191
G01 X224.1266 Y3.8453
G01 Z-6.0000 F60
G01 X226.6914 F90
G01 X226.8914
G02 X225.6623 Y2.3663 I-1.4417 J-0.0520
G02 X225.3427 Y5.3442 I-0.2378 J1.4805
G02 X226.8285 Y4.3700 I0.0780 J-1.5011
G01 X226.8914 Y4.0346
G01 Y3.8453
G01 X226.6914
G01 Z-8.0000 F60
G01 X224.1266 F90
G01 X223.9395 Y3.9611
G02 X226.8285 Y4.3700 I1.4886 J-0.1069
G02 X226.6741 Y3.0118 I-1.6263 J-0.5030
G02 X225.0127 Y2.4082 I-1.2426 J0.8322
G02 X223.9395 Y3.9611 I0.3932 J1.4191
G01 X224.1266 Y3.8453
G01 Z-10.0000 F60
G01 X226.6914 F90
G01 X226.8914
G02 X225.6623 Y2.3663 I-1.4417 J-0.0520
G02 X225.3427 Y5.3442 I-0.2378 J1.4805
G02 X226.8285 Y4.3700 I0.0780 J-1.5011
G01 X226.8914 Y4.0346
G01 Y3.8453
G01 X226.6914
G01 Z-12.0000 F60
G01 X224.1266 F90
G01 X223.9395 Y3.9611
G02 X226.8285 Y4.3700 I1.4886 J-0.1069
G02 X226.6741 Y3.0118 I-1.6263 J-0.5030
G02 X225.0127 Y2.4082 I-1.2426 J0.8322
G02 X223.9395 Y3.9611 I0.3932 J1.4191
G01 X224.1266 Y3.8453
G00 Z5.0000


(Nr. 13: Ausschnitt 2)
G00 X244.1266 Y3.8453 Z5.0000
G00 Z0.5000
G01 Z0.0000 F60
G01 Z-2.0000
G01 X246.6914 F90
G01 X246.8914
G02 X245.6623 Y2.3663 I-1.4417 J-0.0520
G02 X245.3427 Y5.3442 I-0.2378 J1.4805
G02 X246.8285 Y4.3700 I0.0780 J-1.5011
G01 X246.8914 Y4.0346
G01 Y3.8453
G01 X246.6914
G01 Z-4.0000 F60
G01 X244.1266 F90
G01 X243.9395 Y3.9611
G02 X246.8285 Y4.3700 I1.4886 J-0.1069
G02 X246.6741 Y3.0118 I-1.6263 J-0.5030
G02 X245.0127 Y2.4082 I-1.2426 J0.8322
G02 X243.9395 Y3.9611 I0.3932 J1.4191
G01 X244.1266 Y3.8453
G01 Z-6.0000 F60
G01 X246.6914 F90
G01 X246.8914
G02 X245.6623 Y2.3663 I-1.4417 J-0.0520
G02 X245.3427 Y5.3442 I-0.2378 J1.4805
G02 X246.8285 Y4.3700 I0.0780 J-1.5011
G01 X246.8914 Y4.0346
G01 Y3.8453
G01 X246.6914
G01 Z-8.0000 F60
G01 X244.1266 F90
G01 X243.9395 Y3.9611
G02 X246.8285 Y4.3700 I1.4886 J-0.1069
G02 X246.6741 Y3.0118 I-1.6263 J-0.5030
G02 X245.0127 Y2.4082 I-1.2426 J0.8322
G02 X243.9395 Y3.9611 I0.3932 J1.4191
G01 X244.1266 Y3.8453
G01 Z-10.0000 F60
G01 X246.6914 F90
G01 X246.8914
G02 X245.6623 Y2.3663 I-1.4417 J-0.0520
G02 X245.3427 Y5.3442 I-0.2378 J1.4805
G02 X246.8285 Y4.3700 I0.0780 J-1.5011
G01 X246.8914 Y4.0346
G01 Y3.8453
G01 X246.6914
G01 Z-12.0000 F60
G01 X244.1266 F90
G01 X243.9395 Y3.9611
G02 X246.8285 Y4.3700 I1.4886 J-0.1069
G02 X246.6741 Y3.0118 I-1.6263 J-0.5030
G02 X245.0127 Y2.4082 I-1.2426 J0.8322
G02 X243.9395 Y3.9611 I0.3932 J1.4191
G01 X244.1266 Y3.8453
G00 Z5.0000


(Nr. 14: Ausschnitt 2)
G00 X264.1266 Y3.8453 Z5.0000
G00 Z0.5000
G01 Z0.0000 F60
G01 Z-2.0000
G01 X266.6914 F90
G01 X266.8914
G02 X265.6623 Y2.3663 I-1.4417 J-0.0520
G02 X265.3427 Y5.3442 I-0.2378 J1.4805
G02 X266.8285 Y4.3700 I0.0780 J-1.5011
G01 X266.8914 Y4.0346
G01 Y3.8453
G01 X266.6914
G01 Z-4.0000 F60
G01 X264.1266 F90
G01 X263.9395 Y3.9611
G02 X266.8285 Y4.3700 I1.4886 J-0.1069
G02 X266.6741 Y3.0118 I-1.6263 J-0.5030
G02 X265.0127 Y2.4082 I-1.2426 J0.8322
G02 X263.9395 Y3.9611 I0.3932 J1.4191
G01 X264.1266 Y3.8453
G01 Z-6.0000 F60
G01 X266.6914 F90
G01 X266.8914
G02 X265.6623 Y2.3663 I-1.4417 J-0.0520
G02 X265.3427 Y5.3442 I-0.2378 J1.4805
G02 X266.8285 Y4.3700 I0.0780 J-1.5011
G01 X266.8914 Y4.0346
G01 Y3.8453
G01 X266.6914
G01 Z-8.0000 F60
G01 X264.1266 F90
G01 X263.9395 Y3.9611
G02 X266.8285 Y4.3700 I1.4886 J-0.1069
G02 X266.6741 Y3.0118 I-1.6263 J-0.5030
G02 X265.0127 Y2.4082 I-1.2426 J0.8322
G02 X263.9395 Y3.9611 I0.3932 J1.4191
G01 X264.1266 Y3.8453
G01 Z-10.0000 F60
G01 X266.6914 F90
G01 X266.8914
G02 X265.6623 Y2.3663 I-1.4417 J-0.0520
G02 X265.3427 Y5.3442 I-0.2378 J1.4805
G02 X266.8285 Y4.3700 I0.0780 J-1.5011
G01 X266.8914 Y4.0346
G01 Y3.8453
G01 X266.6914
G01 Z-12.0000 F60
G01 X264.1266 F90
G01 X263.9395 Y3.9611
G02 X266.8285 Y4.3700 I1.4886 J-0.1069
G02 X266.6741 Y3.0118 I-1.6263 J-0.5030
G02 X265.0127 Y2.4082 I-1.2426 J0.8322
G02 X263.9395 Y3.9611 I0.3932 J1.4191
G01 X264.1266 Y3.8453
G00 Z5.0000


(Nr. 15: Ausschnitt 2)
G00 X284.1266 Y3.8453 Z5.0000
G00 Z0.5000
G01 Z0.0000 F60
G01 Z-2.0000
G01 X286.6914 F90
G01 X286.8914
G02 X285.6623 Y2.3663 I-1.4417 J-0.0520
G02 X285.3427 Y5.3442 I-0.2378 J1.4805
G02 X286.8285 Y4.3700 I0.0780 J-1.5011
G01 X286.8914 Y4.0346
G01 Y3.8453
G01 X286.6914
G01 Z-4.0000 F60
G01 X284.1266 F90
G01 X283.9395 Y3.9611
G02 X286.8285 Y4.3700 I1.4886 J-0.1069
G02 X286.6741 Y3.0118 I-1.6263 J-0.5030
G02 X285.0127 Y2.4082 I-1.2426 J0.8322
G02 X283.9395 Y3.9611 I0.3932 J1.4191
G01 X284.1266 Y3.8453
G01 Z-6.0000 F60
G01 X286.6914 F90
G01 X286.8914
G02 X285.6623 Y2.3663 I-1.4417 J-0.0520
G02 X285.3427 Y5.3442 I-0.2378 J1.4805
G02 X286.8285 Y4.3700 I0.0780 J-1.5011
G01 X286.8914 Y4.0346
G01 Y3.8453
G01 X286.6914
G01 Z-8.0000 F60
G01 X284.1266 F90
G01 X283.9395 Y3.9611
G02 X286.8285 Y4.3700 I1.4886 J-0.1069
G02 X286.6741 Y3.0118 I-1.6263 J-0.5030
G02 X285.0127 Y2.4082 I-1.2426 J0.8322
G02 X283.9395 Y3.9611 I0.3932 J1.4191
G01 X284.1266 Y3.8453
G01 Z-10.0000 F60
G01 X286.6914 F90
G01 X286.8914
G02 X285.6623 Y2.3663 I-1.4417 J-0.0520
G02 X285.3427 Y5.3442 I-0.2378 J1.4805
G02 X286.8285 Y4.3700 I0.0780 J-1.5011
G01 X286.8914 Y4.0346
G01 Y3.8453
G01 X286.6914
G01 Z-12.0000 F60
G01 X284.1266 F90
G01 X283.9395 Y3.9611
G02 X286.8285 Y4.3700 I1.4886 J-0.1069
G02 X286.6741 Y3.0118 I-1.6263 J-0.5030
G02 X285.0127 Y2.4082 I-1.2426 J0.8322
G02 X283.9395 Y3.9611 I0.3932 J1.4191
G01 X284.1266 Y3.8453
G00 Z5.0000


(Nr. 16: Ausschnitt 2)
G00 X284.1266 Y23.8453 Z5.0000
G00 Z0.5000
G01 Z0.0000 F60
G01 Z-2.0000
G01 X286.6914 F90
G01 X286.8914
G02 X285.6623 Y22.3663 I-1.4417 J-0.0520
G02 X285.3427 Y25.3442 I-0.2378 J1.4805
G02 X286.8285 Y24.3700 I0.0780 J-1.5011
G01 X286.8914 Y24.0346
G01 Y23.8453
G01 X286.6914
G01 Z-4.0000 F60
G01 X284.1266 F90
G01 X283.9395 Y23.9611
G02 X286.8285 Y24.3700 I1.4886 J-0.1069
G02 X286.6741 Y23.0118 I-1.6263 J-0.5030
G02 X285.0127 Y22.4082 I-1.2426 J0.8322
G02 X283.9395 Y23.9611 I0.3932 J1.4191
G01 X284.1266 Y23.8453
G01 Z-6.0000 F60
G01 X286.6914 F90
G01 X286.8914
G02 X285.6623 Y22.3663 I-1.4417 J-0.0520
G02 X285.3427 Y25.3442 I-0.2378 J1.4805
G02 X286.8285 Y24.3700 I0.0780 J-1.5011
G01 X286.8914 Y24.0346
G01 Y23.8453
G01 X286.6914
G01 Z-8.0000 F60
G01 X284.1266 F90
G01 X283.9395 Y23.9611
G02 X286.8285 Y24.3700 I1.4886 J-0.1069
G02 X286.6741 Y23.0118 I-1.6263 J-0.5030
G02 X285.0127 Y22.4082 I-1.2426 J0.8322
G02 X283.9395 Y23.9611 I0.3932 J1.4191
G01 X284.1266 Y23.8453
G01 Z-10.0000 F60
G01 X286.6914 F90
G01 X286.8914
G02 X285.6623 Y22.3663 I-1.4417 J-0.0520
G02 X285.3427 Y25.3442 I-0.2378 J1.4805
G02 X286.8285 Y24.3700 I0.0780 J-1.5011
G01 X286.8914 Y24.0346
G01 Y23.8453
G01 X286.6914
G01 Z-12.0000 F60
G01 X284.1266 F90
G01 X283.9395 Y23.9611
G02 X286.8285 Y24.3700 I1.4886 J-0.1069
G02 X286.6741 Y23.0118 I-1.6263 J-0.5030
G02 X285.0127 Y22.4082 I-1.2426 J0.8322
G02 X283.9395 Y23.9611 I0.3932 J1.4191
G01 X284.1266 Y23.8453
G00 Z5.0000


(Nr. 17: Ausschnitt 2)
G00 X266.6914 Y23.8453 Z5.0000
G00 Z0.5000
G01 Z0.0000 F60
G01 Z-2.0000
G01 X264.1266 F90
G01 X263.9395 Y23.9611
G02 X266.8285 Y24.3700 I1.4886 J-0.1069
G02 X266.6741 Y23.0118 I-1.6263 J-0.5030
G02 X265.0127 Y22.4082 I-1.2426 J0.8322
G02 X263.9395 Y23.9611 I0.3932 J1.4191
G01 X264.1266 Y23.8453
G01 Z-4.0000 F60
G01 X266.6914 F90
G01 X266.8914
G02 X265.6623 Y22.3663 I-1.4417 J-0.0520
G02 X265.3427 Y25.3442 I-0.2378 J1.4805
G02 X266.8285 Y24.3700 I0.0780 J-1.5011
G01 X266.8914 Y24.0346
G01 Y23.8453
G01 X266.6914
G01 Z-6.0000 F60
G01 X264.1266 F90
G01 X263.9395 Y23.9611
G02 X266.8285 Y24.3700 I1.4886 J-0.1069
G02 X266.6741 Y23.0118 I-1.6263 J-0.5030
G02 X265.0127 Y22.4082 I-1.2426 J0.8322
G02 X263.9395 Y23.9611 I0.3932 J1.4191
G01 X264.1266 Y23.8453
G01 Z-8.0000 F60
G01 X266.6914 F90
G01 X266.8914
G02 X265.6623 Y22.3663 I-1.4417 J-0.0520
G02 X265.3427 Y25.3442 I-0.2378 J1.4805
G02 X266.8285 Y24.3700 I0.0780 J-1.5011
G01 X266.8914 Y24.0346
G01 Y23.8453
G01 X266.6914
G01 Z-10.0000 F60
G01 X264.1266 F90
G01 X263.9395 Y23.9611
G02 X266.8285 Y24.3700 I1.4886 J-0.1069
G02 X266.6741 Y23.0118 I-1.6263 J-0.5030
G02 X265.0127 Y22.4082 I-1.2426 J0.8322
G02 X263.9395 Y23.9611 I0.3932 J1.4191
G01 X264.1266 Y23.8453
G01 Z-12.0000 F60
G01 X266.6914 F90
G01 X266.8914
G02 X265.6623 Y22.3663 I-1.4417 J-0.0520
G02 X265.3427 Y25.3442 I-0.2378 J1.4805
G02 X266.8285 Y24.3700 I0.0780 J-1.5011
G01 X266.8914 Y24.0346
G01 Y23.8453
G01 X266.6914
G00 Z5.0000


(Nr. 18: Ausschnitt 2)
G00 X246.6914 Y23.8453 Z5.0000
G00 Z0.5000
G01 Z0.0000 F60
G01 Z-2.0000
G01 X244.1266 F90
G01 X243.9395 Y23.9611
G02 X246.8285 Y24.3700 I1.4886 J-0.1069
G02 X246.6741 Y23.0118 I-1.6263 J-0.5030
G02 X245.0127 Y22.4082 I-1.2426 J0.8322
G02 X243.9395 Y23.9611 I0.3932 J1.4191
G01 X244.1266 Y23.8453
G01 Z-4.0000 F60
G01 X246.6914 F90
G01 X246.8914
G02 X245.6623 Y22.3663 I-1.4417 J-0.0520
G02 X245.3427 Y25.3442 I-0.2378 J1.4805
G02 X246.8285 Y24.3700 I0.0780 J-1.5011
G01 X246.8914 Y24.0346
G01 Y23.8453
G01 X246.6914
G01 Z-6.0000 F60
G01 X244.1266 F90
G01 X243.9395 Y23.9611
G02 X246.8285 Y24.3700 I1.4886 J-0.1069
G02 X246.6741 Y23.0118 I-1.6263 J-0.5030
G02 X245.0127 Y22.4082 I-1.2426 J0.8322
G02 X243.9395 Y23.9611 I0.3932 J1.4191
G01 X244.1266 Y23.8453
G01 Z-8.0000 F60
G01 X246.6914 F90
G01 X246.8914
G02 X245.6623 Y22.3663 I-1.4417 J-0.0520
G02 X245.3427 Y25.3442 I-0.2378 J1.4805
G02 X246.8285 Y24.3700 I0.0780 J-1.5011
G01 X246.8914 Y24.0346
G01 Y23.8453
G01 X246.6914
G01 Z-10.0000 F60
G01 X244.1266 F90
G01 X243.9395 Y23.9611
G02 X246.8285 Y24.3700 I1.4886 J-0.1069
G02 X246.6741 Y23.0118 I-1.6263 J-0.5030
G02 X245.0127 Y22.4082 I-1.2426 J0.8322
G02 X243.9395 Y23.9611 I0.3932 J1.4191
G01 X244.1266 Y23.8453
G01 Z-12.0000 F60
G01 X246.6914 F90
G01 X246.8914
G02 X245.6623 Y22.3663 I-1.4417 J-0.0520
G02 X245.3427 Y25.3442 I-0.2378 J1.4805
G02 X246.8285 Y24.3700 I0.0780 J-1.5011
G01 X246.8914 Y24.0346
G01 Y23.8453
G01 X246.6914
G00 Z5.0000


(Nr. 19: Ausschnitt 2)
G00 X226.6914 Y23.8453 Z5.0000
G00 Z0.5000
G01 Z0.0000 F60
G01 Z-2.0000
G01 X224.1266 F90
G01 X223.9395 Y23.9611
G02 X226.8285 Y24.3700 I1.4886 J-0.1069
G02 X226.6741 Y23.0118 I-1.6263 J-0.5030
G02 X225.0127 Y22.4082 I-1.2426 J0.8322
G02 X223.9395 Y23.9611 I0.3932 J1.4191
G01 X224.1266 Y23.8453
G01 Z-4.0000 F60
G01 X226.6914 F90
G01 X226.8914
G02 X225.6623 Y22.3663 I-1.4417 J-0.0520
G02 X225.3427 Y25.3442 I-0.2378 J1.4805
G02 X226.8285 Y24.3700 I0.0780 J-1.5011
G01 X226.8914 Y24.0346
G01 Y23.8453
G01 X226.6914
G01 Z-6.0000 F60
G01 X224.1266 F90
G01 X223.9395 Y23.9611
G02 X226.8285 Y24.3700 I1.4886 J-0.1069
G02 X226.6741 Y23.0118 I-1.6263 J-0.5030
G02 X225.0127 Y22.4082 I-1.2426 J0.8322
G02 X223.9395 Y23.9611 I0.3932 J1.4191
G01 X224.1266 Y23.8453
G01 Z-8.0000 F60
G01 X226.6914 F90
G01 X226.8914
G02 X225.6623 Y22.3663 I-1.4417 J-0.0520
G02 X225.3427 Y25.3442 I-0.2378 J1.4805
G02 X226.8285 Y24.3700 I0.0780 J-1.5011
G01 X226.8914 Y24.0346
G01 Y23.8453
G01 X226.6914
G01 Z-10.0000 F60
G01 X224.1266 F90
G01 X223.9395 Y23.9611
G02 X226.8285 Y24.3700 I1.4886 J-0.1069
G02 X226.6741 Y23.0118 I-1.6263 J-0.5030
G02 X225.0127 Y22.4082 I-1.2426 J0.8322
G02 X223.9395 Y23.9611 I0.3932 J1.4191
G01 X224.1266 Y23.8453
G01 Z-12.0000 F60
G01 X226.6914 F90
G01 X226.8914
G02 X225.6623 Y22.3663 I-1.4417 J-0.0520
G02 X225.3427 Y25.3442 I-0.2378 J1.4805
G02 X226.8285 Y24.3700 I0.0780 J-1.5011
G01 X226.8914 Y24.0346
G01 Y23.8453
G01 X226.6914
G00 Z5.0000


(Nr. 20: Ausschnitt 2)
G00 X206.6914 Y23.8453 Z5.0000
G00 Z0.5000
G01 Z0.0000 F60
G01 Z-2.0000
G01 X204.1266 F90
G01 X203.9395 Y23.9611
G02 X206.8285 Y24.3700 I1.4886 J-0.1069
G02 X206.6741 Y23.0118 I-1.6263 J-0.5030
G02 X205.0127 Y22.4082 I-1.2426 J0.8322
G02 X203.9395 Y23.9611 I0.3932 J1.4191
G01 X204.1266 Y23.8453
G01 Z-4.0000 F60
G01 X206.6914 F90
G01 X206.8914
G02 X205.6623 Y22.3663 I-1.4417 J-0.0520
G02 X205.3427 Y25.3442 I-0.2378 J1.4805
G02 X206.8285 Y24.3700 I0.0780 J-1.5011
G01 X206.8914 Y24.0346
G01 Y23.8453
G01 X206.6914
G01 Z-6.0000 F60
G01 X204.1266 F90
G01 X203.9395 Y23.9611
G02 X206.8285 Y24.3700 I1.4886 J-0.1069
G02 X206.6741 Y23.0118 I-1.6263 J-0.5030
G02 X205.0127 Y22.4082 I-1.2426 J0.8322
G02 X203.9395 Y23.9611 I0.3932 J1.4191
G01 X204.1266 Y23.8453
G01 Z-8.0000 F60
G01 X206.6914 F90
G01 X206.8914
G02 X205.6623 Y22.3663 I-1.4417 J-0.0520
G02 X205.3427 Y25.3442 I-0.2378 J1.4805
G02 X206.8285 Y24.3700 I0.0780 J-1.5011
G01 X206.8914 Y24.0346
G01 Y23.8453
G01 X206.6914
G01 Z-10.0000 F60
G01 X204.1266 F90
G01 X203.9395 Y23.9611
G02 X206.8285 Y24.3700 I1.4886 J-0.1069
G02 X206.6741 Y23.0118 I-1.6263 J-0.5030
G02 X205.0127 Y22.4082 I-1.2426 J0.8322
G02 X203.9395 Y23.9611 I0.3932 J1.4191
G01 X204.1266 Y23.8453
G01 Z-12.0000 F60
G01 X206.6914 F90
G01 X206.8914
G02 X205.6623 Y22.3663 I-1.4417 J-0.0520
G02 X205.3427 Y25.3442 I-0.2378 J1.4805
G02 X206.8285 Y24.3700 I0.0780 J-1.5011
G01 X206.8914 Y24.0346
G01 Y23.8453
G01 X206.6914
G00 Z5.0000


(Nr. 21: Ausschnitt 2)
G00 X186.6914 Y23.8453 Z5.0000
G00 Z0.5000
G01 Z0.0000 F60
G01 Z-2.0000
G01 X184.1266 F90
G01 X183.9395 Y23.9611
G02 X186.8285 Y24.3700 I1.4886 J-0.1069
G02 X186.6741 Y23.0118 I-1.6263 J-0.5030
G02 X185.0127 Y22.4082 I-1.2426 J0.8322
G02 X183.9395 Y23.9611 I0.3932 J1.4191
G01 X184.1266 Y23.8453
G01 Z-4.0000 F60
G01 X186.6914 F90
G01 X186.8914
G02 X185.6623 Y22.3663 I-1.4417 J-0.0520
G02 X185.3427 Y25.3442 I-0.2378 J1.4805
G02 X186.8285 Y24.3700 I0.0780 J-1.5011
G01 X186.8914 Y24.0346
G01 Y23.8453
G01 X186.6914
G01 Z-6.0000 F60
G01 X184.1266 F90
G01 X183.9395 Y23.9611
G02 X186.8285 Y24.3700 I1.4886 J-0.1069
G02 X186.6741 Y23.0118 I-1.6263 J-0.5030
G02 X185.0127 Y22.4082 I-1.2426 J0.8322
G02 X183.9395 Y23.9611 I0.3932 J1.4191
G01 X184.1266 Y23.8453
G01 Z-8.0000 F60
G01 X186.6914 F90
G01 X186.8914
G02 X185.6623 Y22.3663 I-1.4417 J-0.0520
G02 X185.3427 Y25.3442 I-0.2378 J1.4805
G02 X186.8285 Y24.3700 I0.0780 J-1.5011
G01 X186.8914 Y24.0346
G01 Y23.8453
G01 X186.6914
G01 Z-10.0000 F60
G01 X184.1266 F90
G01 X183.9395 Y23.9611
G02 X186.8285 Y24.3700 I1.4886 J-0.1069
G02 X186.6741 Y23.0118 I-1.6263 J-0.5030
G02 X185.0127 Y22.4082 I-1.2426 J0.8322
G02 X183.9395 Y23.9611 I0.3932 J1.4191
G01 X184.1266 Y23.8453
G01 Z-12.0000 F60
G01 X186.6914 F90
G01 X186.8914
G02 X185.6623 Y22.3663 I-1.4417 J-0.0520
G02 X185.3427 Y25.3442 I-0.2378 J1.4805
G02 X186.8285 Y24.3700 I0.0780 J-1.5011
G01 X186.8914 Y24.0346
G01 Y23.8453
G01 X186.6914
G00 Z5.0000


(Nr. 22: Ausschnitt 2)
G00 X166.6914 Y23.8453 Z5.0000
G00 Z0.5000
G01 Z0.0000 F60
G01 Z-2.0000
G01 X164.1266 F90
G01 X163.9395 Y23.9611
G02 X166.8285 Y24.3700 I1.4886 J-0.1069
G02 X166.6741 Y23.0118 I-1.6263 J-0.5030
G02 X165.0127 Y22.4082 I-1.2426 J0.8322
G02 X163.9395 Y23.9611 I0.3932 J1.4191
G01 X164.1266 Y23.8453
G01 Z-4.0000 F60
G01 X166.6914 F90
G01 X166.8914
G02 X165.6623 Y22.3663 I-1.4417 J-0.0520
G02 X165.3427 Y25.3442 I-0.2378 J1.4805
G02 X166.8285 Y24.3700 I0.0780 J-1.5011
G01 X166.8914 Y24.0346
G01 Y23.8453
G01 X166.6914
G01 Z-6.0000 F60
G01 X164.1266 F90
G01 X163.9395 Y23.9611
G02 X166.8285 Y24.3700 I1.4886 J-0.1069
G02 X166.6741 Y23.0118 I-1.6263 J-0.5030
G02 X165.0127 Y22.4082 I-1.2426 J0.8322
G02 X163.9395 Y23.9611 I0.3932 J1.4191
G01 X164.1266 Y23.8453
G01 Z-8.0000 F60
G01 X166.6914 F90
G01 X166.8914
G02 X165.6623 Y22.3663 I-1.4417 J-0.0520
G02 X165.3427 Y25.3442 I-0.2378 J1.4805
G02 X166.8285 Y24.3700 I0.0780 J-1.5011
G01 X166.8914 Y24.0346
G01 Y23.8453
G01 X166.6914
G01 Z-10.0000 F60
G01 X164.1266 F90
G01 X163.9395 Y23.9611
G02 X166.8285 Y24.3700 I1.4886 J-0.1069
G02 X166.6741 Y23.0118 I-1.6263 J-0.5030
G02 X165.0127 Y22.4082 I-1.2426 J0.8322
G02 X163.9395 Y23.9611 I0.3932 J1.4191
G01 X164.1266 Y23.8453
G01 Z-12.0000 F60
G01 X166.6914 F90
G01 X166.8914
G02 X165.6623 Y22.3663 I-1.4417 J-0.0520
G02 X165.3427 Y25.3442 I-0.2378 J1.4805
G02 X166.8285 Y24.3700 I0.0780 J-1.5011
G01 X166.8914 Y24.0346
G01 Y23.8453
G01 X166.6914
G00 Z5.0000


(Nr. 23: Ausschnitt 2)
G00 X146.6914 Y23.8453 Z5.0000
G00 Z0.5000
G01 Z0.0000 F60
G01 Z-2.0000
G01 X144.1266 F90
G01 X143.9395 Y23.9611
G02 X146.8285 Y24.3700 I1.4886 J-0.1069
G02 X146.6741 Y23.0118 I-1.6263 J-0.5030
G02 X145.0127 Y22.4082 I-1.2426 J0.8322
G02 X143.9395 Y23.9611 I0.3932 J1.4191
G01 X144.1266 Y23.8453
G01 Z-4.0000 F60
G01 X146.6914 F90
G01 X146.8914
G02 X145.6623 Y22.3663 I-1.4417 J-0.0520
G02 X145.3427 Y25.3442 I-0.2378 J1.4805
G02 X146.8285 Y24.3700 I0.0780 J-1.5011
G01 X146.8914 Y24.0346
G01 Y23.8453
G01 X146.6914
G01 Z-6.0000 F60
G01 X144.1266 F90
G01 X143.9395 Y23.9611
G02 X146.8285 Y24.3700 I1.4886 J-0.1069
G02 X146.6741 Y23.0118 I-1.6263 J-0.5030
G02 X145.0127 Y22.4082 I-1.2426 J0.8322
G02 X143.9395 Y23.9611 I0.3932 J1.4191
G01 X144.1266 Y23.8453
G01 Z-8.0000 F60
G01 X146.6914 F90
G01 X146.8914
G02 X145.6623 Y22.3663 I-1.4417 J-0.0520
G02 X145.3427 Y25.3442 I-0.2378 J1.4805
G02 X146.8285 Y24.3700 I0.0780 J-1.5011
G01 X146.8914 Y24.0346
G01 Y23.8453
G01 X146.6914
G01 Z-10.0000 F60
G01 X144.1266 F90
G01 X143.9395 Y23.9611
G02 X146.8285 Y24.3700 I1.4886 J-0.1069
G02 X146.6741 Y23.0118 I-1.6263 J-0.5030
G02 X145.0127 Y22.4082 I-1.2426 J0.8322
G02 X143.9395 Y23.9611 I0.3932 J1.4191
G01 X144.1266 Y23.8453
G01 Z-12.0000 F60
G01 X146.6914 F90
G01 X146.8914
G02 X145.6623 Y22.3663 I-1.4417 J-0.0520
G02 X145.3427 Y25.3442 I-0.2378 J1.4805
G02 X146.8285 Y24.3700 I0.0780 J-1.5011
G01 X146.8914 Y24.0346
G01 Y23.8453
G01 X146.6914
G00 Z5.0000


(Nr. 24: Ausschnitt 2)
G00 X126.6914 Y23.8453 Z5.0000
G00 Z0.5000
G01 Z0.0000 F60
G01 Z-2.0000
G01 X124.1266 F90
G01 X123.9395 Y23.9611
G02 X126.8285 Y24.3700 I1.4886 J-0.1069
G02 X126.6741 Y23.0118 I-1.6263 J-0.5030
G02 X125.0127 Y22.4082 I-1.2426 J0.8322
G02 X123.9395 Y23.9611 I0.3932 J1.4191
G01 X124.1266 Y23.8453
G01 Z-4.0000 F60
G01 X126.6914 F90
G01 X126.8914
G02 X125.6623 Y22.3663 I-1.4417 J-0.0520
G02 X125.3427 Y25.3442 I-0.2378 J1.4805
G02 X126.8285 Y24.3700 I0.0780 J-1.5011
G01 X126.8914 Y24.0346
G01 Y23.8453
G01 X126.6914
G01 Z-6.0000 F60
G01 X124.1266 F90
G01 X123.9395 Y23.9611
G02 X126.8285 Y24.3700 I1.4886 J-0.1069
G02 X126.6741 Y23.0118 I-1.6263 J-0.5030
G02 X125.0127 Y22.4082 I-1.2426 J0.8322
G02 X123.9395 Y23.9611 I0.3932 J1.4191
G01 X124.1266 Y23.8453
G01 Z-8.0000 F60
G01 X126.6914 F90
G01 X126.8914
G02 X125.6623 Y22.3663 I-1.4417 J-0.0520
G02 X125.3427 Y25.3442 I-0.2378 J1.4805
G02 X126.8285 Y24.3700 I0.0780 J-1.5011
G01 X126.8914 Y24.0346
G01 Y23.8453
G01 X126.6914
G01 Z-10.0000 F60
G01 X124.1266 F90
G01 X123.9395 Y23.9611
G02 X126.8285 Y24.3700 I1.4886 J-0.1069
G02 X126.6741 Y23.0118 I-1.6263 J-0.5030
G02 X125.0127 Y22.4082 I-1.2426 J0.8322
G02 X123.9395 Y23.9611 I0.3932 J1.4191
G01 X124.1266 Y23.8453
G01 Z-12.0000 F60
G01 X126.6914 F90
G01 X126.8914
G02 X125.6623 Y22.3663 I-1.4417 J-0.0520
G02 X125.3427 Y25.3442 I-0.2378 J1.4805
G02 X126.8285 Y24.3700 I0.0780 J-1.5011
G01 X126.8914 Y24.0346
G01 Y23.8453
G01 X126.6914
G00 Z5.0000


(Nr. 25: Ausschnitt 2)
G00 X106.6914 Y23.8453 Z5.0000
G00 Z0.5000
G01 Z0.0000 F60
G01 Z-2.0000
G01 X104.1266 F90
G01 X103.9395 Y23.9611
G02 X106.8285 Y24.3700 I1.4886 J-0.1069
G02 X106.6741 Y23.0118 I-1.6263 J-0.5030
G02 X105.0127 Y22.4082 I-1.2426 J0.8322
G02 X103.9395 Y23.9611 I0.3932 J1.4191
G01 X104.1266 Y23.8453
G01 Z-4.0000 F60
G01 X106.6914 F90
G01 X106.8914
G02 X105.6623 Y22.3663 I-1.4417 J-0.0520
G02 X105.3427 Y25.3442 I-0.2378 J1.4805
G02 X106.8285 Y24.3700 I0.0780 J-1.5011
G01 X106.8914 Y24.0346
G01 Y23.8453
G01 X106.6914
G01 Z-6.0000 F60
G01 X104.1266 F90
G01 X103.9395 Y23.9611
G02 X106.8285 Y24.3700 I1.4886 J-0.1069
G02 X106.6741 Y23.0118 I-1.6263 J-0.5030
G02 X105.0127 Y22.4082 I-1.2426 J0.8322
G02 X103.9395 Y23.9611 I0.3932 J1.4191
G01 X104.1266 Y23.8453
G01 Z-8.0000 F60
G01 X106.6914 F90
G01 X106.8914
G02 X105.6623 Y22.3663 I-1.4417 J-0.0520
G02 X105.3427 Y25.3442 I-0.2378 J1.4805
G02 X106.8285 Y24.3700 I0.0780 J-1.5011
G01 X106.8914 Y24.0346
G01 Y23.8453
G01 X106.6914
G01 Z-10.0000 F60
G01 X104.1266 F90
G01 X103.9395 Y23.9611
G02 X106.8285 Y24.3700 I1.4886 J-0.1069
G02 X106.6741 Y23.0118 I-1.6263 J-0.5030
G02 X105.0127 Y22.4082 I-1.2426 J0.8322
G02 X103.9395 Y23.9611 I0.3932 J1.4191
G01 X104.1266 Y23.8453
G01 Z-12.0000 F60
G01 X106.6914 F90
G01 X106.8914
G02 X105.6623 Y22.3663 I-1.4417 J-0.0520
G02 X105.3427 Y25.3442 I-0.2378 J1.4805
G02 X106.8285 Y24.3700 I0.0780 J-1.5011
G01 X106.8914 Y24.0346
G01 Y23.8453
G01 X106.6914
G00 Z5.0000


(Nr. 26: Ausschnitt 2)
G00 X86.6914 Y23.8453 Z5.0000
G00 Z0.5000
G01 Z0.0000 F60
G01 Z-2.0000
G01 X84.1266 F90
G01 X83.9395 Y23.9611
G02 X86.8285 Y24.3700 I1.4886 J-0.1069
G02 X86.6741 Y23.0118 I-1.6263 J-0.5030
G02 X85.0127 Y22.4082 I-1.2426 J0.8322
G02 X83.9395 Y23.9611 I0.3932 J1.4191
G01 X84.1266 Y23.8453
G01 Z-4.0000 F60
G01 X86.6914 F90
G01 X86.8914
G02 X85.6623 Y22.3663 I-1.4417 J-0.0520
G02 X85.3427 Y25.3442 I-0.2378 J1.4805
G02 X86.8285 Y24.3700 I0.0780 J-1.5011
G01 X86.8914 Y24.0346
G01 Y23.8453
G01 X86.6914
G01 Z-6.0000 F60
G01 X84.1266 F90
G01 X83.9395 Y23.9611
G02 X86.8285 Y24.3700 I1.4886 J-0.1069
G02 X86.6741 Y23.0118 I-1.6263 J-0.5030
G02 X85.0127 Y22.4082 I-1.2426 J0.8322
G02 X83.9395 Y23.9611 I0.3932 J1.4191
G01 X84.1266 Y23.8453
G01 Z-8.0000 F60
G01 X86.6914 F90
G01 X86.8914
G02 X85.6623 Y22.3663 I-1.4417 J-0.0520
G02 X85.3427 Y25.3442 I-0.2378 J1.4805
G02 X86.8285 Y24.3700 I0.0780 J-1.5011
G01 X86.8914 Y24.0346
G01 Y23.8453
G01 X86.6914
G01 Z-10.0000 F60
G01 X84.1266 F90
G01 X83.9395 Y23.9611
G02 X86.8285 Y24.3700 I1.4886 J-0.1069
G02 X86.6741 Y23.0118 I-1.6263 J-0.5030
G02 X85.0127 Y22.4082 I-1.2426 J0.8322
G02 X83.9395 Y23.9611 I0.3932 J1.4191
G01 X84.1266 Y23.8453
G01 Z-12.0000 F60
G01 X86.6914 F90
G01 X86.8914
G02 X85.6623 Y22.3663 I-1.4417 J-0.0520
G02 X85.3427 Y25.3442 I-0.2378 J1.4805
G02 X86.8285 Y24.3700 I0.0780 J-1.5011
G01 X86.8914 Y24.0346
G01 Y23.8453
G01 X86.6914
G00 Z5.0000


(Nr. 27: Ausschnitt 2)
G00 X66.6914 Y23.8453 Z5.0000
G00 Z0.5000
G01 Z0.0000 F60
G01 Z-2.0000
G01 X64.1266 F90
G01 X63.9395 Y23.9611
G02 X66.8285 Y24.3700 I1.4886 J-0.1069
G02 X66.6741 Y23.0118 I-1.6263 J-0.5030
G02 X65.0127 Y22.4082 I-1.2426 J0.8322
G02 X63.9395 Y23.9611 I0.3932 J1.4191
G01 X64.1266 Y23.8453
G01 Z-4.0000 F60
G01 X66.6914 F90
G01 X66.8914
G02 X65.6623 Y22.3663 I-1.4417 J-0.0520
G02 X65.3427 Y25.3442 I-0.2378 J1.4805
G02 X66.8285 Y24.3700 I0.0780 J-1.5011
G01 X66.8914 Y24.0346
G01 Y23.8453
G01 X66.6914
G01 Z-6.0000 F60
G01 X64.1266 F90
G01 X63.9395 Y23.9611
G02 X66.8285 Y24.3700 I1.4886 J-0.1069
G02 X66.6741 Y23.0118 I-1.6263 J-0.5030
G02 X65.0127 Y22.4082 I-1.2426 J0.8322
G02 X63.9395 Y23.9611 I0.3932 J1.4191
G01 X64.1266 Y23.8453
G01 Z-8.0000 F60
G01 X66.6914 F90
G01 X66.8914
G02 X65.6623 Y22.3663 I-1.4417 J-0.0520
G02 X65.3427 Y25.3442 I-0.2378 J1.4805
G02 X66.8285 Y24.3700 I0.0780 J-1.5011
G01 X66.8914 Y24.0346
G01 Y23.8453
G01 X66.6914
G01 Z-10.0000 F60
G01 X64.1266 F90
G01 X63.9395 Y23.9611
G02 X66.8285 Y24.3700 I1.4886 J-0.1069
G02 X66.6741 Y23.0118 I-1.6263 J-0.5030
G02 X65.0127 Y22.4082 I-1.2426 J0.8322
G02 X63.9395 Y23.9611 I0.3932 J1.4191
G01 X64.1266 Y23.8453
G01 Z-12.0000 F60
G01 X66.6914 F90
G01 X66.8914
G02 X65.6623 Y22.3663 I-1.4417 J-0.0520
G02 X65.3427 Y25.3442 I-0.2378 J1.4805
G02 X66.8285 Y24.3700 I0.0780 J-1.5011
G01 X66.8914 Y24.0346
G01 Y23.8453
G01 X66.6914
G00 Z5.0000


(Nr. 28: Ausschnitt 2)
G00 X46.6914 Y23.8453 Z5.0000
G00 Z0.5000
G01 Z0.0000 F60
G01 Z-2.0000
G01 X44.1266 F90
G01 X43.9395 Y23.9611
G02 X46.8285 Y24.3700 I1.4886 J-0.1069
G02 X46.6741 Y23.0118 I-1.6263 J-0.5030
G02 X45.0127 Y22.4082 I-1.2426 J0.8322
G02 X43.9395 Y23.9611 I0.3932 J1.4191
G01 X44.1266 Y23.8453
G01 Z-4.0000 F60
G01 X46.6914 F90
G01 X46.8914
G02 X45.6623 Y22.3663 I-1.4417 J-0.0520
G02 X45.3427 Y25.3442 I-0.2378 J1.4805
G02 X46.8285 Y24.3700 I0.0780 J-1.5011
G01 X46.8914 Y24.0346
G01 Y23.8453
G01 X46.6914
G01 Z-6.0000 F60
G01 X44.1266 F90
G01 X43.9395 Y23.9611
G02 X46.8285 Y24.3700 I1.4886 J-0.1069
G02 X46.6741 Y23.0118 I-1.6263 J-0.5030
G02 X45.0127 Y22.4082 I-1.2426 J0.8322
G02 X43.9395 Y23.9611 I0.3932 J1.4191
G01 X44.1266 Y23.8453
G01 Z-8.0000 F60
G01 X46.6914 F90
G01 X46.8914
G02 X45.6623 Y22.3663 I-1.4417 J-0.0520
G02 X45.3427 Y25.3442 I-0.2378 J1.4805
G02 X46.8285 Y24.3700 I0.0780 J-1.5011
G01 X46.8914 Y24.0346
G01 Y23.8453
G01 X46.6914
G01 Z-10.0000 F60
G01 X44.1266 F90
G01 X43.9395 Y23.9611
G02 X46.8285 Y24.3700 I1.4886 J-0.1069
G02 X46.6741 Y23.0118 I-1.6263 J-0.5030
G02 X45.0127 Y22.4082 I-1.2426 J0.8322
G02 X43.9395 Y23.9611 I0.3932 J1.4191
G01 X44.1266 Y23.8453
G01 Z-12.0000 F60
G01 X46.6914 F90
G01 X46.8914
G02 X45.6623 Y22.3663 I-1.4417 J-0.0520
G02 X45.3427 Y25.3442 I-0.2378 J1.4805
G02 X46.8285 Y24.3700 I0.0780 J-1.5011
G01 X46.8914 Y24.0346
G01 Y23.8453
G01 X46.6914
G00 Z5.0000


(Nr. 29: Ausschnitt 2)
G00 X26.6914 Y23.8453 Z5.0000
G00 Z0.5000
G01 Z0.0000 F60
G01 Z-2.0000
G01 X24.1266 F90
G01 X23.9395 Y23.9611
G02 X26.8285 Y24.3700 I1.4886 J-0.1069
G02 X26.6741 Y23.0118 I-1.6263 J-0.5030
G02 X25.0127 Y22.4082 I-1.2426 J0.8322
G02 X23.9395 Y23.9611 I0.3932 J1.4191
G01 X24.1266 Y23.8453
G01 Z-4.0000 F60
G01 X26.6914 F90
G01 X26.8914
G02 X25.6623 Y22.3663 I-1.4417 J-0.0520
G02 X25.3427 Y25.3442 I-0.2378 J1.4805
G02 X26.8285 Y24.3700 I0.0780 J-1.5011
G01 X26.8914 Y24.0346
G01 Y23.8453
G01 X26.6914
G01 Z-6.0000 F60
G01 X24.1266 F90
G01 X23.9395 Y23.9611
G02 X26.8285 Y24.3700 I1.4886 J-0.1069
G02 X26.6741 Y23.0118 I-1.6263 J-0.5030
G02 X25.0127 Y22.4082 I-1.2426 J0.8322
G02 X23.9395 Y23.9611 I0.3932 J1.4191
G01 X24.1266 Y23.8453
G01 Z-8.0000 F60
G01 X26.6914 F90
G01 X26.8914
G02 X25.6623 Y22.3663 I-1.4417 J-0.0520
G02 X25.3427 Y25.3442 I-0.2378 J1.4805
G02 X26.8285 Y24.3700 I0.0780 J-1.5011
G01 X26.8914 Y24.0346
G01 Y23.8453
G01 X26.6914
G01 Z-10.0000 F60
G01 X24.1266 F90
G01 X23.9395 Y23.9611
G02 X26.8285 Y24.3700 I1.4886 J-0.1069
G02 X26.6741 Y23.0118 I-1.6263 J-0.5030
G02 X25.0127 Y22.4082 I-1.2426 J0.8322
G02 X23.9395 Y23.9611 I0.3932 J1.4191
G01 X24.1266 Y23.8453
G01 Z-12.0000 F60
G01 X26.6914 F90
G01 X26.8914
G02 X25.6623 Y22.3663 I-1.4417 J-0.0520
G02 X25.3427 Y25.3442 I-0.2378 J1.4805
G02 X26.8285 Y24.3700 I0.0780 J-1.5011
G01 X26.8914 Y24.0346
G01 Y23.8453
G01 X26.6914
G00 Z5.0000


(Nr. 30: Ausschnitt 2)
G00 X6.6914 Y23.8453 Z5.0000
G00 Z0.5000
G01 Z0.0000 F60
G01 Z-2.0000
G01 X4.1266 F90
G01 X3.9395 Y23.9611
G02 X6.8285 Y24.3700 I1.4886 J-0.1069
G02 X6.6741 Y23.0118 I-1.6263 J-0.5030
G02 X5.0127 Y22.4082 I-1.2426 J0.8322
G02 X3.9395 Y23.9611 I0.3932 J1.4191
G01 X4.1266 Y23.8453
G01 Z-4.0000 F60
G01 X6.6914 F90
G01 X6.8914
G02 X5.6623 Y22.3663 I-1.4417 J-0.0520
G02 X5.3427 Y25.3442 I-0.2378 J1.4805
G02 X6.8285 Y24.3700 I0.0780 J-1.5011
G01 X6.8914 Y24.0346
G01 Y23.8453
G01 X6.6914
G01 Z-6.0000 F60
G01 X4.1266 F90
G01 X3.9395 Y23.9611
G02 X6.8285 Y24.3700 I1.4886 J-0.1069
G02 X6.6741 Y23.0118 I-1.6263 J-0.5030
G02 X5.0127 Y22.4082 I-1.2426 J0.8322
G02 X3.9395 Y23.9611 I0.3932 J1.4191
G01 X4.1266 Y23.8453
G01 Z-8.0000 F60
G01 X6.6914 F90
G01 X6.8914
G02 X5.6623 Y22.3663 I-1.4417 J-0.0520
G02 X5.3427 Y25.3442 I-0.2378 J1.4805
G02 X6.8285 Y24.3700 I0.0780 J-1.5011
G01 X6.8914 Y24.0346
G01 Y23.8453
G01 X6.6914
G01 Z-10.0000 F60
G01 X4.1266 F90
G01 X3.9395 Y23.9611
G02 X6.8285 Y24.3700 I1.4886 J-0.1069
G02 X6.6741 Y23.0118 I-1.6263 J-0.5030
G02 X5.0127 Y22.4082 I-1.2426 J0.8322
G02 X3.9395 Y23.9611 I0.3932 J1.4191
G01 X4.1266 Y23.8453
G01 Z-12.0000 F60
G01 X6.6914 F90
G01 X6.8914
G02 X5.6623 Y22.3663 I-1.4417 J-0.0520
G02 X5.3427 Y25.3442 I-0.2378 J1.4805
G02 X6.8285 Y24.3700 I0.0780 J-1.5011
G01 X6.8914 Y24.0346
G01 Y23.8453
G01 X6.6914
G00 Z5.0000


(Nr. 31: Ausschnitt 2)
G00 X6.6914 Y43.8453 Z5.0000
G00 Z0.5000
G01 Z0.0000 F60
G01 Z-2.0000
G01 X4.1266 F90
G01 X3.9395 Y43.9611
G02 X6.8285 Y44.3700 I1.4886 J-0.1069
G02 X6.6741 Y43.0118 I-1.6263 J-0.5030
G02 X5.0127 Y42.4082 I-1.2426 J0.8322
G02 X3.9395 Y43.9611 I0.3932 J1.4191
G01 X4.1266 Y43.8453
G01 Z-4.0000 F60
G01 X6.6914 F90
G01 X6.8914
G02 X5.6623 Y42.3663 I-1.4417 J-0.0520
G02 X5.3427 Y45.3442 I-0.2378 J1.4805
G02 X6.8285 Y44.3700 I0.0780 J-1.5011
G01 X6.8914 Y44.0346
G01 Y43.8453
G01 X6.6914
G01 Z-6.0000 F60
G01 X4.1266 F90
G01 X3.9395 Y43.9611
G02 X6.8285 Y44.3700 I1.4886 J-0.1069
G02 X6.6741 Y43.0118 I-1.6263 J-0.5030
G02 X5.0127 Y42.4082 I-1.2426 J0.8322
G02 X3.9395 Y43.9611 I0.3932 J1.4191
G01 X4.1266 Y43.8453
G01 Z-8.0000 F60
G01 X6.6914 F90
G01 X6.8914
G02 X5.6623 Y42.3663 I-1.4417 J-0.0520
G02 X5.3427 Y45.3442 I-0.2378 J1.4805
G02 X6.8285 Y44.3700 I0.0780 J-1.5011
G01 X6.8914 Y44.0346
G01 Y43.8453
G01 X6.6914
G01 Z-10.0000 F60
G01 X4.1266 F90
G01 X3.9395 Y43.9611
G02 X6.8285 Y44.3700 I1.4886 J-0.1069
G02 X6.6741 Y43.0118 I-1.6263 J-0.5030
G02 X5.0127 Y42.4082 I-1.2426 J0.8322
G02 X3.9395 Y43.9611 I0.3932 J1.4191
G01 X4.1266 Y43.8453
G01 Z-12.0000 F60
G01 X6.6914 F90
G01 X6.8914
G02 X5.6623 Y42.3663 I-1.4417 J-0.0520
G02 X5.3427 Y45.3442 I-0.2378 J1.4805
G02 X6.8285 Y44.3700 I0.0780 J-1.5011
G01 X6.8914 Y44.0346
G01 Y43.8453
G01 X6.6914
G00 Z5.0000


(Nr. 32: Ausschnitt 2)
G00 X24.1266 Y43.8453 Z5.0000
G00 Z0.5000
G01 Z0.0000 F60
G01 Z-2.0000
G01 X26.6914 F90
G01 X26.8914
G02 X25.6623 Y42.3663 I-1.4417 J-0.0520
G02 X25.3427 Y45.3442 I-0.2378 J1.4805
G02 X26.8285 Y44.3700 I0.0780 J-1.5011
G01 X26.8914 Y44.0346
G01 Y43.8453
G01 X26.6914
G01 Z-4.0000 F60
G01 X24.1266 F90
G01 X23.9395 Y43.9611
G02 X26.8285 Y44.3700 I1.4886 J-0.1069
G02 X26.6741 Y43.0118 I-1.6263 J-0.5030
G02 X25.0127 Y42.4082 I-1.2426 J0.8322
G02 X23.9395 Y43.9611 I0.3932 J1.4191
G01 X24.1266 Y43.8453
G01 Z-6.0000 F60
G01 X26.6914 F90
G01 X26.8914
G02 X25.6623 Y42.3663 I-1.4417 J-0.0520
G02 X25.3427 Y45.3442 I-0.2378 J1.4805
G02 X26.8285 Y44.3700 I0.0780 J-1.5011
G01 X26.8914 Y44.0346
G01 Y43.8453
G01 X26.6914
G01 Z-8.0000 F60
G01 X24.1266 F90
G01 X23.9395 Y43.9611
G02 X26.8285 Y44.3700 I1.4886 J-0.1069
G02 X26.6741 Y43.0118 I-1.6263 J-0.5030
G02 X25.0127 Y42.4082 I-1.2426 J0.8322
G02 X23.9395 Y43.9611 I0.3932 J1.4191
G01 X24.1266 Y43.8453
G01 Z-10.0000 F60
G01 X26.6914 F90
G01 X26.8914
G02 X25.6623 Y42.3663 I-1.4417 J-0.0520
G02 X25.3427 Y45.3442 I-0.2378 J1.4805
G02 X26.8285 Y44.3700 I0.0780 J-1.5011
G01 X26.8914 Y44.0346
G01 Y43.8453
G01 X26.6914
G01 Z-12.0000 F60
G01 X24.1266 F90
G01 X23.9395 Y43.9611
G02 X26.8285 Y44.3700 I1.4886 J-0.1069
G02 X26.6741 Y43.0118 I-1.6263 J-0.5030
G02 X25.0127 Y42.4082 I-1.2426 J0.8322
G02 X23.9395 Y43.9611 I0.3932 J1.4191
G01 X24.1266 Y43.8453
G00 Z5.0000


(Nr. 33: Ausschnitt 2)
G00 X44.1266 Y43.8453 Z5.0000
G00 Z0.5000
G01 Z0.0000 F60
G01 Z-2.0000
G01 X46.6914 F90
G01 X46.8914
G02 X45.6623 Y42.3663 I-1.4417 J-0.0520
G02 X45.3427 Y45.3442 I-0.2378 J1.4805
G02 X46.8285 Y44.3700 I0.0780 J-1.5011
G01 X46.8914 Y44.0346
G01 Y43.8453
G01 X46.6914
G01 Z-4.0000 F60
G01 X44.1266 F90
G01 X43.9395 Y43.9611
G02 X46.8285 Y44.3700 I1.4886 J-0.1069
G02 X46.6741 Y43.0118 I-1.6263 J-0.5030
G02 X45.0127 Y42.4082 I-1.2426 J0.8322
G02 X43.9395 Y43.9611 I0.3932 J1.4191
G01 X44.1266 Y43.8453
G01 Z-6.0000 F60
G01 X46.6914 F90
G01 X46.8914
G02 X45.6623 Y42.3663 I-1.4417 J-0.0520
G02 X45.3427 Y45.3442 I-0.2378 J1.4805
G02 X46.8285 Y44.3700 I0.0780 J-1.5011
G01 X46.8914 Y44.0346
G01 Y43.8453
G01 X46.6914
G01 Z-8.0000 F60
G01 X44.1266 F90
G01 X43.9395 Y43.9611
G02 X46.8285 Y44.3700 I1.4886 J-0.1069
G02 X46.6741 Y43.0118 I-1.6263 J-0.5030
G02 X45.0127 Y42.4082 I-1.2426 J0.8322
G02 X43.9395 Y43.9611 I0.3932 J1.4191
G01 X44.1266 Y43.8453
G01 Z-10.0000 F60
G01 X46.6914 F90
G01 X46.8914
G02 X45.6623 Y42.3663 I-1.4417 J-0.0520
G02 X45.3427 Y45.3442 I-0.2378 J1.4805
G02 X46.8285 Y44.3700 I0.0780 J-1.5011
G01 X46.8914 Y44.0346
G01 Y43.8453
G01 X46.6914
G01 Z-12.0000 F60
G01 X44.1266 F90
G01 X43.9395 Y43.9611
G02 X46.8285 Y44.3700 I1.4886 J-0.1069
G02 X46.6741 Y43.0118 I-1.6263 J-0.5030
G02 X45.0127 Y42.4082 I-1.2426 J0.8322
G02 X43.9395 Y43.9611 I0.3932 J1.4191
G01 X44.1266 Y43.8453
G00 Z5.0000


(Nr. 34: Ausschnitt 2)
G00 X64.1266 Y43.8453 Z5.0000
G00 Z0.5000
G01 Z0.0000 F60
G01 Z-2.0000
G01 X66.6914 F90
G01 X66.8914
G02 X65.6623 Y42.3663 I-1.4417 J-0.0520
G02 X65.3427 Y45.3442 I-0.2378 J1.4805
G02 X66.8285 Y44.3700 I0.0780 J-1.5011
G01 X66.8914 Y44.0346
G01 Y43.8453
G01 X66.6914
G01 Z-4.0000 F60
G01 X64.1266 F90
G01 X63.9395 Y43.9611
G02 X66.8285 Y44.3700 I1.4886 J-0.1069
G02 X66.6741 Y43.0118 I-1.6263 J-0.5030
G02 X65.0127 Y42.4082 I-1.2426 J0.8322
G02 X63.9395 Y43.9611 I0.3932 J1.4191
G01 X64.1266 Y43.8453
G01 Z-6.0000 F60
G01 X66.6914 F90
G01 X66.8914
G02 X65.6623 Y42.3663 I-1.4417 J-0.0520
G02 X65.3427 Y45.3442 I-0.2378 J1.4805
G02 X66.8285 Y44.3700 I0.0780 J-1.5011
G01 X66.8914 Y44.0346
G01 Y43.8453
G01 X66.6914
G01 Z-8.0000 F60
G01 X64.1266 F90
G01 X63.9395 Y43.9611
G02 X66.8285 Y44.3700 I1.4886 J-0.1069
G02 X66.6741 Y43.0118 I-1.6263 J-0.5030
G02 X65.0127 Y42.4082 I-1.2426 J0.8322
G02 X63.9395 Y43.9611 I0.3932 J1.4191
G01 X64.1266 Y43.8453
G01 Z-10.0000 F60
G01 X66.6914 F90
G01 X66.8914
G02 X65.6623 Y42.3663 I-1.4417 J-0.0520
G02 X65.3427 Y45.3442 I-0.2378 J1.4805
G02 X66.8285 Y44.3700 I0.0780 J-1.5011
G01 X66.8914 Y44.0346
G01 Y43.8453
G01 X66.6914
G01 Z-12.0000 F60
G01 X64.1266 F90
G01 X63.9395 Y43.9611
G02 X66.8285 Y44.3700 I1.4886 J-0.1069
G02 X66.6741 Y43.0118 I-1.6263 J-0.5030
G02 X65.0127 Y42.4082 I-1.2426 J0.8322
G02 X63.9395 Y43.9611 I0.3932 J1.4191
G01 X64.1266 Y43.8453
G00 Z5.0000


(Nr. 35: Ausschnitt 2)
G00 X84.1266 Y43.8453 Z5.0000
G00 Z0.5000
G01 Z0.0000 F60
G01 Z-2.0000
G01 X86.6914 F90
G01 X86.8914
G02 X85.6623 Y42.3663 I-1.4417 J-0.0520
G02 X85.3427 Y45.3442 I-0.2378 J1.4805
G02 X86.8285 Y44.3700 I0.0780 J-1.5011
G01 X86.8914 Y44.0346
G01 Y43.8453
G01 X86.6914
G01 Z-4.0000 F60
G01 X84.1266 F90
G01 X83.9395 Y43.9611
G02 X86.8285 Y44.3700 I1.4886 J-0.1069
G02 X86.6741 Y43.0118 I-1.6263 J-0.5030
G02 X85.0127 Y42.4082 I-1.2426 J0.8322
G02 X83.9395 Y43.9611 I0.3932 J1.4191
G01 X84.1266 Y43.8453
G01 Z-6.0000 F60
G01 X86.6914 F90
G01 X86.8914
G02 X85.6623 Y42.3663 I-1.4417 J-0.0520
G02 X85.3427 Y45.3442 I-0.2378 J1.4805
G02 X86.8285 Y44.3700 I0.0780 J-1.5011
G01 X86.8914 Y44.0346
G01 Y43.8453
G01 X86.6914
G01 Z-8.0000 F60
G01 X84.1266 F90
G01 X83.9395 Y43.9611
G02 X86.8285 Y44.3700 I1.4886 J-0.1069
G02 X86.6741 Y43.0118 I-1.6263 J-0.5030
G02 X85.0127 Y42.4082 I-1.2426 J0.8322
G02 X83.9395 Y43.9611 I0.3932 J1.4191
G01 X84.1266 Y43.8453
G01 Z-10.0000 F60
G01 X86.6914 F90
G01 X86.8914
G02 X85.6623 Y42.3663 I-1.4417 J-0.0520
G02 X85.3427 Y45.3442 I-0.2378 J1.4805
G02 X86.8285 Y44.3700 I0.0780 J-1.5011
G01 X86.8914 Y44.0346
G01 Y43.8453
G01 X86.6914
G01 Z-12.0000 F60
G01 X84.1266 F90
G01 X83.9395 Y43.9611
G02 X86.8285 Y44.3700 I1.4886 J-0.1069
G02 X86.6741 Y43.0118 I-1.6263 J-0.5030
G02 X85.0127 Y42.4082 I-1.2426 J0.8322
G02 X83.9395 Y43.9611 I0.3932 J1.4191
G01 X84.1266 Y43.8453
G00 Z5.0000


(Nr. 36: Ausschnitt 2)
G00 X104.1266 Y43.8453 Z5.0000
G00 Z0.5000
G01 Z0.0000 F60
G01 Z-2.0000
G01 X106.6914 F90
G01 X106.8914
G02 X105.6623 Y42.3663 I-1.4417 J-0.0520
G02 X105.3427 Y45.3442 I-0.2378 J1.4805
G02 X106.8285 Y44.3700 I0.0780 J-1.5011
G01 X106.8914 Y44.0346
G01 Y43.8453
G01 X106.6914
G01 Z-4.0000 F60
G01 X104.1266 F90
G01 X103.9395 Y43.9611
G02 X106.8285 Y44.3700 I1.4886 J-0.1069
G02 X106.6741 Y43.0118 I-1.6263 J-0.5030
G02 X105.0127 Y42.4082 I-1.2426 J0.8322
G02 X103.9395 Y43.9611 I0.3932 J1.4191
G01 X104.1266 Y43.8453
G01 Z-6.0000 F60
G01 X106.6914 F90
G01 X106.8914
G02 X105.6623 Y42.3663 I-1.4417 J-0.0520
G02 X105.3427 Y45.3442 I-0.2378 J1.4805
G02 X106.8285 Y44.3700 I0.0780 J-1.5011
G01 X106.8914 Y44.0346
G01 Y43.8453
G01 X106.6914
G01 Z-8.0000 F60
G01 X104.1266 F90
G01 X103.9395 Y43.9611
G02 X106.8285 Y44.3700 I1.4886 J-0.1069
G02 X106.6741 Y43.0118 I-1.6263 J-0.5030
G02 X105.0127 Y42.4082 I-1.2426 J0.8322
G02 X103.9395 Y43.9611 I0.3932 J1.4191
G01 X104.1266 Y43.8453
G01 Z-10.0000 F60
G01 X106.6914 F90
G01 X106.8914
G02 X105.6623 Y42.3663 I-1.4417 J-0.0520
G02 X105.3427 Y45.3442 I-0.2378 J1.4805
G02 X106.8285 Y44.3700 I0.0780 J-1.5011
G01 X106.8914 Y44.0346
G01 Y43.8453
G01 X106.6914
G01 Z-12.0000 F60
G01 X104.1266 F90
G01 X103.9395 Y43.9611
G02 X106.8285 Y44.3700 I1.4886 J-0.1069
G02 X106.6741 Y43.0118 I-1.6263 J-0.5030
G02 X105.0127 Y42.4082 I-1.2426 J0.8322
G02 X103.9395 Y43.9611 I0.3932 J1.4191
G01 X104.1266 Y43.8453
G00 Z5.0000


(Nr. 37: Ausschnitt 2)
G00 X124.1266 Y43.8453 Z5.0000
G00 Z0.5000
G01 Z0.0000 F60
G01 Z-2.0000
G01 X126.6914 F90
G01 X126.8914
G02 X125.6623 Y42.3663 I-1.4417 J-0.0520
G02 X125.3427 Y45.3442 I-0.2378 J1.4805
G02 X126.8285 Y44.3700 I0.0780 J-1.5011
G01 X126.8914 Y44.0346
G01 Y43.8453
G01 X126.6914
G01 Z-4.0000 F60
G01 X124.1266 F90
G01 X123.9395 Y43.9611
G02 X126.8285 Y44.3700 I1.4886 J-0.1069
G02 X126.6741 Y43.0118 I-1.6263 J-0.5030
G02 X125.0127 Y42.4082 I-1.2426 J0.8322
G02 X123.9395 Y43.9611 I0.3932 J1.4191
G01 X124.1266 Y43.8453
G01 Z-6.0000 F60
G01 X126.6914 F90
G01 X126.8914
G02 X125.6623 Y42.3663 I-1.4417 J-0.0520
G02 X125.3427 Y45.3442 I-0.2378 J1.4805
G02 X126.8285 Y44.3700 I0.0780 J-1.5011
G01 X126.8914 Y44.0346
G01 Y43.8453
G01 X126.6914
G01 Z-8.0000 F60
G01 X124.1266 F90
G01 X123.9395 Y43.9611
G02 X126.8285 Y44.3700 I1.4886 J-0.1069
G02 X126.6741 Y43.0118 I-1.6263 J-0.5030
G02 X125.0127 Y42.4082 I-1.2426 J0.8322
G02 X123.9395 Y43.9611 I0.3932 J1.4191
G01 X124.1266 Y43.8453
G01 Z-10.0000 F60
G01 X126.6914 F90
G01 X126.8914
G02 X125.6623 Y42.3663 I-1.4417 J-0.0520
G02 X125.3427 Y45.3442 I-0.2378 J1.4805
G02 X126.8285 Y44.3700 I0.0780 J-1.5011
G01 X126.8914 Y44.0346
G01 Y43.8453
G01 X126.6914
G01 Z-12.0000 F60
G01 X124.1266 F90
G01 X123.9395 Y43.9611
G02 X126.8285 Y44.3700 I1.4886 J-0.1069
G02 X126.6741 Y43.0118 I-1.6263 J-0.5030
G02 X125.0127 Y42.4082 I-1.2426 J0.8322
G02 X123.9395 Y43.9611 I0.3932 J1.4191
G01 X124.1266 Y43.8453
G00 Z5.0000


(Nr. 38: Ausschnitt 2)
G00 X144.1266 Y43.8453 Z5.0000
G00 Z0.5000
G01 Z0.0000 F60
G01 Z-2.0000
G01 X146.6914 F90
G01 X146.8914
G02 X145.6623 Y42.3663 I-1.4417 J-0.0520
G02 X145.3427 Y45.3442 I-0.2378 J1.4805
G02 X146.8285 Y44.3700 I0.0780 J-1.5011
G01 X146.8914 Y44.0346
G01 Y43.8453
G01 X146.6914
G01 Z-4.0000 F60
G01 X144.1266 F90
G01 X143.9395 Y43.9611
G02 X146.8285 Y44.3700 I1.4886 J-0.1069
G02 X146.6741 Y43.0118 I-1.6263 J-0.5030
G02 X145.0127 Y42.4082 I-1.2426 J0.8322
G02 X143.9395 Y43.9611 I0.3932 J1.4191
G01 X144.1266 Y43.8453
G01 Z-6.0000 F60
G01 X146.6914 F90
G01 X146.8914
G02 X145.6623 Y42.3663 I-1.4417 J-0.0520
G02 X145.3427 Y45.3442 I-0.2378 J1.4805
G02 X146.8285 Y44.3700 I0.0780 J-1.5011
G01 X146.8914 Y44.0346
G01 Y43.8453
G01 X146.6914
G01 Z-8.0000 F60
G01 X144.1266 F90
G01 X143.9395 Y43.9611
G02 X146.8285 Y44.3700 I1.4886 J-0.1069
G02 X146.6741 Y43.0118 I-1.6263 J-0.5030
G02 X145.0127 Y42.4082 I-1.2426 J0.8322
G02 X143.9395 Y43.9611 I0.3932 J1.4191
G01 X144.1266 Y43.8453
G01 Z-10.0000 F60
G01 X146.6914 F90
G01 X146.8914
G02 X145.6623 Y42.3663 I-1.4417 J-0.0520
G02 X145.3427 Y45.3442 I-0.2378 J1.4805
G02 X146.8285 Y44.3700 I0.0780 J-1.5011
G01 X146.8914 Y44.0346
G01 Y43.8453
G01 X146.6914
G01 Z-12.0000 F60
G01 X144.1266 F90
G01 X143.9395 Y43.9611
G02 X146.8285 Y44.3700 I1.4886 J-0.1069
G02 X146.6741 Y43.0118 I-1.6263 J-0.5030
G02 X145.0127 Y42.4082 I-1.2426 J0.8322
G02 X143.9395 Y43.9611 I0.3932 J1.4191
G01 X144.1266 Y43.8453
G00 Z5.0000


(Nr. 39: Ausschnitt 2)
G00 X164.1266 Y43.8453 Z5.0000
G00 Z0.5000
G01 Z0.0000 F60
G01 Z-2.0000
G01 X166.6914 F90
G01 X166.8914
G02 X165.6623 Y42.3663 I-1.4417 J-0.0520
G02 X165.3427 Y45.3442 I-0.2378 J1.4805
G02 X166.8285 Y44.3700 I0.0780 J-1.5011
G01 X166.8914 Y44.0346
G01 Y43.8453
G01 X166.6914
G01 Z-4.0000 F60
G01 X164.1266 F90
G01 X163.9395 Y43.9611
G02 X166.8285 Y44.3700 I1.4886 J-0.1069
G02 X166.6741 Y43.0118 I-1.6263 J-0.5030
G02 X165.0127 Y42.4082 I-1.2426 J0.8322
G02 X163.9395 Y43.9611 I0.3932 J1.4191
G01 X164.1266 Y43.8453
G01 Z-6.0000 F60
G01 X166.6914 F90
G01 X166.8914
G02 X165.6623 Y42.3663 I-1.4417 J-0.0520
G02 X165.3427 Y45.3442 I-0.2378 J1.4805
G02 X166.8285 Y44.3700 I0.0780 J-1.5011
G01 X166.8914 Y44.0346
G01 Y43.8453
G01 X166.6914
G01 Z-8.0000 F60
G01 X164.1266 F90
G01 X163.9395 Y43.9611
G02 X166.8285 Y44.3700 I1.4886 J-0.1069
G02 X166.6741 Y43.0118 I-1.6263 J-0.5030
G02 X165.0127 Y42.4082 I-1.2426 J0.8322
G02 X163.9395 Y43.9611 I0.3932 J1.4191
G01 X164.1266 Y43.8453
G01 Z-10.0000 F60
G01 X166.6914 F90
G01 X166.8914
G02 X165.6623 Y42.3663 I-1.4417 J-0.0520
G02 X165.3427 Y45.3442 I-0.2378 J1.4805
G02 X166.8285 Y44.3700 I0.0780 J-1.5011
G01 X166.8914 Y44.0346
G01 Y43.8453
G01 X166.6914
G01 Z-12.0000 F60
G01 X164.1266 F90
G01 X163.9395 Y43.9611
G02 X166.8285 Y44.3700 I1.4886 J-0.1069
G02 X166.6741 Y43.0118 I-1.6263 J-0.5030
G02 X165.0127 Y42.4082 I-1.2426 J0.8322
G02 X163.9395 Y43.9611 I0.3932 J1.4191
G01 X164.1266 Y43.8453
G00 Z5.0000


(Nr. 40: Ausschnitt 2)
G00 X184.1266 Y43.8453 Z5.0000
G00 Z0.5000
G01 Z0.0000 F60
G01 Z-2.0000
G01 X186.6914 F90
G01 X186.8914
G02 X185.6623 Y42.3663 I-1.4417 J-0.0520
G02 X185.3427 Y45.3442 I-0.2378 J1.4805
G02 X186.8285 Y44.3700 I0.0780 J-1.5011
G01 X186.8914 Y44.0346
G01 Y43.8453
G01 X186.6914
G01 Z-4.0000 F60
G01 X184.1266 F90
G01 X183.9395 Y43.9611
G02 X186.8285 Y44.3700 I1.4886 J-0.1069
G02 X186.6741 Y43.0118 I-1.6263 J-0.5030
G02 X185.0127 Y42.4082 I-1.2426 J0.8322
G02 X183.9395 Y43.9611 I0.3932 J1.4191
G01 X184.1266 Y43.8453
G01 Z-6.0000 F60
G01 X186.6914 F90
G01 X186.8914
G02 X185.6623 Y42.3663 I-1.4417 J-0.0520
G02 X185.3427 Y45.3442 I-0.2378 J1.4805
G02 X186.8285 Y44.3700 I0.0780 J-1.5011
G01 X186.8914 Y44.0346
G01 Y43.8453
G01 X186.6914
G01 Z-8.0000 F60
G01 X184.1266 F90
G01 X183.9395 Y43.9611
G02 X186.8285 Y44.3700 I1.4886 J-0.1069
G02 X186.6741 Y43.0118 I-1.6263 J-0.5030
G02 X185.0127 Y42.4082 I-1.2426 J0.8322
G02 X183.9395 Y43.9611 I0.3932 J1.4191
G01 X184.1266 Y43.8453
G01 Z-10.0000 F60
G01 X186.6914 F90
G01 X186.8914
G02 X185.6623 Y42.3663 I-1.4417 J-0.0520
G02 X185.3427 Y45.3442 I-0.2378 J1.4805
G02 X186.8285 Y44.3700 I0.0780 J-1.5011
G01 X186.8914 Y44.0346
G01 Y43.8453
G01 X186.6914
G01 Z-12.0000 F60
G01 X184.1266 F90
G01 X183.9395 Y43.9611
G02 X186.8285 Y44.3700 I1.4886 J-0.1069
G02 X186.6741 Y43.0118 I-1.6263 J-0.5030
G02 X185.0127 Y42.4082 I-1.2426 J0.8322
G02 X183.9395 Y43.9611 I0.3932 J1.4191
G01 X184.1266 Y43.8453
G00 Z5.0000


(Nr. 41: Ausschnitt 2)
G00 X204.1266 Y43.8453 Z5.0000
G00 Z0.5000
G01 Z0.0000 F60
G01 Z-2.0000
G01 X206.6914 F90
G01 X206.8914
G02 X205.6623 Y42.3663 I-1.4417 J-0.0520
G02 X205.3427 Y45.3442 I-0.2378 J1.4805
G02 X206.8285 Y44.3700 I0.0780 J-1.5011
G01 X206.8914 Y44.0346
G01 Y43.8453
G01 X206.6914
G01 Z-4.0000 F60
G01 X204.1266 F90
G01 X203.9395 Y43.9611
G02 X206.8285 Y44.3700 I1.4886 J-0.1069
G02 X206.6741 Y43.0118 I-1.6263 J-0.5030
G02 X205.0127 Y42.4082 I-1.2426 J0.8322
G02 X203.9395 Y43.9611 I0.3932 J1.4191
G01 X204.1266 Y43.8453
G01 Z-6.0000 F60
G01 X206.6914 F90
G01 X206.8914
G02 X205.6623 Y42.3663 I-1.4417 J-0.0520
G02 X205.3427 Y45.3442 I-0.2378 J1.4805
G02 X206.8285 Y44.3700 I0.0780 J-1.5011
G01 X206.8914 Y44.0346
G01 Y43.8453
G01 X206.6914
G01 Z-8.0000 F60
G01 X204.1266 F90
G01 X203.9395 Y43.9611
G02 X206.8285 Y44.3700 I1.4886 J-0.1069
G02 X206.6741 Y43.0118 I-1.6263 J-0.5030
G02 X205.0127 Y42.4082 I-1.2426 J0.8322
G02 X203.9395 Y43.9611 I0.3932 J1.4191
G01 X204.1266 Y43.8453
G01 Z-10.0000 F60
G01 X206.6914 F90
G01 X206.8914
G02 X205.6623 Y42.3663 I-1.4417 J-0.0520
G02 X205.3427 Y45.3442 I-0.2378 J1.4805
G02 X206.8285 Y44.3700 I0.0780 J-1.5011
G01 X206.8914 Y44.0346
G01 Y43.8453
G01 X206.6914
G01 Z-12.0000 F60
G01 X204.1266 F90
G01 X203.9395 Y43.9611
G02 X206.8285 Y44.3700 I1.4886 J-0.1069
G02 X206.6741 Y43.0118 I-1.6263 J-0.5030
G02 X205.0127 Y42.4082 I-1.2426 J0.8322
G02 X203.9395 Y43.9611 I0.3932 J1.4191
G01 X204.1266 Y43.8453
G00 Z5.0000


(Nr. 42: Ausschnitt 2)
G00 X224.1266 Y43.8453 Z5.0000
G00 Z0.5000
G01 Z0.0000 F60
G01 Z-2.0000
G01 X226.6914 F90
G01 X226.8914
G02 X225.6623 Y42.3663 I-1.4417 J-0.0520
G02 X225.3427 Y45.3442 I-0.2378 J1.4805
G02 X226.8285 Y44.3700 I0.0780 J-1.5011
G01 X226.8914 Y44.0346
G01 Y43.8453
G01 X226.6914
G01 Z-4.0000 F60
G01 X224.1266 F90
G01 X223.9395 Y43.9611
G02 X226.8285 Y44.3700 I1.4886 J-0.1069
G02 X226.6741 Y43.0118 I-1.6263 J-0.5030
G02 X225.0127 Y42.4082 I-1.2426 J0.8322
G02 X223.9395 Y43.9611 I0.3932 J1.4191
G01 X224.1266 Y43.8453
G01 Z-6.0000 F60
G01 X226.6914 F90
G01 X226.8914
G02 X225.6623 Y42.3663 I-1.4417 J-0.0520
G02 X225.3427 Y45.3442 I-0.2378 J1.4805
G02 X226.8285 Y44.3700 I0.0780 J-1.5011
G01 X226.8914 Y44.0346
G01 Y43.8453
G01 X226.6914
G01 Z-8.0000 F60
G01 X224.1266 F90
G01 X223.9395 Y43.9611
G02 X226.8285 Y44.3700 I1.4886 J-0.1069
G02 X226.6741 Y43.0118 I-1.6263 J-0.5030
G02 X225.0127 Y42.4082 I-1.2426 J0.8322
G02 X223.9395 Y43.9611 I0.3932 J1.4191
G01 X224.1266 Y43.8453
G01 Z-10.0000 F60
G01 X226.6914 F90
G01 X226.8914
G02 X225.6623 Y42.3663 I-1.4417 J-0.0520
G02 X225.3427 Y45.3442 I-0.2378 J1.4805
G02 X226.8285 Y44.3700 I0.0780 J-1.5011
G01 X226.8914 Y44.0346
G01 Y43.8453
G01 X226.6914
G01 Z-12.0000 F60
G01 X224.1266 F90
G01 X223.9395 Y43.9611
G02 X226.8285 Y44.3700 I1.4886 J-0.1069
G02 X226.6741 Y43.0118 I-1.6263 J-0.5030
G02 X225.0127 Y42.4082 I-1.2426 J0.8322
G02 X223.9395 Y43.9611 I0.3932 J1.4191
G01 X224.1266 Y43.8453
G00 Z5.0000


(Nr. 43: Ausschnitt 2)
G00 X244.1266 Y43.8453 Z5.0000
G00 Z0.5000
G01 Z0.0000 F60
G01 Z-2.0000
G01 X246.6914 F90
G01 X246.8914
G02 X245.6623 Y42.3663 I-1.4417 J-0.0520
G02 X245.3427 Y45.3442 I-0.2378 J1.4805
G02 X246.8285 Y44.3700 I0.0780 J-1.5011
G01 X246.8914 Y44.0346
G01 Y43.8453
G01 X246.6914
G01 Z-4.0000 F60
G01 X244.1266 F90
G01 X243.9395 Y43.9611
G02 X246.8285 Y44.3700 I1.4886 J-0.1069
G02 X246.6741 Y43.0118 I-1.6263 J-0.5030
G02 X245.0127 Y42.4082 I-1.2426 J0.8322
G02 X243.9395 Y43.9611 I0.3932 J1.4191
G01 X244.1266 Y43.8453
G01 Z-6.0000 F60
G01 X246.6914 F90
G01 X246.8914
G02 X245.6623 Y42.3663 I-1.4417 J-0.0520
G02 X245.3427 Y45.3442 I-0.2378 J1.4805
G02 X246.8285 Y44.3700 I0.0780 J-1.5011
G01 X246.8914 Y44.0346
G01 Y43.8453
G01 X246.6914
G01 Z-8.0000 F60
G01 X244.1266 F90
G01 X243.9395 Y43.9611
G02 X246.8285 Y44.3700 I1.4886 J-0.1069
G02 X246.6741 Y43.0118 I-1.6263 J-0.5030
G02 X245.0127 Y42.4082 I-1.2426 J0.8322
G02 X243.9395 Y43.9611 I0.3932 J1.4191
G01 X244.1266 Y43.8453
G01 Z-10.0000 F60
G01 X246.6914 F90
G01 X246.8914
G02 X245.6623 Y42.3663 I-1.4417 J-0.0520
G02 X245.3427 Y45.3442 I-0.2378 J1.4805
G02 X246.8285 Y44.3700 I0.0780 J-1.5011
G01 X246.8914 Y44.0346
G01 Y43.8453
G01 X246.6914
G01 Z-12.0000 F60
G01 X244.1266 F90
G01 X243.9395 Y43.9611
G02 X246.8285 Y44.3700 I1.4886 J-0.1069
G02 X246.6741 Y43.0118 I-1.6263 J-0.5030
G02 X245.0127 Y42.4082 I-1.2426 J0.8322
G02 X243.9395 Y43.9611 I0.3932 J1.4191
G01 X244.1266 Y43.8453
G00 Z5.0000


(Nr. 44: Ausschnitt 2)
G00 X264.1266 Y43.8453 Z5.0000
G00 Z0.5000
G01 Z0.0000 F60
G01 Z-2.0000
G01 X266.6914 F90
G01 X266.8914
G02 X265.6623 Y42.3663 I-1.4417 J-0.0520
G02 X265.3427 Y45.3442 I-0.2378 J1.4805
G02 X266.8285 Y44.3700 I0.0780 J-1.5011
G01 X266.8914 Y44.0346
G01 Y43.8453
G01 X266.6914
G01 Z-4.0000 F60
G01 X264.1266 F90
G01 X263.9395 Y43.9611
G02 X266.8285 Y44.3700 I1.4886 J-0.1069
G02 X266.6741 Y43.0118 I-1.6263 J-0.5030
G02 X265.0127 Y42.4082 I-1.2426 J0.8322
G02 X263.9395 Y43.9611 I0.3932 J1.4191
G01 X264.1266 Y43.8453
G01 Z-6.0000 F60
G01 X266.6914 F90
G01 X266.8914
G02 X265.6623 Y42.3663 I-1.4417 J-0.0520
G02 X265.3427 Y45.3442 I-0.2378 J1.4805
G02 X266.8285 Y44.3700 I0.0780 J-1.5011
G01 X266.8914 Y44.0346
G01 Y43.8453
G01 X266.6914
G01 Z-8.0000 F60
G01 X264.1266 F90
G01 X263.9395 Y43.9611
G02 X266.8285 Y44.3700 I1.4886 J-0.1069
G02 X266.6741 Y43.0118 I-1.6263 J-0.5030
G02 X265.0127 Y42.4082 I-1.2426 J0.8322
G02 X263.9395 Y43.9611 I0.3932 J1.4191
G01 X264.1266 Y43.8453
G01 Z-10.0000 F60
G01 X266.6914 F90
G01 X266.8914
G02 X265.6623 Y42.3663 I-1.4417 J-0.0520
G02 X265.3427 Y45.3442 I-0.2378 J1.4805
G02 X266.8285 Y44.3700 I0.0780 J-1.5011
G01 X266.8914 Y44.0346
G01 Y43.8453
G01 X266.6914
G01 Z-12.0000 F60
G01 X264.1266 F90
G01 X263.9395 Y43.9611
G02 X266.8285 Y44.3700 I1.4886 J-0.1069
G02 X266.6741 Y43.0118 I-1.6263 J-0.5030
G02 X265.0127 Y42.4082 I-1.2426 J0.8322
G02 X263.9395 Y43.9611 I0.3932 J1.4191
G01 X264.1266 Y43.8453
G00 Z5.0000


(Nr. 45: Ausschnitt 2)
G00 X284.1266 Y43.8453 Z5.0000
G00 Z0.5000
G01 Z0.0000 F60
G01 Z-2.0000
G01 X286.6914 F90
G01 X286.8914
G02 X285.6623 Y42.3663 I-1.4417 J-0.0520
G02 X285.3427 Y45.3442 I-0.2378 J1.4805
G02 X286.8285 Y44.3700 I0.0780 J-1.5011
G01 X286.8914 Y44.0346
G01 Y43.8453
G01 X286.6914
G01 Z-4.0000 F60
G01 X284.1266 F90
G01 X283.9395 Y43.9611
G02 X286.8285 Y44.3700 I1.4886 J-0.1069
G02 X286.6741 Y43.0118 I-1.6263 J-0.5030
G02 X285.0127 Y42.4082 I-1.2426 J0.8322
G02 X283.9395 Y43.9611 I0.3932 J1.4191
G01 X284.1266 Y43.8453
G01 Z-6.0000 F60
G01 X286.6914 F90
G01 X286.8914
G02 X285.6623 Y42.3663 I-1.4417 J-0.0520
G02 X285.3427 Y45.3442 I-0.2378 J1.4805
G02 X286.8285 Y44.3700 I0.0780 J-1.5011
G01 X286.8914 Y44.0346
G01 Y43.8453
G01 X286.6914
G01 Z-8.0000 F60
G01 X284.1266 F90
G01 X283.9395 Y43.9611
G02 X286.8285 Y44.3700 I1.4886 J-0.1069
G02 X286.6741 Y43.0118 I-1.6263 J-0.5030
G02 X285.0127 Y42.4082 I-1.2426 J0.8322
G02 X283.9395 Y43.9611 I0.3932 J1.4191
G01 X284.1266 Y43.8453
G01 Z-10.0000 F60
G01 X286.6914 F90
G01 X286.8914
G02 X285.6623 Y42.3663 I-1.4417 J-0.0520
G02 X285.3427 Y45.3442 I-0.2378 J1.4805
G02 X286.8285 Y44.3700 I0.0780 J-1.5011
G01 X286.8914 Y44.0346
G01 Y43.8453
G01 X286.6914
G01 Z-12.0000 F60
G01 X284.1266 F90
G01 X283.9395 Y43.9611
G02 X286.8285 Y44.3700 I1.4886 J-0.1069
G02 X286.6741 Y43.0118 I-1.6263 J-0.5030
G02 X285.0127 Y42.4082 I-1.2426 J0.8322
G02 X283.9395 Y43.9611 I0.3932 J1.4191
G01 X284.1266 Y43.8453
G00 Z5.0000


(Nr. 46: Ausschnitt 2)
G00 X284.1266 Y63.8453 Z5.0000
G00 Z0.5000
G01 Z0.0000 F60
G01 Z-2.0000
G01 X286.6914 F90
G01 X286.8914
G02 X285.6623 Y62.3663 I-1.4417 J-0.0520
G02 X285.3427 Y65.3442 I-0.2378 J1.4805
G02 X286.8285 Y64.3700 I0.0780 J-1.5011
G01 X286.8914 Y64.0346
G01 Y63.8453
G01 X286.6914
G01 Z-4.0000 F60
G01 X284.1266 F90
G01 X283.9395 Y63.9611
G02 X286.8285 Y64.3700 I1.4886 J-0.1069
G02 X286.6741 Y63.0118 I-1.6263 J-0.5030
G02 X285.0127 Y62.4082 I-1.2426 J0.8322
G02 X283.9395 Y63.9611 I0.3932 J1.4191
G01 X284.1266 Y63.8453
G01 Z-6.0000 F60
G01 X286.6914 F90
G01 X286.8914
G02 X285.6623 Y62.3663 I-1.4417 J-0.0520
G02 X285.3427 Y65.3442 I-0.2378 J1.4805
G02 X286.8285 Y64.3700 I0.0780 J-1.5011
G01 X286.8914 Y64.0346
G01 Y63.8453
G01 X286.6914
G01 Z-8.0000 F60
G01 X284.1266 F90
G01 X283.9395 Y63.9611
G02 X286.8285 Y64.3700 I1.4886 J-0.1069
G02 X286.6741 Y63.0118 I-1.6263 J-0.5030
G02 X285.0127 Y62.4082 I-1.2426 J0.8322
G02 X283.9395 Y63.9611 I0.3932 J1.4191
G01 X284.1266 Y63.8453
G01 Z-10.0000 F60
G01 X286.6914 F90
G01 X286.8914
G02 X285.6623 Y62.3663 I-1.4417 J-0.0520
G02 X285.3427 Y65.3442 I-0.2378 J1.4805
G02 X286.8285 Y64.3700 I0.0780 J-1.5011
G01 X286.8914 Y64.0346
G01 Y63.8453
G01 X286.6914
G01 Z-12.0000 F60
G01 X284.1266 F90
G01 X283.9395 Y63.9611
G02 X286.8285 Y64.3700 I1.4886 J-0.1069
G02 X286.6741 Y63.0118 I-1.6263 J-0.5030
G02 X285.0127 Y62.4082 I-1.2426 J0.8322
G02 X283.9395 Y63.9611 I0.3932 J1.4191
G01 X284.1266 Y63.8453
G00 Z5.0000


(Nr. 47: Ausschnitt 2)
G00 X284.1266 Y83.8453 Z5.0000
G00 Z0.5000
G01 Z0.0000 F60
G01 Z-2.0000
G01 X286.6914 F90
G01 X286.8914
G02 X285.6623 Y82.3663 I-1.4417 J-0.0520
G02 X285.3427 Y85.3442 I-0.2378 J1.4805
G02 X286.8285 Y84.3700 I0.0780 J-1.5011
G01 X286.8914 Y84.0346
G01 Y83.8453
G01 X286.6914
G01 Z-4.0000 F60
G01 X284.1266 F90
G01 X283.9395 Y83.9611
G02 X286.8285 Y84.3700 I1.4886 J-0.1069
G02 X286.6741 Y83.0118 I-1.6263 J-0.5030
G02 X285.0127 Y82.4082 I-1.2426 J0.8322
G02 X283.9395 Y83.9611 I0.3932 J1.4191
G01 X284.1266 Y83.8453
G01 Z-6.0000 F60
G01 X286.6914 F90
G01 X286.8914
G02 X285.6623 Y82.3663 I-1.4417 J-0.0520
G02 X285.3427 Y85.3442 I-0.2378 J1.4805
G02 X286.8285 Y84.3700 I0.0780 J-1.5011
G01 X286.8914 Y84.0346
G01 Y83.8453
G01 X286.6914
G01 Z-8.0000 F60
G01 X284.1266 F90
G01 X283.9395 Y83.9611
G02 X286.8285 Y84.3700 I1.4886 J-0.1069
G02 X286.6741 Y83.0118 I-1.6263 J-0.5030
G02 X285.0127 Y82.4082 I-1.2426 J0.8322
G02 X283.9395 Y83.9611 I0.3932 J1.4191
G01 X284.1266 Y83.8453
G01 Z-10.0000 F60
G01 X286.6914 F90
G01 X286.8914
G02 X285.6623 Y82.3663 I-1.4417 J-0.0520
G02 X285.3427 Y85.3442 I-0.2378 J1.4805
G02 X286.8285 Y84.3700 I0.0780 J-1.5011
G01 X286.8914 Y84.0346
G01 Y83.8453
G01 X286.6914
G01 Z-12.0000 F60
G01 X284.1266 F90
G01 X283.9395 Y83.9611
G02 X286.8285 Y84.3700 I1.4886 J-0.1069
G02 X286.6741 Y83.0118 I-1.6263 J-0.5030
G02 X285.0127 Y82.4082 I-1.2426 J0.8322
G02 X283.9395 Y83.9611 I0.3932 J1.4191
G01 X284.1266 Y83.8453
G00 Z5.0000


(Nr. 48: Ausschnitt 2)
G00 X266.6914 Y83.8453 Z5.0000
G00 Z0.5000
G01 Z0.0000 F60
G01 Z-2.0000
G01 X264.1266 F90
G01 X263.9395 Y83.9611
G02 X266.8285 Y84.3700 I1.4886 J-0.1069
G02 X266.6741 Y83.0118 I-1.6263 J-0.5030
G02 X265.0127 Y82.4082 I-1.2426 J0.8322
G02 X263.9395 Y83.9611 I0.3932 J1.4191
G01 X264.1266 Y83.8453
G01 Z-4.0000 F60
G01 X266.6914 F90
G01 X266.8914
G02 X265.6623 Y82.3663 I-1.4417 J-0.0520
G02 X265.3427 Y85.3442 I-0.2378 J1.4805
G02 X266.8285 Y84.3700 I0.0780 J-1.5011
G01 X266.8914 Y84.0346
G01 Y83.8453
G01 X266.6914
G01 Z-6.0000 F60
G01 X264.1266 F90
G01 X263.9395 Y83.9611
G02 X266.8285 Y84.3700 I1.4886 J-0.1069
G02 X266.6741 Y83.0118 I-1.6263 J-0.5030
G02 X265.0127 Y82.4082 I-1.2426 J0.8322
G02 X263.9395 Y83.9611 I0.3932 J1.4191
G01 X264.1266 Y83.8453
G01 Z-8.0000 F60
G01 X266.6914 F90
G01 X266.8914
G02 X265.6623 Y82.3663 I-1.4417 J-0.0520
G02 X265.3427 Y85.3442 I-0.2378 J1.4805
G02 X266.8285 Y84.3700 I0.0780 J-1.5011
G01 X266.8914 Y84.0346
G01 Y83.8453
G01 X266.6914
G01 Z-10.0000 F60
G01 X264.1266 F90
G01 X263.9395 Y83.9611
G02 X266.8285 Y84.3700 I1.4886 J-0.1069
G02 X266.6741 Y83.0118 I-1.6263 J-0.5030
G02 X265.0127 Y82.4082 I-1.2426 J0.8322
G02 X263.9395 Y83.9611 I0.3932 J1.4191
G01 X264.1266 Y83.8453
G01 Z-12.0000 F60
G01 X266.6914 F90
G01 X266.8914
G02 X265.6623 Y82.3663 I-1.4417 J-0.0520
G02 X265.3427 Y85.3442 I-0.2378 J1.4805
G02 X266.8285 Y84.3700 I0.0780 J-1.5011
G01 X266.8914 Y84.0346
G01 Y83.8453
G01 X266.6914
G00 Z5.0000


(Nr. 49: Ausschnitt 2)
G00 X266.6914 Y63.8453 Z5.0000
G00 Z0.5000
G01 Z0.0000 F60
G01 Z-2.0000
G01 X264.1266 F90
G01 X263.9395 Y63.9611
G02 X266.8285 Y64.3700 I1.4886 J-0.1069
G02 X266.6741 Y63.0118 I-1.6263 J-0.5030
G02 X265.0127 Y62.4082 I-1.2426 J0.8322
G02 X263.9395 Y63.9611 I0.3932 J1.4191
G01 X264.1266 Y63.8453
G01 Z-4.0000 F60
G01 X266.6914 F90
G01 X266.8914
G02 X265.6623 Y62.3663 I-1.4417 J-0.0520
G02 X265.3427 Y65.3442 I-0.2378 J1.4805
G02 X266.8285 Y64.3700 I0.0780 J-1.5011
G01 X266.8914 Y64.0346
G01 Y63.8453
G01 X266.6914
G01 Z-6.0000 F60
G01 X264.1266 F90
G01 X263.9395 Y63.9611
G02 X266.8285 Y64.3700 I1.4886 J-0.1069
G02 X266.6741 Y63.0118 I-1.6263 J-0.5030
G02 X265.0127 Y62.4082 I-1.2426 J0.8322
G02 X263.9395 Y63.9611 I0.3932 J1.4191
G01 X264.1266 Y63.8453
G01 Z-8.0000 F60
G01 X266.6914 F90
G01 X266.8914
G02 X265.6623 Y62.3663 I-1.4417 J-0.0520
G02 X265.3427 Y65.3442 I-0.2378 J1.4805
G02 X266.8285 Y64.3700 I0.0780 J-1.5011
G01 X266.8914 Y64.0346
G01 Y63.8453
G01 X266.6914
G01 Z-10.0000 F60
G01 X264.1266 F90
G01 X263.9395 Y63.9611
G02 X266.8285 Y64.3700 I1.4886 J-0.1069
G02 X266.6741 Y63.0118 I-1.6263 J-0.5030
G02 X265.0127 Y62.4082 I-1.2426 J0.8322
G02 X263.9395 Y63.9611 I0.3932 J1.4191
G01 X264.1266 Y63.8453
G01 Z-12.0000 F60
G01 X266.6914 F90
G01 X266.8914
G02 X265.6623 Y62.3663 I-1.4417 J-0.0520
G02 X265.3427 Y65.3442 I-0.2378 J1.4805
G02 X266.8285 Y64.3700 I0.0780 J-1.5011
G01 X266.8914 Y64.0346
G01 Y63.8453
G01 X266.6914
G00 Z5.0000


(Nr. 50: Ausschnitt 2)
G00 X246.6914 Y63.8453 Z5.0000
G00 Z0.5000
G01 Z0.0000 F60
G01 Z-2.0000
G01 X244.1266 F90
G01 X243.9395 Y63.9611
G02 X246.8285 Y64.3700 I1.4886 J-0.1069
G02 X246.6741 Y63.0118 I-1.6263 J-0.5030
G02 X245.0127 Y62.4082 I-1.2426 J0.8322
G02 X243.9395 Y63.9611 I0.3932 J1.4191
G01 X244.1266 Y63.8453
G01 Z-4.0000 F60
G01 X246.6914 F90
G01 X246.8914
G02 X245.6623 Y62.3663 I-1.4417 J-0.0520
G02 X245.3427 Y65.3442 I-0.2378 J1.4805
G02 X246.8285 Y64.3700 I0.0780 J-1.5011
G01 X246.8914 Y64.0346
G01 Y63.8453
G01 X246.6914
G01 Z-6.0000 F60
G01 X244.1266 F90
G01 X243.9395 Y63.9611
G02 X246.8285 Y64.3700 I1.4886 J-0.1069
G02 X246.6741 Y63.0118 I-1.6263 J-0.5030
G02 X245.0127 Y62.4082 I-1.2426 J0.8322
G02 X243.9395 Y63.9611 I0.3932 J1.4191
G01 X244.1266 Y63.8453
G01 Z-8.0000 F60
G01 X246.6914 F90
G01 X246.8914
G02 X245.6623 Y62.3663 I-1.4417 J-0.0520
G02 X245.3427 Y65.3442 I-0.2378 J1.4805
G02 X246.8285 Y64.3700 I0.0780 J-1.5011
G01 X246.8914 Y64.0346
G01 Y63.8453
G01 X246.6914
G01 Z-10.0000 F60
G01 X244.1266 F90
G01 X243.9395 Y63.9611
G02 X246.8285 Y64.3700 I1.4886 J-0.1069
G02 X246.6741 Y63.0118 I-1.6263 J-0.5030
G02 X245.0127 Y62.4082 I-1.2426 J0.8322
G02 X243.9395 Y63.9611 I0.3932 J1.4191
G01 X244.1266 Y63.8453
G01 Z-12.0000 F60
G01 X246.6914 F90
G01 X246.8914
G02 X245.6623 Y62.3663 I-1.4417 J-0.0520
G02 X245.3427 Y65.3442 I-0.2378 J1.4805
G02 X246.8285 Y64.3700 I0.0780 J-1.5011
G01 X246.8914 Y64.0346
G01 Y63.8453
G01 X246.6914
G00 Z5.0000


(Nr. 51: Ausschnitt 2)
G00 X246.6914 Y83.8453 Z5.0000
G00 Z0.5000
G01 Z0.0000 F60
G01 Z-2.0000
G01 X244.1266 F90
G01 X243.9395 Y83.9611
G02 X246.8285 Y84.3700 I1.4886 J-0.1069
G02 X246.6741 Y83.0118 I-1.6263 J-0.5030
G02 X245.0127 Y82.4082 I-1.2426 J0.8322
G02 X243.9395 Y83.9611 I0.3932 J1.4191
G01 X244.1266 Y83.8453
G01 Z-4.0000 F60
G01 X246.6914 F90
G01 X246.8914
G02 X245.6623 Y82.3663 I-1.4417 J-0.0520
G02 X245.3427 Y85.3442 I-0.2378 J1.4805
G02 X246.8285 Y84.3700 I0.0780 J-1.5011
G01 X246.8914 Y84.0346
G01 Y83.8453
G01 X246.6914
G01 Z-6.0000 F60
G01 X244.1266 F90
G01 X243.9395 Y83.9611
G02 X246.8285 Y84.3700 I1.4886 J-0.1069
G02 X246.6741 Y83.0118 I-1.6263 J-0.5030
G02 X245.0127 Y82.4082 I-1.2426 J0.8322
G02 X243.9395 Y83.9611 I0.3932 J1.4191
G01 X244.1266 Y83.8453
G01 Z-8.0000 F60
G01 X246.6914 F90
G01 X246.8914
G02 X245.6623 Y82.3663 I-1.4417 J-0.0520
G02 X245.3427 Y85.3442 I-0.2378 J1.4805
G02 X246.8285 Y84.3700 I0.0780 J-1.5011
G01 X246.8914 Y84.0346
G01 Y83.8453
G01 X246.6914
G01 Z-10.0000 F60
G01 X244.1266 F90
G01 X243.9395 Y83.9611
G02 X246.8285 Y84.3700 I1.4886 J-0.1069
G02 X246.6741 Y83.0118 I-1.6263 J-0.5030
G02 X245.0127 Y82.4082 I-1.2426 J0.8322
G02 X243.9395 Y83.9611 I0.3932 J1.4191
G01 X244.1266 Y83.8453
G01 Z-12.0000 F60
G01 X246.6914 F90
G01 X246.8914
G02 X245.6623 Y82.3663 I-1.4417 J-0.0520
G02 X245.3427 Y85.3442 I-0.2378 J1.4805
G02 X246.8285 Y84.3700 I0.0780 J-1.5011
G01 X246.8914 Y84.0346
G01 Y83.8453
G01 X246.6914
G00 Z5.0000


(Nr. 52: Ausschnitt 2)
G00 X226.6914 Y83.8453 Z5.0000
G00 Z0.5000
G01 Z0.0000 F60
G01 Z-2.0000
G01 X224.1266 F90
G01 X223.9395 Y83.9611
G02 X226.8285 Y84.3700 I1.4886 J-0.1069
G02 X226.6741 Y83.0118 I-1.6263 J-0.5030
G02 X225.0127 Y82.4082 I-1.2426 J0.8322
G02 X223.9395 Y83.9611 I0.3932 J1.4191
G01 X224.1266 Y83.8453
G01 Z-4.0000 F60
G01 X226.6914 F90
G01 X226.8914
G02 X225.6623 Y82.3663 I-1.4417 J-0.0520
G02 X225.3427 Y85.3442 I-0.2378 J1.4805
G02 X226.8285 Y84.3700 I0.0780 J-1.5011
G01 X226.8914 Y84.0346
G01 Y83.8453
G01 X226.6914
G01 Z-6.0000 F60
G01 X224.1266 F90
G01 X223.9395 Y83.9611
G02 X226.8285 Y84.3700 I1.4886 J-0.1069
G02 X226.6741 Y83.0118 I-1.6263 J-0.5030
G02 X225.0127 Y82.4082 I-1.2426 J0.8322
G02 X223.9395 Y83.9611 I0.3932 J1.4191
G01 X224.1266 Y83.8453
G01 Z-8.0000 F60
G01 X226.6914 F90
G01 X226.8914
G02 X225.6623 Y82.3663 I-1.4417 J-0.0520
G02 X225.3427 Y85.3442 I-0.2378 J1.4805
G02 X226.8285 Y84.3700 I0.0780 J-1.5011
G01 X226.8914 Y84.0346
G01 Y83.8453
G01 X226.6914
G01 Z-10.0000 F60
G01 X224.1266 F90
G01 X223.9395 Y83.9611
G02 X226.8285 Y84.3700 I1.4886 J-0.1069
G02 X226.6741 Y83.0118 I-1.6263 J-0.5030
G02 X225.0127 Y82.4082 I-1.2426 J0.8322
G02 X223.9395 Y83.9611 I0.3932 J1.4191
G01 X224.1266 Y83.8453
G01 Z-12.0000 F60
G01 X226.6914 F90
G01 X226.8914
G02 X225.6623 Y82.3663 I-1.4417 J-0.0520
G02 X225.3427 Y85.3442 I-0.2378 J1.4805
G02 X226.8285 Y84.3700 I0.0780 J-1.5011
G01 X226.8914 Y84.0346
G01 Y83.8453
G01 X226.6914
G00 Z5.0000


(Nr. 53: Ausschnitt 2)
G00 X226.6914 Y63.8453 Z5.0000
G00 Z0.5000
G01 Z0.0000 F60
G01 Z-2.0000
G01 X224.1266 F90
G01 X223.9395 Y63.9611
G02 X226.8285 Y64.3700 I1.4886 J-0.1069
G02 X226.6741 Y63.0118 I-1.6263 J-0.5030
G02 X225.0127 Y62.4082 I-1.2426 J0.8322
G02 X223.9395 Y63.9611 I0.3932 J1.4191
G01 X224.1266 Y63.8453
G01 Z-4.0000 F60
G01 X226.6914 F90
G01 X226.8914
G02 X225.6623 Y62.3663 I-1.4417 J-0.0520
G02 X225.3427 Y65.3442 I-0.2378 J1.4805
G02 X226.8285 Y64.3700 I0.0780 J-1.5011
G01 X226.8914 Y64.0346
G01 Y63.8453
G01 X226.6914
G01 Z-6.0000 F60
G01 X224.1266 F90
G01 X223.9395 Y63.9611
G02 X226.8285 Y64.3700 I1.4886 J-0.1069
G02 X226.6741 Y63.0118 I-1.6263 J-0.5030
G02 X225.0127 Y62.4082 I-1.2426 J0.8322
G02 X223.9395 Y63.9611 I0.3932 J1.4191
G01 X224.1266 Y63.8453
G01 Z-8.0000 F60
G01 X226.6914 F90
G01 X226.8914
G02 X225.6623 Y62.3663 I-1.4417 J-0.0520
G02 X225.3427 Y65.3442 I-0.2378 J1.4805
G02 X226.8285 Y64.3700 I0.0780 J-1.5011
G01 X226.8914 Y64.0346
G01 Y63.8453
G01 X226.6914
G01 Z-10.0000 F60
G01 X224.1266 F90
G01 X223.9395 Y63.9611
G02 X226.8285 Y64.3700 I1.4886 J-0.1069
G02 X226.6741 Y63.0118 I-1.6263 J-0.5030
G02 X225.0127 Y62.4082 I-1.2426 J0.8322
G02 X223.9395 Y63.9611 I0.3932 J1.4191
G01 X224.1266 Y63.8453
G01 Z-12.0000 F60
G01 X226.6914 F90
G01 X226.8914
G02 X225.6623 Y62.3663 I-1.4417 J-0.0520
G02 X225.3427 Y65.3442 I-0.2378 J1.4805
G02 X226.8285 Y64.3700 I0.0780 J-1.5011
G01 X226.8914 Y64.0346
G01 Y63.8453
G01 X226.6914
G00 Z5.0000


(Nr. 54: Ausschnitt 2)
G00 X206.6914 Y63.8453 Z5.0000
G00 Z0.5000
G01 Z0.0000 F60
G01 Z-2.0000
G01 X204.1266 F90
G01 X203.9395 Y63.9611
G02 X206.8285 Y64.3700 I1.4886 J-0.1069
G02 X206.6741 Y63.0118 I-1.6263 J-0.5030
G02 X205.0127 Y62.4082 I-1.2426 J0.8322
G02 X203.9395 Y63.9611 I0.3932 J1.4191
G01 X204.1266 Y63.8453
G01 Z-4.0000 F60
G01 X206.6914 F90
G01 X206.8914
G02 X205.6623 Y62.3663 I-1.4417 J-0.0520
G02 X205.3427 Y65.3442 I-0.2378 J1.4805
G02 X206.8285 Y64.3700 I0.0780 J-1.5011
G01 X206.8914 Y64.0346
G01 Y63.8453
G01 X206.6914
G01 Z-6.0000 F60
G01 X204.1266 F90
G01 X203.9395 Y63.9611
G02 X206.8285 Y64.3700 I1.4886 J-0.1069
G02 X206.6741 Y63.0118 I-1.6263 J-0.5030
G02 X205.0127 Y62.4082 I-1.2426 J0.8322
G02 X203.9395 Y63.9611 I0.3932 J1.4191
G01 X204.1266 Y63.8453
G01 Z-8.0000 F60
G01 X206.6914 F90
G01 X206.8914
G02 X205.6623 Y62.3663 I-1.4417 J-0.0520
G02 X205.3427 Y65.3442 I-0.2378 J1.4805
G02 X206.8285 Y64.3700 I0.0780 J-1.5011
G01 X206.8914 Y64.0346
G01 Y63.8453
G01 X206.6914
G01 Z-10.0000 F60
G01 X204.1266 F90
G01 X203.9395 Y63.9611
G02 X206.8285 Y64.3700 I1.4886 J-0.1069
G02 X206.6741 Y63.0118 I-1.6263 J-0.5030
G02 X205.0127 Y62.4082 I-1.2426 J0.8322
G02 X203.9395 Y63.9611 I0.3932 J1.4191
G01 X204.1266 Y63.8453
G01 Z-12.0000 F60
G01 X206.6914 F90
G01 X206.8914
G02 X205.6623 Y62.3663 I-1.4417 J-0.0520
G02 X205.3427 Y65.3442 I-0.2378 J1.4805
G02 X206.8285 Y64.3700 I0.0780 J-1.5011
G01 X206.8914 Y64.0346
G01 Y63.8453
G01 X206.6914
G00 Z5.0000


(Nr. 55: Ausschnitt 2)
G00 X206.6914 Y83.8453 Z5.0000
G00 Z0.5000
G01 Z0.0000 F60
G01 Z-2.0000
G01 X204.1266 F90
G01 X203.9395 Y83.9611
G02 X206.8285 Y84.3700 I1.4886 J-0.1069
G02 X206.6741 Y83.0118 I-1.6263 J-0.5030
G02 X205.0127 Y82.4082 I-1.2426 J0.8322
G02 X203.9395 Y83.9611 I0.3932 J1.4191
G01 X204.1266 Y83.8453
G01 Z-4.0000 F60
G01 X206.6914 F90
G01 X206.8914
G02 X205.6623 Y82.3663 I-1.4417 J-0.0520
G02 X205.3427 Y85.3442 I-0.2378 J1.4805
G02 X206.8285 Y84.3700 I0.0780 J-1.5011
G01 X206.8914 Y84.0346
G01 Y83.8453
G01 X206.6914
G01 Z-6.0000 F60
G01 X204.1266 F90
G01 X203.9395 Y83.9611
G02 X206.8285 Y84.3700 I1.4886 J-0.1069
G02 X206.6741 Y83.0118 I-1.6263 J-0.5030
G02 X205.0127 Y82.4082 I-1.2426 J0.8322
G02 X203.9395 Y83.9611 I0.3932 J1.4191
G01 X204.1266 Y83.8453
G01 Z-8.0000 F60
G01 X206.6914 F90
G01 X206.8914
G02 X205.6623 Y82.3663 I-1.4417 J-0.0520
G02 X205.3427 Y85.3442 I-0.2378 J1.4805
G02 X206.8285 Y84.3700 I0.0780 J-1.5011
G01 X206.8914 Y84.0346
G01 Y83.8453
G01 X206.6914
G01 Z-10.0000 F60
G01 X204.1266 F90
G01 X203.9395 Y83.9611
G02 X206.8285 Y84.3700 I1.4886 J-0.1069
G02 X206.6741 Y83.0118 I-1.6263 J-0.5030
G02 X205.0127 Y82.4082 I-1.2426 J0.8322
G02 X203.9395 Y83.9611 I0.3932 J1.4191
G01 X204.1266 Y83.8453
G01 Z-12.0000 F60
G01 X206.6914 F90
G01 X206.8914
G02 X205.6623 Y82.3663 I-1.4417 J-0.0520
G02 X205.3427 Y85.3442 I-0.2378 J1.4805
G02 X206.8285 Y84.3700 I0.0780 J-1.5011
G01 X206.8914 Y84.0346
G01 Y83.8453
G01 X206.6914
G00 Z5.0000


(Nr. 56: Ausschnitt 2)
G00 X186.6914 Y83.8453 Z5.0000
G00 Z0.5000
G01 Z0.0000 F60
G01 Z-2.0000
G01 X184.1266 F90
G01 X183.9395 Y83.9611
G02 X186.8285 Y84.3700 I1.4886 J-0.1069
G02 X186.6741 Y83.0118 I-1.6263 J-0.5030
G02 X185.0127 Y82.4082 I-1.2426 J0.8322
G02 X183.9395 Y83.9611 I0.3932 J1.4191
G01 X184.1266 Y83.8453
G01 Z-4.0000 F60
G01 X186.6914 F90
G01 X186.8914
G02 X185.6623 Y82.3663 I-1.4417 J-0.0520
G02 X185.3427 Y85.3442 I-0.2378 J1.4805
G02 X186.8285 Y84.3700 I0.0780 J-1.5011
G01 X186.8914 Y84.0346
G01 Y83.8453
G01 X186.6914
G01 Z-6.0000 F60
G01 X184.1266 F90
G01 X183.9395 Y83.9611
G02 X186.8285 Y84.3700 I1.4886 J-0.1069
G02 X186.6741 Y83.0118 I-1.6263 J-0.5030
G02 X185.0127 Y82.4082 I-1.2426 J0.8322
G02 X183.9395 Y83.9611 I0.3932 J1.4191
G01 X184.1266 Y83.8453
G01 Z-8.0000 F60
G01 X186.6914 F90
G01 X186.8914
G02 X185.6623 Y82.3663 I-1.4417 J-0.0520
G02 X185.3427 Y85.3442 I-0.2378 J1.4805
G02 X186.8285 Y84.3700 I0.0780 J-1.5011
G01 X186.8914 Y84.0346
G01 Y83.8453
G01 X186.6914
G01 Z-10.0000 F60
G01 X184.1266 F90
G01 X183.9395 Y83.9611
G02 X186.8285 Y84.3700 I1.4886 J-0.1069
G02 X186.6741 Y83.0118 I-1.6263 J-0.5030
G02 X185.0127 Y82.4082 I-1.2426 J0.8322
G02 X183.9395 Y83.9611 I0.3932 J1.4191
G01 X184.1266 Y83.8453
G01 Z-12.0000 F60
G01 X186.6914 F90
G01 X186.8914
G02 X185.6623 Y82.3663 I-1.4417 J-0.0520
G02 X185.3427 Y85.3442 I-0.2378 J1.4805
G02 X186.8285 Y84.3700 I0.0780 J-1.5011
G01 X186.8914 Y84.0346
G01 Y83.8453
G01 X186.6914
G00 Z5.0000


(Nr. 57: Ausschnitt 2)
G00 X186.6914 Y63.8453 Z5.0000
G00 Z0.5000
G01 Z0.0000 F60
G01 Z-2.0000
G01 X184.1266 F90
G01 X183.9395 Y63.9611
G02 X186.8285 Y64.3700 I1.4886 J-0.1069
G02 X186.6741 Y63.0118 I-1.6263 J-0.5030
G02 X185.0127 Y62.4082 I-1.2426 J0.8322
G02 X183.9395 Y63.9611 I0.3932 J1.4191
G01 X184.1266 Y63.8453
G01 Z-4.0000 F60
G01 X186.6914 F90
G01 X186.8914
G02 X185.6623 Y62.3663 I-1.4417 J-0.0520
G02 X185.3427 Y65.3442 I-0.2378 J1.4805
G02 X186.8285 Y64.3700 I0.0780 J-1.5011
G01 X186.8914 Y64.0346
G01 Y63.8453
G01 X186.6914
G01 Z-6.0000 F60
G01 X184.1266 F90
G01 X183.9395 Y63.9611
G02 X186.8285 Y64.3700 I1.4886 J-0.1069
G02 X186.6741 Y63.0118 I-1.6263 J-0.5030
G02 X185.0127 Y62.4082 I-1.2426 J0.8322
G02 X183.9395 Y63.9611 I0.3932 J1.4191
G01 X184.1266 Y63.8453
G01 Z-8.0000 F60
G01 X186.6914 F90
G01 X186.8914
G02 X185.6623 Y62.3663 I-1.4417 J-0.0520
G02 X185.3427 Y65.3442 I-0.2378 J1.4805
G02 X186.8285 Y64.3700 I0.0780 J-1.5011
G01 X186.8914 Y64.0346
G01 Y63.8453
G01 X186.6914
G01 Z-10.0000 F60
G01 X184.1266 F90
G01 X183.9395 Y63.9611
G02 X186.8285 Y64.3700 I1.4886 J-0.1069
G02 X186.6741 Y63.0118 I-1.6263 J-0.5030
G02 X185.0127 Y62.4082 I-1.2426 J0.8322
G02 X183.9395 Y63.9611 I0.3932 J1.4191
G01 X184.1266 Y63.8453
G01 Z-12.0000 F60
G01 X186.6914 F90
G01 X186.8914
G02 X185.6623 Y62.3663 I-1.4417 J-0.0520
G02 X185.3427 Y65.3442 I-0.2378 J1.4805
G02 X186.8285 Y64.3700 I0.0780 J-1.5011
G01 X186.8914 Y64.0346
G01 Y63.8453
G01 X186.6914
G00 Z5.0000


(Nr. 58: Ausschnitt 2)
G00 X166.6914 Y63.8453 Z5.0000
G00 Z0.5000
G01 Z0.0000 F60
G01 Z-2.0000
G01 X164.1266 F90
G01 X163.9395 Y63.9611
G02 X166.8285 Y64.3700 I1.4886 J-0.1069
G02 X166.6741 Y63.0118 I-1.6263 J-0.5030
G02 X165.0127 Y62.4082 I-1.2426 J0.8322
G02 X163.9395 Y63.9611 I0.3932 J1.4191
G01 X164.1266 Y63.8453
G01 Z-4.0000 F60
G01 X166.6914 F90
G01 X166.8914
G02 X165.6623 Y62.3663 I-1.4417 J-0.0520
G02 X165.3427 Y65.3442 I-0.2378 J1.4805
G02 X166.8285 Y64.3700 I0.0780 J-1.5011
G01 X166.8914 Y64.0346
G01 Y63.8453
G01 X166.6914
G01 Z-6.0000 F60
G01 X164.1266 F90
G01 X163.9395 Y63.9611
G02 X166.8285 Y64.3700 I1.4886 J-0.1069
G02 X166.6741 Y63.0118 I-1.6263 J-0.5030
G02 X165.0127 Y62.4082 I-1.2426 J0.8322
G02 X163.9395 Y63.9611 I0.3932 J1.4191
G01 X164.1266 Y63.8453
G01 Z-8.0000 F60
G01 X166.6914 F90
G01 X166.8914
G02 X165.6623 Y62.3663 I-1.4417 J-0.0520
G02 X165.3427 Y65.3442 I-0.2378 J1.4805
G02 X166.8285 Y64.3700 I0.0780 J-1.5011
G01 X166.8914 Y64.0346
G01 Y63.8453
G01 X166.6914
G01 Z-10.0000 F60
G01 X164.1266 F90
G01 X163.9395 Y63.9611
G02 X166.8285 Y64.3700 I1.4886 J-0.1069
G02 X166.6741 Y63.0118 I-1.6263 J-0.5030
G02 X165.0127 Y62.4082 I-1.2426 J0.8322
G02 X163.9395 Y63.9611 I0.3932 J1.4191
G01 X164.1266 Y63.8453
G01 Z-12.0000 F60
G01 X166.6914 F90
G01 X166.8914
G02 X165.6623 Y62.3663 I-1.4417 J-0.0520
G02 X165.3427 Y65.3442 I-0.2378 J1.4805
G02 X166.8285 Y64.3700 I0.0780 J-1.5011
G01 X166.8914 Y64.0346
G01 Y63.8453
G01 X166.6914
G00 Z5.0000


(Nr. 59: Ausschnitt 2)
G00 X166.6914 Y83.8453 Z5.0000
G00 Z0.5000
G01 Z0.0000 F60
G01 Z-2.0000
G01 X164.1266 F90
G01 X163.9395 Y83.9611
G02 X166.8285 Y84.3700 I1.4886 J-0.1069
G02 X166.6741 Y83.0118 I-1.6263 J-0.5030
G02 X165.0127 Y82.4082 I-1.2426 J0.8322
G02 X163.9395 Y83.9611 I0.3932 J1.4191
G01 X164.1266 Y83.8453
G01 Z-4.0000 F60
G01 X166.6914 F90
G01 X166.8914
G02 X165.6623 Y82.3663 I-1.4417 J-0.0520
G02 X165.3427 Y85.3442 I-0.2378 J1.4805
G02 X166.8285 Y84.3700 I0.0780 J-1.5011
G01 X166.8914 Y84.0346
G01 Y83.8453
G01 X166.6914
G01 Z-6.0000 F60
G01 X164.1266 F90
G01 X163.9395 Y83.9611
G02 X166.8285 Y84.3700 I1.4886 J-0.1069
G02 X166.6741 Y83.0118 I-1.6263 J-0.5030
G02 X165.0127 Y82.4082 I-1.2426 J0.8322
G02 X163.9395 Y83.9611 I0.3932 J1.4191
G01 X164.1266 Y83.8453
G01 Z-8.0000 F60
G01 X166.6914 F90
G01 X166.8914
G02 X165.6623 Y82.3663 I-1.4417 J-0.0520
G02 X165.3427 Y85.3442 I-0.2378 J1.4805
G02 X166.8285 Y84.3700 I0.0780 J-1.5011
G01 X166.8914 Y84.0346
G01 Y83.8453
G01 X166.6914
G01 Z-10.0000 F60
G01 X164.1266 F90
G01 X163.9395 Y83.9611
G02 X166.8285 Y84.3700 I1.4886 J-0.1069
G02 X166.6741 Y83.0118 I-1.6263 J-0.5030
G02 X165.0127 Y82.4082 I-1.2426 J0.8322
G02 X163.9395 Y83.9611 I0.3932 J1.4191
G01 X164.1266 Y83.8453
G01 Z-12.0000 F60
G01 X166.6914 F90
G01 X166.8914
G02 X165.6623 Y82.3663 I-1.4417 J-0.0520
G02 X165.3427 Y85.3442 I-0.2378 J1.4805
G02 X166.8285 Y84.3700 I0.0780 J-1.5011
G01 X166.8914 Y84.0346
G01 Y83.8453
G01 X166.6914
G00 Z5.0000


(Nr. 60: Ausschnitt 2)
G00 X146.6914 Y83.8453 Z5.0000
G00 Z0.5000
G01 Z0.0000 F60
G01 Z-2.0000
G01 X144.1266 F90
G01 X143.9395 Y83.9611
G02 X146.8285 Y84.3700 I1.4886 J-0.1069
G02 X146.6741 Y83.0118 I-1.6263 J-0.5030
G02 X145.0127 Y82.4082 I-1.2426 J0.8322
G02 X143.9395 Y83.9611 I0.3932 J1.4191
G01 X144.1266 Y83.8453
G01 Z-4.0000 F60
G01 X146.6914 F90
G01 X146.8914
G02 X145.6623 Y82.3663 I-1.4417 J-0.0520
G02 X145.3427 Y85.3442 I-0.2378 J1.4805
G02 X146.8285 Y84.3700 I0.0780 J-1.5011
G01 X146.8914 Y84.0346
G01 Y83.8453
G01 X146.6914
G01 Z-6.0000 F60
G01 X144.1266 F90
G01 X143.9395 Y83.9611
G02 X146.8285 Y84.3700 I1.4886 J-0.1069
G02 X146.6741 Y83.0118 I-1.6263 J-0.5030
G02 X145.0127 Y82.4082 I-1.2426 J0.8322
G02 X143.9395 Y83.9611 I0.3932 J1.4191
G01 X144.1266 Y83.8453
G01 Z-8.0000 F60
G01 X146.6914 F90
G01 X146.8914
G02 X145.6623 Y82.3663 I-1.4417 J-0.0520
G02 X145.3427 Y85.3442 I-0.2378 J1.4805
G02 X146.8285 Y84.3700 I0.0780 J-1.5011
G01 X146.8914 Y84.0346
G01 Y83.8453
G01 X146.6914
G01 Z-10.0000 F60
G01 X144.1266 F90
G01 X143.9395 Y83.9611
G02 X146.8285 Y84.3700 I1.4886 J-0.1069
G02 X146.6741 Y83.0118 I-1.6263 J-0.5030
G02 X145.0127 Y82.4082 I-1.2426 J0.8322
G02 X143.9395 Y83.9611 I0.3932 J1.4191
G01 X144.1266 Y83.8453
G01 Z-12.0000 F60
G01 X146.6914 F90
G01 X146.8914
G02 X145.6623 Y82.3663 I-1.4417 J-0.0520
G02 X145.3427 Y85.3442 I-0.2378 J1.4805
G02 X146.8285 Y84.3700 I0.0780 J-1.5011
G01 X146.8914 Y84.0346
G01 Y83.8453
G01 X146.6914
G00 Z5.0000


(Nr. 61: Ausschnitt 2)
G00 X146.6914 Y63.8453 Z5.0000
G00 Z0.5000
G01 Z0.0000 F60
G01 Z-2.0000
G01 X144.1266 F90
G01 X143.9395 Y63.9611
G02 X146.8285 Y64.3700 I1.4886 J-0.1069
G02 X146.6741 Y63.0118 I-1.6263 J-0.5030
G02 X145.0127 Y62.4082 I-1.2426 J0.8322
G02 X143.9395 Y63.9611 I0.3932 J1.4191
G01 X144.1266 Y63.8453
G01 Z-4.0000 F60
G01 X146.6914 F90
G01 X146.8914
G02 X145.6623 Y62.3663 I-1.4417 J-0.0520
G02 X145.3427 Y65.3442 I-0.2378 J1.4805
G02 X146.8285 Y64.3700 I0.0780 J-1.5011
G01 X146.8914 Y64.0346
G01 Y63.8453
G01 X146.6914
G01 Z-6.0000 F60
G01 X144.1266 F90
G01 X143.9395 Y63.9611
G02 X146.8285 Y64.3700 I1.4886 J-0.1069
G02 X146.6741 Y63.0118 I-1.6263 J-0.5030
G02 X145.0127 Y62.4082 I-1.2426 J0.8322
G02 X143.9395 Y63.9611 I0.3932 J1.4191
G01 X144.1266 Y63.8453
G01 Z-8.0000 F60
G01 X146.6914 F90
G01 X146.8914
G02 X145.6623 Y62.3663 I-1.4417 J-0.0520
G02 X145.3427 Y65.3442 I-0.2378 J1.4805
G02 X146.8285 Y64.3700 I0.0780 J-1.5011
G01 X146.8914 Y64.0346
G01 Y63.8453
G01 X146.6914
G01 Z-10.0000 F60
G01 X144.1266 F90
G01 X143.9395 Y63.9611
G02 X146.8285 Y64.3700 I1.4886 J-0.1069
G02 X146.6741 Y63.0118 I-1.6263 J-0.5030
G02 X145.0127 Y62.4082 I-1.2426 J0.8322
G02 X143.9395 Y63.9611 I0.3932 J1.4191
G01 X144.1266 Y63.8453
G01 Z-12.0000 F60
G01 X146.6914 F90
G01 X146.8914
G02 X145.6623 Y62.3663 I-1.4417 J-0.0520
G02 X145.3427 Y65.3442 I-0.2378 J1.4805
G02 X146.8285 Y64.3700 I0.0780 J-1.5011
G01 X146.8914 Y64.0346
G01 Y63.8453
G01 X146.6914
G00 Z5.0000


(Nr. 62: Ausschnitt 2)
G00 X126.6914 Y63.8453 Z5.0000
G00 Z0.5000
G01 Z0.0000 F60
G01 Z-2.0000
G01 X124.1266 F90
G01 X123.9395 Y63.9611
G02 X126.8285 Y64.3700 I1.4886 J-0.1069
G02 X126.6741 Y63.0118 I-1.6263 J-0.5030
G02 X125.0127 Y62.4082 I-1.2426 J0.8322
G02 X123.9395 Y63.9611 I0.3932 J1.4191
G01 X124.1266 Y63.8453
G01 Z-4.0000 F60
G01 X126.6914 F90
G01 X126.8914
G02 X125.6623 Y62.3663 I-1.4417 J-0.0520
G02 X125.3427 Y65.3442 I-0.2378 J1.4805
G02 X126.8285 Y64.3700 I0.0780 J-1.5011
G01 X126.8914 Y64.0346
G01 Y63.8453
G01 X126.6914
G01 Z-6.0000 F60
G01 X124.1266 F90
G01 X123.9395 Y63.9611
G02 X126.8285 Y64.3700 I1.4886 J-0.1069
G02 X126.6741 Y63.0118 I-1.6263 J-0.5030
G02 X125.0127 Y62.4082 I-1.2426 J0.8322
G02 X123.9395 Y63.9611 I0.3932 J1.4191
G01 X124.1266 Y63.8453
G01 Z-8.0000 F60
G01 X126.6914 F90
G01 X126.8914
G02 X125.6623 Y62.3663 I-1.4417 J-0.0520
G02 X125.3427 Y65.3442 I-0.2378 J1.4805
G02 X126.8285 Y64.3700 I0.0780 J-1.5011
G01 X126.8914 Y64.0346
G01 Y63.8453
G01 X126.6914
G01 Z-10.0000 F60
G01 X124.1266 F90
G01 X123.9395 Y63.9611
G02 X126.8285 Y64.3700 I1.4886 J-0.1069
G02 X126.6741 Y63.0118 I-1.6263 J-0.5030
G02 X125.0127 Y62.4082 I-1.2426 J0.8322
G02 X123.9395 Y63.9611 I0.3932 J1.4191
G01 X124.1266 Y63.8453
G01 Z-12.0000 F60
G01 X126.6914 F90
G01 X126.8914
G02 X125.6623 Y62.3663 I-1.4417 J-0.0520
G02 X125.3427 Y65.3442 I-0.2378 J1.4805
G02 X126.8285 Y64.3700 I0.0780 J-1.5011
G01 X126.8914 Y64.0346
G01 Y63.8453
G01 X126.6914
G00 Z5.0000


(Nr. 63: Ausschnitt 2)
G00 X126.6914 Y83.8453 Z5.0000
G00 Z0.5000
G01 Z0.0000 F60
G01 Z-2.0000
G01 X124.1266 F90
G01 X123.9395 Y83.9611
G02 X126.8285 Y84.3700 I1.4886 J-0.1069
G02 X126.6741 Y83.0118 I-1.6263 J-0.5030
G02 X125.0127 Y82.4082 I-1.2426 J0.8322
G02 X123.9395 Y83.9611 I0.3932 J1.4191
G01 X124.1266 Y83.8453
G01 Z-4.0000 F60
G01 X126.6914 F90
G01 X126.8914
G02 X125.6623 Y82.3663 I-1.4417 J-0.0520
G02 X125.3427 Y85.3442 I-0.2378 J1.4805
G02 X126.8285 Y84.3700 I0.0780 J-1.5011
G01 X126.8914 Y84.0346
G01 Y83.8453
G01 X126.6914
G01 Z-6.0000 F60
G01 X124.1266 F90
G01 X123.9395 Y83.9611
G02 X126.8285 Y84.3700 I1.4886 J-0.1069
G02 X126.6741 Y83.0118 I-1.6263 J-0.5030
G02 X125.0127 Y82.4082 I-1.2426 J0.8322
G02 X123.9395 Y83.9611 I0.3932 J1.4191
G01 X124.1266 Y83.8453
G01 Z-8.0000 F60
G01 X126.6914 F90
G01 X126.8914
G02 X125.6623 Y82.3663 I-1.4417 J-0.0520
G02 X125.3427 Y85.3442 I-0.2378 J1.4805
G02 X126.8285 Y84.3700 I0.0780 J-1.5011
G01 X126.8914 Y84.0346
G01 Y83.8453
G01 X126.6914
G01 Z-10.0000 F60
G01 X124.1266 F90
G01 X123.9395 Y83.9611
G02 X126.8285 Y84.3700 I1.4886 J-0.1069
G02 X126.6741 Y83.0118 I-1.6263 J-0.5030
G02 X125.0127 Y82.4082 I-1.2426 J0.8322
G02 X123.9395 Y83.9611 I0.3932 J1.4191
G01 X124.1266 Y83.8453
G01 Z-12.0000 F60
G01 X126.6914 F90
G01 X126.8914
G02 X125.6623 Y82.3663 I-1.4417 J-0.0520
G02 X125.3427 Y85.3442 I-0.2378 J1.4805
G02 X126.8285 Y84.3700 I0.0780 J-1.5011
G01 X126.8914 Y84.0346
G01 Y83.8453
G01 X126.6914
G00 Z5.0000


(Nr. 64: Ausschnitt 2)
G00 X106.6914 Y83.8453 Z5.0000
G00 Z0.5000
G01 Z0.0000 F60
G01 Z-2.0000
G01 X104.1266 F90
G01 X103.9395 Y83.9611
G02 X106.8285 Y84.3700 I1.4886 J-0.1069
G02 X106.6741 Y83.0118 I-1.6263 J-0.5030
G02 X105.0127 Y82.4082 I-1.2426 J0.8322
G02 X103.9395 Y83.9611 I0.3932 J1.4191
G01 X104.1266 Y83.8453
G01 Z-4.0000 F60
G01 X106.6914 F90
G01 X106.8914
G02 X105.6623 Y82.3663 I-1.4417 J-0.0520
G02 X105.3427 Y85.3442 I-0.2378 J1.4805
G02 X106.8285 Y84.3700 I0.0780 J-1.5011
G01 X106.8914 Y84.0346
G01 Y83.8453
G01 X106.6914
G01 Z-6.0000 F60
G01 X104.1266 F90
G01 X103.9395 Y83.9611
G02 X106.8285 Y84.3700 I1.4886 J-0.1069
G02 X106.6741 Y83.0118 I-1.6263 J-0.5030
G02 X105.0127 Y82.4082 I-1.2426 J0.8322
G02 X103.9395 Y83.9611 I0.3932 J1.4191
G01 X104.1266 Y83.8453
G01 Z-8.0000 F60
G01 X106.6914 F90
G01 X106.8914
G02 X105.6623 Y82.3663 I-1.4417 J-0.0520
G02 X105.3427 Y85.3442 I-0.2378 J1.4805
G02 X106.8285 Y84.3700 I0.0780 J-1.5011
G01 X106.8914 Y84.0346
G01 Y83.8453
G01 X106.6914
G01 Z-10.0000 F60
G01 X104.1266 F90
G01 X103.9395 Y83.9611
G02 X106.8285 Y84.3700 I1.4886 J-0.1069
G02 X106.6741 Y83.0118 I-1.6263 J-0.5030
G02 X105.0127 Y82.4082 I-1.2426 J0.8322
G02 X103.9395 Y83.9611 I0.3932 J1.4191
G01 X104.1266 Y83.8453
G01 Z-12.0000 F60
G01 X106.6914 F90
G01 X106.8914
G02 X105.6623 Y82.3663 I-1.4417 J-0.0520
G02 X105.3427 Y85.3442 I-0.2378 J1.4805
G02 X106.8285 Y84.3700 I0.0780 J-1.5011
G01 X106.8914 Y84.0346
G01 Y83.8453
G01 X106.6914
G00 Z5.0000


(Nr. 65: Ausschnitt 2)
G00 X106.6914 Y63.8453 Z5.0000
G00 Z0.5000
G01 Z0.0000 F60
G01 Z-2.0000
G01 X104.1266 F90
G01 X103.9395 Y63.9611
G02 X106.8285 Y64.3700 I1.4886 J-0.1069
G02 X106.6741 Y63.0118 I-1.6263 J-0.5030
G02 X105.0127 Y62.4082 I-1.2426 J0.8322
G02 X103.9395 Y63.9611 I0.3932 J1.4191
G01 X104.1266 Y63.8453
G01 Z-4.0000 F60
G01 X106.6914 F90
G01 X106.8914
G02 X105.6623 Y62.3663 I-1.4417 J-0.0520
G02 X105.3427 Y65.3442 I-0.2378 J1.4805
G02 X106.8285 Y64.3700 I0.0780 J-1.5011
G01 X106.8914 Y64.0346
G01 Y63.8453
G01 X106.6914
G01 Z-6.0000 F60
G01 X104.1266 F90
G01 X103.9395 Y63.9611
G02 X106.8285 Y64.3700 I1.4886 J-0.1069
G02 X106.6741 Y63.0118 I-1.6263 J-0.5030
G02 X105.0127 Y62.4082 I-1.2426 J0.8322
G02 X103.9395 Y63.9611 I0.3932 J1.4191
G01 X104.1266 Y63.8453
G01 Z-8.0000 F60
G01 X106.6914 F90
G01 X106.8914
G02 X105.6623 Y62.3663 I-1.4417 J-0.0520
G02 X105.3427 Y65.3442 I-0.2378 J1.4805
G02 X106.8285 Y64.3700 I0.0780 J-1.5011
G01 X106.8914 Y64.0346
G01 Y63.8453
G01 X106.6914
G01 Z-10.0000 F60
G01 X104.1266 F90
G01 X103.9395 Y63.9611
G02 X106.8285 Y64.3700 I1.4886 J-0.1069
G02 X106.6741 Y63.0118 I-1.6263 J-0.5030
G02 X105.0127 Y62.4082 I-1.2426 J0.8322
G02 X103.9395 Y63.9611 I0.3932 J1.4191
G01 X104.1266 Y63.8453
G01 Z-12.0000 F60
G01 X106.6914 F90
G01 X106.8914
G02 X105.6623 Y62.3663 I-1.4417 J-0.0520
G02 X105.3427 Y65.3442 I-0.2378 J1.4805
G02 X106.8285 Y64.3700 I0.0780 J-1.5011
G01 X106.8914 Y64.0346
G01 Y63.8453
G01 X106.6914
G00 Z5.0000


(Nr. 66: Ausschnitt 2)
G00 X86.6914 Y63.8453 Z5.0000
G00 Z0.5000
G01 Z0.0000 F60
G01 Z-2.0000
G01 X84.1266 F90
G01 X83.9395 Y63.9611
G02 X86.8285 Y64.3700 I1.4886 J-0.1069
G02 X86.6741 Y63.0118 I-1.6263 J-0.5030
G02 X85.0127 Y62.4082 I-1.2426 J0.8322
G02 X83.9395 Y63.9611 I0.3932 J1.4191
G01 X84.1266 Y63.8453
G01 Z-4.0000 F60
G01 X86.6914 F90
G01 X86.8914
G02 X85.6623 Y62.3663 I-1.4417 J-0.0520
G02 X85.3427 Y65.3442 I-0.2378 J1.4805
G02 X86.8285 Y64.3700 I0.0780 J-1.5011
G01 X86.8914 Y64.0346
G01 Y63.8453
G01 X86.6914
G01 Z-6.0000 F60
G01 X84.1266 F90
G01 X83.9395 Y63.9611
G02 X86.8285 Y64.3700 I1.4886 J-0.1069
G02 X86.6741 Y63.0118 I-1.6263 J-0.5030
G02 X85.0127 Y62.4082 I-1.2426 J0.8322
G02 X83.9395 Y63.9611 I0.3932 J1.4191
G01 X84.1266 Y63.8453
G01 Z-8.0000 F60
G01 X86.6914 F90
G01 X86.8914
G02 X85.6623 Y62.3663 I-1.4417 J-0.0520
G02 X85.3427 Y65.3442 I-0.2378 J1.4805
G02 X86.8285 Y64.3700 I0.0780 J-1.5011
G01 X86.8914 Y64.0346
G01 Y63.8453
G01 X86.6914
G01 Z-10.0000 F60
G01 X84.1266 F90
G01 X83.9395 Y63.9611
G02 X86.8285 Y64.3700 I1.4886 J-0.1069
G02 X86.6741 Y63.0118 I-1.6263 J-0.5030
G02 X85.0127 Y62.4082 I-1.2426 J0.8322
G02 X83.9395 Y63.9611 I0.3932 J1.4191
G01 X84.1266 Y63.8453
G01 Z-12.0000 F60
G01 X86.6914 F90
G01 X86.8914
G02 X85.6623 Y62.3663 I-1.4417 J-0.0520
G02 X85.3427 Y65.3442 I-0.2378 J1.4805
G02 X86.8285 Y64.3700 I0.0780 J-1.5011
G01 X86.8914 Y64.0346
G01 Y63.8453
G01 X86.6914
G00 Z5.0000


(Nr. 67: Ausschnitt 2)
G00 X86.6914 Y83.8453 Z5.0000
G00 Z0.5000
G01 Z0.0000 F60
G01 Z-2.0000
G01 X84.1266 F90
G01 X83.9395 Y83.9611
G02 X86.8285 Y84.3700 I1.4886 J-0.1069
G02 X86.6741 Y83.0118 I-1.6263 J-0.5030
G02 X85.0127 Y82.4082 I-1.2426 J0.8322
G02 X83.9395 Y83.9611 I0.3932 J1.4191
G01 X84.1266 Y83.8453
G01 Z-4.0000 F60
G01 X86.6914 F90
G01 X86.8914
G02 X85.6623 Y82.3663 I-1.4417 J-0.0520
G02 X85.3427 Y85.3442 I-0.2378 J1.4805
G02 X86.8285 Y84.3700 I0.0780 J-1.5011
G01 X86.8914 Y84.0346
G01 Y83.8453
G01 X86.6914
G01 Z-6.0000 F60
G01 X84.1266 F90
G01 X83.9395 Y83.9611
G02 X86.8285 Y84.3700 I1.4886 J-0.1069
G02 X86.6741 Y83.0118 I-1.6263 J-0.5030
G02 X85.0127 Y82.4082 I-1.2426 J0.8322
G02 X83.9395 Y83.9611 I0.3932 J1.4191
G01 X84.1266 Y83.8453
G01 Z-8.0000 F60
G01 X86.6914 F90
G01 X86.8914
G02 X85.6623 Y82.3663 I-1.4417 J-0.0520
G02 X85.3427 Y85.3442 I-0.2378 J1.4805
G02 X86.8285 Y84.3700 I0.0780 J-1.5011
G01 X86.8914 Y84.0346
G01 Y83.8453
G01 X86.6914
G01 Z-10.0000 F60
G01 X84.1266 F90
G01 X83.9395 Y83.9611
G02 X86.8285 Y84.3700 I1.4886 J-0.1069
G02 X86.6741 Y83.0118 I-1.6263 J-0.5030
G02 X85.0127 Y82.4082 I-1.2426 J0.8322
G02 X83.9395 Y83.9611 I0.3932 J1.4191
G01 X84.1266 Y83.8453
G01 Z-12.0000 F60
G01 X86.6914 F90
G01 X86.8914
G02 X85.6623 Y82.3663 I-1.4417 J-0.0520
G02 X85.3427 Y85.3442 I-0.2378 J1.4805
G02 X86.8285 Y84.3700 I0.0780 J-1.5011
G01 X86.8914 Y84.0346
G01 Y83.8453
G01 X86.6914
G00 Z5.0000


(Nr. 68: Ausschnitt 2)
G00 X66.6914 Y83.8453 Z5.0000
G00 Z0.5000
G01 Z0.0000 F60
G01 Z-2.0000
G01 X64.1266 F90
G01 X63.9395 Y83.9611
G02 X66.8285 Y84.3700 I1.4886 J-0.1069
G02 X66.6741 Y83.0118 I-1.6263 J-0.5030
G02 X65.0127 Y82.4082 I-1.2426 J0.8322
G02 X63.9395 Y83.9611 I0.3932 J1.4191
G01 X64.1266 Y83.8453
G01 Z-4.0000 F60
G01 X66.6914 F90
G01 X66.8914
G02 X65.6623 Y82.3663 I-1.4417 J-0.0520
G02 X65.3427 Y85.3442 I-0.2378 J1.4805
G02 X66.8285 Y84.3700 I0.0780 J-1.5011
G01 X66.8914 Y84.0346
G01 Y83.8453
G01 X66.6914
G01 Z-6.0000 F60
G01 X64.1266 F90
G01 X63.9395 Y83.9611
G02 X66.8285 Y84.3700 I1.4886 J-0.1069
G02 X66.6741 Y83.0118 I-1.6263 J-0.5030
G02 X65.0127 Y82.4082 I-1.2426 J0.8322
G02 X63.9395 Y83.9611 I0.3932 J1.4191
G01 X64.1266 Y83.8453
G01 Z-8.0000 F60
G01 X66.6914 F90
G01 X66.8914
G02 X65.6623 Y82.3663 I-1.4417 J-0.0520
G02 X65.3427 Y85.3442 I-0.2378 J1.4805
G02 X66.8285 Y84.3700 I0.0780 J-1.5011
G01 X66.8914 Y84.0346
G01 Y83.8453
G01 X66.6914
G01 Z-10.0000 F60
G01 X64.1266 F90
G01 X63.9395 Y83.9611
G02 X66.8285 Y84.3700 I1.4886 J-0.1069
G02 X66.6741 Y83.0118 I-1.6263 J-0.5030
G02 X65.0127 Y82.4082 I-1.2426 J0.8322
G02 X63.9395 Y83.9611 I0.3932 J1.4191
G01 X64.1266 Y83.8453
G01 Z-12.0000 F60
G01 X66.6914 F90
G01 X66.8914
G02 X65.6623 Y82.3663 I-1.4417 J-0.0520
G02 X65.3427 Y85.3442 I-0.2378 J1.4805
G02 X66.8285 Y84.3700 I0.0780 J-1.5011
G01 X66.8914 Y84.0346
G01 Y83.8453
G01 X66.6914
G00 Z5.0000


(Nr. 69: Ausschnitt 2)
G00 X66.6914 Y63.8453 Z5.0000
G00 Z0.5000
G01 Z0.0000 F60
G01 Z-2.0000
G01 X64.1266 F90
G01 X63.9395 Y63.9611
G02 X66.8285 Y64.3700 I1.4886 J-0.1069
G02 X66.6741 Y63.0118 I-1.6263 J-0.5030
G02 X65.0127 Y62.4082 I-1.2426 J0.8322
G02 X63.9395 Y63.9611 I0.3932 J1.4191
G01 X64.1266 Y63.8453
G01 Z-4.0000 F60
G01 X66.6914 F90
G01 X66.8914
G02 X65.6623 Y62.3663 I-1.4417 J-0.0520
G02 X65.3427 Y65.3442 I-0.2378 J1.4805
G02 X66.8285 Y64.3700 I0.0780 J-1.5011
G01 X66.8914 Y64.0346
G01 Y63.8453
G01 X66.6914
G01 Z-6.0000 F60
G01 X64.1266 F90
G01 X63.9395 Y63.9611
G02 X66.8285 Y64.3700 I1.4886 J-0.1069
G02 X66.6741 Y63.0118 I-1.6263 J-0.5030
G02 X65.0127 Y62.4082 I-1.2426 J0.8322
G02 X63.9395 Y63.9611 I0.3932 J1.4191
G01 X64.1266 Y63.8453
G01 Z-8.0000 F60
G01 X66.6914 F90
G01 X66.8914
