; generated by Slic3r 1.2.9 on 2020-05-21 at 09:39:20

; external perimeters extrusion width = 0.35mm
; perimeters extrusion width = 0.44mm
; infill extrusion width = 0.44mm
; solid infill extrusion width = 0.44mm
; top infill extrusion width = 0.44mm

M107
M190 S90 ; set bed temperature
M104 S240 ; set temperature
G28 ; home all axes
G1 Z5 F5000 ; lift nozzle
M109 S240 ; wait for temperature to be reached
G21 ; set units to millimeters
G90 ; use absolute coordinates
M82 ; use absolute distances for extrusion
G92 E0
G1 E-1.00000 F1800.00000
G92 E0
G1 Z0.300 F7800.000
G1 X57.417 Y72.088 F7800.000
G1 E1.00000 F1800.00000
G1 X58.353 Y71.699 E1.04296 F1080.000
G1 X101.503 Y71.699 E2.87198
G1 X102.435 Y72.084 E2.91472
G1 X102.824 Y72.998 E2.95680
G1 X102.967 Y81.558 E3.31969
G1 X102.968 Y86.980 E3.54952
G1 X102.583 Y87.912 E3.59226
G1 X101.647 Y88.301 E3.63521
G1 X58.497 Y88.301 E5.46424
G1 X57.565 Y87.916 E5.50697
G1 X57.176 Y87.002 E5.54906
G1 X57.033 Y78.442 E5.91195
G1 X57.032 Y73.020 E6.14178
G1 X57.397 Y72.137 E6.18229
G1 E5.18229 F1800.00000
G92 E0
G1 X100.704 Y77.621 F7800.000
G1 E1.00000 F1800.00000
G1 X59.152 Y77.621 E2.76130 F900.000
G1 X59.152 Y73.819 E2.92247
G1 X100.704 Y73.819 E4.68377
G1 X100.704 Y77.569 E4.84271
G1 X101.025 Y77.942 F7800.000
G1 X58.831 Y77.942 E6.63120 F900.000
G1 X58.831 Y73.498 E6.81955
G1 X101.025 Y73.498 E8.60804
G1 X101.025 Y77.889 E8.79417
G1 X101.328 Y78.245 F7800.000
G1 X58.528 Y78.245 E10.40989 F540.000
G1 X58.528 Y73.195 E10.60053
G1 X101.328 Y73.195 E12.21624
G1 X101.328 Y78.193 E12.40490
G1 X101.025 Y78.070 F7800.000
G1 X100.520 Y74.179 F7800.000
G1 X100.344 Y74.003 E12.41552 F360.000
G1 X99.887 Y74.003 E12.43498
G1 X100.520 Y74.636 E12.47312
G1 X100.520 Y75.092 E12.49258
G1 X99.431 Y74.003 E12.55825
G1 X98.975 Y74.003 E12.57771
G1 X100.520 Y75.548 E12.67090
G1 X100.520 Y76.005 E12.69036
G1 X98.518 Y74.003 E12.81107
G1 X98.062 Y74.003 E12.83053
G1 X100.520 Y76.461 E12.97877
G1 X100.520 Y76.917 E12.99823
G1 X97.606 Y74.003 E13.17399
G1 X97.149 Y74.003 E13.19345
G1 X100.520 Y77.374 E13.39673
G1 X100.126 Y77.437 E13.41373
G1 X96.693 Y74.003 E13.62079
G1 X96.237 Y74.003 E13.64025
G1 X99.670 Y77.437 E13.84732
G1 X99.213 Y77.437 E13.86678
G1 X95.780 Y74.003 E14.07385
G1 X95.324 Y74.003 E14.09331
G1 X98.757 Y77.437 E14.30038
G1 X98.301 Y77.437 E14.31984
G1 X94.868 Y74.003 E14.52691
G1 X94.411 Y74.003 E14.54637
G1 X97.844 Y77.437 E14.75344
G1 X97.388 Y77.437 E14.77290
G1 X93.955 Y74.003 E14.97997
G1 X93.499 Y74.003 E14.99943
G1 X96.932 Y77.437 E15.20649
G1 X96.475 Y77.437 E15.22596
G1 X93.042 Y74.003 E15.43302
G1 X92.586 Y74.003 E15.45248
G1 X96.019 Y77.437 E15.65955
G1 X95.563 Y77.437 E15.67901
G1 X92.130 Y74.003 E15.88608
G1 X91.673 Y74.003 E15.90554
G1 X95.106 Y77.437 E16.11261
G1 X94.650 Y77.437 E16.13207
G1 X91.217 Y74.003 E16.33914
G1 X90.761 Y74.003 E16.35860
G1 X94.194 Y77.437 E16.56567
G1 X93.737 Y77.437 E16.58513
G1 X90.304 Y74.003 E16.79220
G1 X89.848 Y74.003 E16.81166
G1 X93.281 Y77.437 E17.01872
G1 X92.825 Y77.437 E17.03819
G1 X89.392 Y74.003 E17.24525
G1 X88.935 Y74.003 E17.26472
G1 X92.368 Y77.437 E17.47178
G1 X91.912 Y77.437 E17.49124
G1 X88.479 Y74.003 E17.69831
G1 X88.023 Y74.003 E17.71777
G1 X91.456 Y77.437 E17.92484
G1 X90.999 Y77.437 E17.94430
G1 X87.566 Y74.003 E18.15137
G1 X87.110 Y74.003 E18.17083
G1 X90.543 Y77.437 E18.37790
G1 X90.087 Y77.437 E18.39736
G1 X86.654 Y74.003 E18.60443
G1 X86.197 Y74.003 E18.62389
G1 X89.630 Y77.437 E18.83095
G1 X89.174 Y77.437 E18.85042
G1 X85.741 Y74.003 E19.05748
G1 X85.285 Y74.003 E19.07695
G1 X88.718 Y77.437 E19.28401
G1 X88.261 Y77.437 E19.30347
G1 X84.828 Y74.003 E19.51054
G1 X84.372 Y74.003 E19.53000
G1 X87.805 Y77.437 E19.73707
G1 X87.349 Y77.437 E19.75653
G1 X83.916 Y74.003 E19.96360
G1 X83.459 Y74.003 E19.98306
G1 X86.892 Y77.437 E20.19013
G1 X86.436 Y77.437 E20.20959
G1 X83.003 Y74.003 E20.41666
G1 X82.547 Y74.003 E20.43612
G1 X85.980 Y77.437 E20.64318
G1 X85.523 Y77.437 E20.66265
G1 X82.090 Y74.003 E20.86971
G1 X81.634 Y74.003 E20.88918
G1 X85.067 Y77.437 E21.09624
G1 X84.611 Y77.437 E21.11570
G1 X81.178 Y74.003 E21.32277
G1 X80.721 Y74.003 E21.34223
G1 X84.154 Y77.437 E21.54930
G1 X83.698 Y77.437 E21.56876
G1 X80.265 Y74.003 E21.77583
G1 X79.809 Y74.003 E21.79529
G1 X83.242 Y77.437 E22.00236
G1 X82.785 Y77.437 E22.02182
G1 X79.352 Y74.003 E22.22889
G1 X78.896 Y74.003 E22.24835
G1 X82.329 Y77.437 E22.45542
G1 X81.873 Y77.437 E22.47488
G1 X78.440 Y74.003 E22.68194
G1 X77.983 Y74.003 E22.70141
G1 X81.416 Y77.437 E22.90847
G1 X80.960 Y77.437 E22.92793
G1 X77.527 Y74.003 E23.13500
G1 X77.071 Y74.003 E23.15446
G1 X80.504 Y77.437 E23.36153
G1 X80.047 Y77.437 E23.38099
G1 X76.614 Y74.003 E23.58806
G1 X76.158 Y74.003 E23.60752
G1 X79.591 Y77.437 E23.81459
G1 X79.135 Y77.437 E23.83405
G1 X75.702 Y74.003 E24.04112
G1 X75.245 Y74.003 E24.06058
G1 X78.678 Y77.437 E24.26765
G1 X78.222 Y77.437 E24.28711
G1 X74.789 Y74.003 E24.49417
G1 X74.333 Y74.003 E24.51364
G1 X77.766 Y77.437 E24.72070
G1 X77.309 Y77.437 E24.74017
G1 X73.876 Y74.003 E24.94723
G1 X73.420 Y74.003 E24.96669
G1 X76.853 Y77.437 E25.17376
G1 X76.397 Y77.437 E25.19322
G1 X72.964 Y74.003 E25.40029
G1 X72.507 Y74.003 E25.41975
G1 X75.940 Y77.437 E25.62682
G1 X75.484 Y77.437 E25.64628
G1 X72.051 Y74.003 E25.85335
G1 X71.595 Y74.003 E25.87281
G1 X75.028 Y77.437 E26.07988
G1 X74.571 Y77.437 E26.09934
G1 X71.138 Y74.003 E26.30641
G1 X70.682 Y74.003 E26.32587
G1 X74.115 Y77.437 E26.53293
G1 X73.659 Y77.437 E26.55240
G1 X70.226 Y74.003 E26.75946
G1 X69.769 Y74.003 E26.77892
G1 X73.202 Y77.437 E26.98599
G1 X72.746 Y77.437 E27.00545
G1 X69.313 Y74.003 E27.21252
G1 X68.857 Y74.003 E27.23198
G1 X72.290 Y77.437 E27.43905
G1 X71.833 Y77.437 E27.45851
G1 X68.400 Y74.003 E27.66558
G1 X67.944 Y74.003 E27.68504
G1 X71.377 Y77.437 E27.89211
G1 X70.921 Y77.437 E27.91157
G1 X67.488 Y74.003 E28.11864
G1 X67.031 Y74.003 E28.13810
G1 X70.464 Y77.437 E28.34516
G1 X70.008 Y77.437 E28.36463
G1 X66.575 Y74.003 E28.57169
G1 X66.119 Y74.003 E28.59116
G1 X69.552 Y77.437 E28.79822
G1 X69.095 Y77.437 E28.81768
G1 X65.662 Y74.003 E29.02475
G1 X65.206 Y74.003 E29.04421
G1 X68.639 Y77.437 E29.25128
G1 X68.183 Y77.437 E29.27074
G1 X64.750 Y74.003 E29.47781
G1 X64.293 Y74.003 E29.49727
G1 X67.726 Y77.437 E29.70434
G1 X67.270 Y77.437 E29.72380
G1 X63.837 Y74.003 E29.93087
G1 X63.381 Y74.003 E29.95033
G1 X66.814 Y77.437 E30.15739
G1 X66.357 Y77.437 E30.17686
G1 X62.924 Y74.003 E30.38392
G1 X62.468 Y74.003 E30.40339
G1 X65.901 Y77.437 E30.61045
G1 X65.445 Y77.437 E30.62991
G1 X62.012 Y74.003 E30.83698
G1 X61.555 Y74.003 E30.85644
G1 X64.988 Y77.437 E31.06351
G1 X64.532 Y77.437 E31.08297
G1 X61.099 Y74.003 E31.29004
G1 X60.643 Y74.003 E31.30950
G1 X64.076 Y77.437 E31.51657
G1 X63.619 Y77.437 E31.53603
G1 X60.186 Y74.003 E31.74310
G1 X59.730 Y74.003 E31.76256
G1 X63.163 Y77.437 E31.96963
G1 X62.707 Y77.437 E31.98909
G1 X59.336 Y74.066 E32.19237
G1 X59.336 Y74.523 E32.21183
G1 X62.250 Y77.437 E32.38758
G1 X61.794 Y77.437 E32.40704
G1 X59.336 Y74.979 E32.55528
G1 X59.336 Y75.435 E32.57474
G1 X61.338 Y77.437 E32.69545
G1 X60.881 Y77.437 E32.71491
G1 X59.336 Y75.892 E32.80810
G1 X59.336 Y76.348 E32.82756
G1 X60.425 Y77.437 E32.89322
G1 X59.969 Y77.437 E32.91268
G1 X59.336 Y76.804 E32.95082
G1 X59.336 Y77.261 E32.97028
G1 X59.512 Y77.437 E32.98090
G1 E31.98090 F1800.00000
G92 E0
G1 Z0.300 F7800.000
G1 X59.296 Y82.379 F7800.000
G1 E1.00000 F1800.00000
G1 X100.848 Y82.379 E2.76130 F900.000
G1 X100.848 Y86.181 E2.92247
G1 X59.296 Y86.181 E4.68377
G1 X59.296 Y82.431 E4.84271
G1 X58.975 Y82.058 F7800.000
G1 X101.169 Y82.058 E6.63120 F900.000
G1 X101.169 Y86.502 E6.81955
G1 X58.975 Y86.502 E8.60804
G1 X58.975 Y82.111 E8.79417
G1 X58.672 Y81.755 F7800.000
G1 X101.472 Y81.755 E10.40989 F540.000
G1 X101.472 Y86.805 E10.60053
G1 X58.672 Y86.805 E12.21624
G1 X58.672 Y81.807 E12.40490
G1 X58.975 Y81.930 F7800.000
G1 X59.656 Y85.997 F7800.000
G1 X59.480 Y85.821 E12.41552 F360.000
G1 X59.480 Y85.364 E12.43498
G1 X60.113 Y85.997 E12.47312
G1 X60.569 Y85.997 E12.49258
G1 X59.480 Y84.908 E12.55824
G1 X59.480 Y84.452 E12.57771
G1 X61.025 Y85.997 E12.67089
G1 X61.482 Y85.997 E12.69035
G1 X59.480 Y83.995 E12.81106
G1 X59.480 Y83.539 E12.83052
G1 X61.938 Y85.997 E12.97876
G1 X62.394 Y85.997 E12.99822
G1 X59.480 Y83.083 E13.17397
G1 X59.480 Y82.626 E13.19344
G1 X62.851 Y85.997 E13.39671
G1 X63.307 Y85.997 E13.41618
G1 X59.874 Y82.563 E13.62324
G1 X60.330 Y82.563 E13.64270
G1 X63.763 Y85.997 E13.84977
G1 X64.220 Y85.997 E13.86923
G1 X60.787 Y82.563 E14.07630
G1 X61.243 Y82.563 E14.09576
G1 X64.676 Y85.997 E14.30283
G1 X65.132 Y85.997 E14.32229
G1 X61.699 Y82.563 E14.52936
G1 X62.156 Y82.563 E14.54882
G1 X65.589 Y85.997 E14.75589
G1 X66.045 Y85.997 E14.77535
G1 X62.612 Y82.563 E14.98242
G1 X63.068 Y82.563 E15.00188
G1 X66.501 Y85.997 E15.20894
G1 X66.958 Y85.997 E15.22841
G1 X63.525 Y82.563 E15.43547
G1 X63.981 Y82.563 E15.45493
G1 X67.414 Y85.997 E15.66200
G1 X67.870 Y85.997 E15.68146
G1 X64.437 Y82.563 E15.88853
G1 X64.894 Y82.563 E15.90799
G1 X68.327 Y85.997 E16.11506
G1 X68.783 Y85.997 E16.13452
G1 X65.350 Y82.563 E16.34159
G1 X65.806 Y82.563 E16.36105
G1 X69.239 Y85.997 E16.56812
G1 X69.696 Y85.997 E16.58758
G1 X66.263 Y82.563 E16.79465
G1 X66.719 Y82.563 E16.81411
G1 X70.152 Y85.997 E17.02117
G1 X70.608 Y85.997 E17.04064
G1 X67.175 Y82.563 E17.24770
G1 X67.632 Y82.563 E17.26717
G1 X71.065 Y85.997 E17.47423
G1 X71.521 Y85.997 E17.49369
G1 X68.088 Y82.563 E17.70076
G1 X68.544 Y82.563 E17.72022
G1 X71.977 Y85.997 E17.92729
G1 X72.434 Y85.997 E17.94675
G1 X69.001 Y82.563 E18.15382
G1 X69.457 Y82.563 E18.17328
G1 X72.890 Y85.997 E18.38035
G1 X73.346 Y85.997 E18.39981
G1 X69.913 Y82.563 E18.60688
G1 X70.370 Y82.563 E18.62634
G1 X73.803 Y85.997 E18.83341
G1 X74.259 Y85.997 E18.85287
G1 X70.826 Y82.563 E19.05993
G1 X71.282 Y82.563 E19.07940
G1 X74.715 Y85.997 E19.28646
G1 X75.172 Y85.997 E19.30592
G1 X71.739 Y82.563 E19.51299
G1 X72.195 Y82.563 E19.53245
G1 X75.628 Y85.997 E19.73952
G1 X76.084 Y85.997 E19.75898
G1 X72.651 Y82.563 E19.96605
G1 X73.108 Y82.563 E19.98551
G1 X76.541 Y85.997 E20.19258
G1 X76.997 Y85.997 E20.21204
G1 X73.564 Y82.563 E20.41911
G1 X74.020 Y82.563 E20.43857
G1 X77.453 Y85.997 E20.64564
G1 X77.910 Y85.997 E20.66510
G1 X74.477 Y82.563 E20.87216
G1 X74.933 Y82.563 E20.89163
G1 X78.366 Y85.997 E21.09869
G1 X78.822 Y85.997 E21.11815
G1 X75.389 Y82.563 E21.32522
G1 X75.846 Y82.563 E21.34468
G1 X79.279 Y85.997 E21.55175
G1 X79.735 Y85.997 E21.57121
G1 X76.302 Y82.563 E21.77828
G1 X76.758 Y82.563 E21.79774
G1 X80.191 Y85.997 E22.00481
G1 X80.648 Y85.997 E22.02427
G1 X77.215 Y82.563 E22.23134
G1 X77.671 Y82.563 E22.25080
G1 X81.104 Y85.997 E22.45787
G1 X81.560 Y85.997 E22.47733
G1 X78.127 Y82.563 E22.68440
G1 X78.584 Y82.563 E22.70386
G1 X82.017 Y85.997 E22.91092
G1 X82.473 Y85.997 E22.93039
G1 X79.040 Y82.563 E23.13745
G1 X79.496 Y82.563 E23.15691
G1 X82.929 Y85.997 E23.36398
G1 X83.386 Y85.997 E23.38344
G1 X79.953 Y82.563 E23.59051
G1 X80.409 Y82.563 E23.60997
G1 X83.842 Y85.997 E23.81704
G1 X84.298 Y85.997 E23.83650
G1 X80.865 Y82.563 E24.04357
G1 X81.322 Y82.563 E24.06303
G1 X84.755 Y85.997 E24.27010
G1 X85.211 Y85.997 E24.28956
G1 X81.778 Y82.563 E24.49663
G1 X82.234 Y82.563 E24.51609
G1 X85.667 Y85.997 E24.72315
G1 X86.124 Y85.997 E24.74262
G1 X82.691 Y82.563 E24.94968
G1 X83.147 Y82.563 E24.96914
G1 X86.580 Y85.997 E25.17621
G1 X87.036 Y85.997 E25.19567
G1 X83.603 Y82.563 E25.40274
G1 X84.060 Y82.563 E25.42220
G1 X87.493 Y85.997 E25.62927
G1 X87.949 Y85.997 E25.64873
G1 X84.516 Y82.563 E25.85580
G1 X84.972 Y82.563 E25.87526
G1 X88.405 Y85.997 E26.08233
G1 X88.862 Y85.997 E26.10179
G1 X85.429 Y82.563 E26.30886
G1 X85.885 Y82.563 E26.32832
G1 X89.318 Y85.997 E26.53538
G1 X89.774 Y85.997 E26.55485
G1 X86.341 Y82.563 E26.76191
G1 X86.798 Y82.563 E26.78138
G1 X90.231 Y85.997 E26.98844
G1 X90.687 Y85.997 E27.00790
G1 X87.254 Y82.563 E27.21497
G1 X87.710 Y82.563 E27.23443
G1 X91.143 Y85.997 E27.44150
G1 X91.600 Y85.997 E27.46096
G1 X88.167 Y82.563 E27.66803
G1 X88.623 Y82.563 E27.68749
G1 X92.056 Y85.997 E27.89456
G1 X92.512 Y85.997 E27.91402
G1 X89.079 Y82.563 E28.12109
G1 X89.536 Y82.563 E28.14055
G1 X92.969 Y85.997 E28.34761
G1 X93.425 Y85.997 E28.36708
G1 X89.992 Y82.563 E28.57414
G1 X90.448 Y82.563 E28.59361
G1 X93.881 Y85.997 E28.80067
G1 X94.338 Y85.997 E28.82013
G1 X90.905 Y82.563 E29.02720
G1 X91.361 Y82.563 E29.04666
G1 X94.794 Y85.997 E29.25373
G1 X95.250 Y85.997 E29.27319
G1 X91.817 Y82.563 E29.48026
G1 X92.274 Y82.563 E29.49972
G1 X95.707 Y85.997 E29.70679
G1 X96.163 Y85.997 E29.72625
G1 X92.730 Y82.563 E29.93332
G1 X93.186 Y82.563 E29.95278
G1 X96.619 Y85.997 E30.15984
G1 X97.076 Y85.997 E30.17931
G1 X93.643 Y82.563 E30.38637
G1 X94.099 Y82.563 E30.40584
G1 X97.532 Y85.997 E30.61290
G1 X97.988 Y85.997 E30.63236
G1 X94.555 Y82.563 E30.83943
G1 X95.012 Y82.563 E30.85889
G1 X98.445 Y85.997 E31.06596
G1 X98.901 Y85.997 E31.08542
G1 X95.468 Y82.563 E31.29249
G1 X95.924 Y82.563 E31.31195
G1 X99.357 Y85.997 E31.51902
G1 X99.814 Y85.997 E31.53848
G1 X96.381 Y82.563 E31.74555
G1 X96.837 Y82.563 E31.76501
G1 X100.270 Y85.997 E31.97208
G1 X100.664 Y85.934 E31.98907
G1 X97.293 Y82.563 E32.19235
G1 X97.750 Y82.563 E32.21181
G1 X100.664 Y85.477 E32.38757
G1 X100.664 Y85.021 E32.40703
G1 X98.206 Y82.563 E32.55527
G1 X98.662 Y82.563 E32.57473
G1 X100.664 Y84.565 E32.69544
G1 X100.664 Y84.108 E32.71490
G1 X99.119 Y82.563 E32.80809
G1 X99.575 Y82.563 E32.82755
G1 X100.664 Y83.652 E32.89322
G1 X100.664 Y83.196 E32.91268
G1 X100.031 Y82.563 E32.95082
G1 X100.488 Y82.563 E32.97028
G1 X100.664 Y82.739 E32.98090
M104 S250 ; set temperature
G1 E31.98090 F1800.00000
G92 E0
G1 Z0.550 F7800.000
G1 X100.603 Y77.520 F7800.000
G1 E1.00000 F1800.00000
G1 X88.328 Y77.520 E1.52027 F900.000
G1 X88.328 Y73.920 E1.67283
G1 X100.603 Y73.920 E2.19310
G1 X100.603 Y77.467 E2.34343
G1 X100.987 Y77.904 F7800.000
G1 X87.944 Y77.904 E2.89632 F900.000
G1 X87.944 Y73.536 E3.08151
G1 X100.987 Y73.536 E3.63440
G1 X100.987 Y77.852 E3.81736
G1 X101.328 Y78.245 F7800.000
G1 X87.603 Y78.245 E4.26535 F900.000
G1 X87.603 Y73.195 E4.43018
G1 X101.328 Y73.195 E4.87818
G1 X101.328 Y78.193 E5.04130
G1 X101.025 Y78.070 F7800.000
G1 X100.174 Y77.294 F7800.000
G1 X100.377 Y77.091 E5.05384 F1200.000
G1 X100.377 Y76.531 E5.07828
G1 X99.614 Y77.294 E5.12538
G1 X99.053 Y77.294 E5.14982
G1 X100.377 Y75.970 E5.23149
G1 X100.377 Y75.410 E5.25593
G1 X98.493 Y77.294 E5.37217
G1 X97.933 Y77.294 E5.39661
G1 X100.377 Y74.850 E5.54740
G1 X100.377 Y74.290 E5.57184
G1 X97.373 Y77.294 E5.75720
G1 X96.813 Y77.294 E5.78164
G1 X99.961 Y74.146 E5.97588
G1 X99.401 Y74.146 E6.00032
G1 X96.253 Y77.294 E6.19457
G1 X95.692 Y77.294 E6.21901
G1 X98.841 Y74.146 E6.41325
G1 X98.280 Y74.146 E6.43769
G1 X95.132 Y77.294 E6.63194
G1 X94.572 Y77.294 E6.65638
G1 X97.720 Y74.146 E6.85062
G1 X97.160 Y74.146 E6.87506
G1 X94.012 Y77.294 E7.06930
G1 X93.452 Y77.294 E7.09374
G1 X96.600 Y74.146 E7.28799
G1 X96.040 Y74.146 E7.31243
G1 X92.891 Y77.294 E7.50667
G1 X92.331 Y77.294 E7.53111
G1 X95.479 Y74.146 E7.72535
G1 X94.919 Y74.146 E7.74979
G1 X91.771 Y77.294 E7.94404
G1 X91.211 Y77.294 E7.96848
G1 X94.359 Y74.146 E8.16272
G1 X93.799 Y74.146 E8.18716
G1 X90.651 Y77.294 E8.38140
G1 X90.090 Y77.294 E8.40584
G1 X93.239 Y74.146 E8.60009
G1 X92.679 Y74.146 E8.62453
G1 X89.530 Y77.294 E8.81877
G1 X88.970 Y77.294 E8.84321
G1 X92.118 Y74.146 E9.03745
G1 X91.558 Y74.146 E9.06189
G1 X88.554 Y77.150 E9.24725
G1 X88.554 Y76.590 E9.27169
G1 X90.998 Y74.146 E9.42249
G1 X90.438 Y74.146 E9.44693
G1 X88.554 Y76.030 E9.56316
G1 X88.554 Y75.470 E9.58760
G1 X89.878 Y74.146 E9.66927
G1 X89.317 Y74.146 E9.69371
G1 X88.554 Y74.909 E9.74082
G1 X88.554 Y74.349 E9.76526
G1 X88.757 Y74.146 E9.77780
G1 E8.77780 F1800.00000
G92 E0
G1 X81.528 Y77.520 F7800.000
G1 E1.00000 F1800.00000
G1 X78.328 Y77.520 E1.13560 F900.000
G1 X78.328 Y73.920 E1.28816
G1 X81.528 Y73.920 E1.42376
G1 X81.528 Y77.467 E1.57410
G1 X81.912 Y77.904 F7800.000
G1 X77.944 Y77.904 E1.74232 F900.000
G1 X77.944 Y73.536 E1.92751
