; generated by Slic3r 1.2.9 on 2020-05-20 at 15:04:19

; external perimeters extrusion width = 0.35mm
; perimeters extrusion width = 0.44mm
; infill extrusion width = 0.44mm
; solid infill extrusion width = 0.44mm
; top infill extrusion width = 0.44mm

M107
M190 S90 ; set bed temperature
M104 S240 ; set temperature
G28 ; home all axes
G1 Z5 F5000 ; lift nozzle
M109 S240 ; wait for temperature to be reached
G21 ; set units to millimeters
G90 ; use absolute coordinates
M82 ; use absolute distances for extrusion
G92 E0
G1 E-1.00000 F1800.00000
G92 E0
G1 Z0.300 F7800.000
G1 X55.739 Y47.502 F7800.000
G1 E1.00000 F1800.00000
G1 X56.532 Y47.133 E1.03416 F1080.000
G1 X97.504 Y43.370 E2.64178
G1 X102.350 Y43.364 E2.83112
G1 X102.677 Y43.388 E2.84394
G1 X103.141 Y43.505 E2.86262
G1 X103.362 Y43.600 E2.87202
G1 X103.572 Y43.717 E2.88140
G1 X103.768 Y43.855 E2.89078
G1 X103.949 Y44.013 E2.90017
G1 X104.114 Y44.191 E2.90963
G1 X104.256 Y44.382 E2.91895
G1 X104.410 Y44.648 E2.93098
G1 X104.522 Y44.918 E2.94241
G1 X104.602 Y45.214 E2.95438
G1 X104.640 Y45.506 E2.96587
G1 X104.644 Y51.180 E3.18757
G1 X101.821 Y115.397 E5.69908
G1 X101.396 Y116.300 E5.73808
G1 X100.527 Y116.636 E5.77450
G1 X57.377 Y116.636 E7.46046
G1 X56.455 Y116.251 E7.49947
G1 X56.081 Y115.358 E7.53728
G1 X55.355 Y64.442 E9.52692
G1 X55.354 Y48.423 E10.15279
G1 X55.719 Y47.550 E10.18974
G1 E9.18974 F1800.00000
G92 E0
G1 X99.755 Y114.569 F7800.000
G1 E1.00000 F1800.00000
G1 X58.148 Y114.569 E2.62569 F900.000
G1 X58.148 Y110.711 E2.77641
G1 X99.755 Y110.711 E4.40211
G1 X99.755 Y114.516 E4.55078
G1 X100.051 Y114.864 F7800.000
G1 X57.852 Y114.864 E6.19957 F900.000
G1 X57.852 Y110.416 E6.37339
G1 X100.051 Y110.416 E8.02219
G1 X100.051 Y114.812 E8.19396
G1 X100.347 Y115.160 F7800.000
G1 X57.557 Y115.160 E9.86585 F540.000
G1 X57.557 Y110.120 E10.06277
G1 X100.347 Y110.120 E11.73467
G1 X100.347 Y115.107 E11.92954
G1 X100.043 Y114.985 F7800.000
G1 X99.587 Y111.045 F7800.000
G1 X99.421 Y110.880 E11.93871 F360.000
G1 X99.002 Y110.880 E11.95515
G1 X99.587 Y111.465 E11.98758
G1 X99.587 Y111.884 E12.00402
G1 X98.582 Y110.880 E12.05969
G1 X98.163 Y110.880 E12.07613
G1 X99.587 Y112.303 E12.15506
G1 X99.587 Y112.723 E12.17150
G1 X97.744 Y110.880 E12.27368
G1 X97.324 Y110.880 E12.29012
G1 X99.587 Y113.142 E12.41555
G1 X99.587 Y113.562 E12.43200
G1 X96.905 Y110.880 E12.58068
G1 X96.485 Y110.880 E12.59712
G1 X99.587 Y113.981 E12.76906
G1 X99.566 Y114.380 E12.78472
G1 X96.066 Y110.880 E12.97879
G1 X95.646 Y110.880 E12.99523
G1 X99.167 Y114.400 E13.19039
G1 X98.747 Y114.400 E13.20683
G1 X95.227 Y110.880 E13.40200
G1 X94.808 Y110.880 E13.41844
G1 X98.328 Y114.400 E13.61360
G1 X97.909 Y114.400 E13.63004
G1 X94.388 Y110.880 E13.82520
G1 X93.969 Y110.880 E13.84164
G1 X97.489 Y114.400 E14.03681
G1 X97.070 Y114.400 E14.05325
G1 X93.549 Y110.880 E14.24841
G1 X93.130 Y110.880 E14.26485
G1 X96.650 Y114.400 E14.46001
G1 X96.231 Y114.400 E14.47645
G1 X92.710 Y110.880 E14.67161
G1 X92.291 Y110.880 E14.68806
G1 X95.811 Y114.400 E14.88322
G1 X95.392 Y114.400 E14.89966
G1 X91.871 Y110.880 E15.09482
G1 X91.452 Y110.880 E15.11126
G1 X94.972 Y114.400 E15.30642
G1 X94.553 Y114.400 E15.32287
G1 X91.033 Y110.880 E15.51803
G1 X90.613 Y110.880 E15.53447
G1 X94.134 Y114.400 E15.72963
G1 X93.714 Y114.400 E15.74607
G1 X90.194 Y110.880 E15.94123
G1 X89.774 Y110.880 E15.95768
G1 X93.295 Y114.400 E16.15284
G1 X92.875 Y114.400 E16.16928
G1 X89.355 Y110.880 E16.36444
G1 X88.935 Y110.880 E16.38088
G1 X92.456 Y114.400 E16.57604
G1 X92.036 Y114.400 E16.59248
G1 X88.516 Y110.880 E16.78765
G1 X88.097 Y110.880 E16.80409
G1 X91.617 Y114.400 E16.99925
G1 X91.198 Y114.400 E17.01569
G1 X87.677 Y110.880 E17.21085
G1 X87.258 Y110.880 E17.22729
G1 X90.778 Y114.400 E17.42245
G1 X90.359 Y114.400 E17.43890
G1 X86.838 Y110.880 E17.63406
G1 X86.419 Y110.880 E17.65050
G1 X89.939 Y114.400 E17.84566
G1 X89.520 Y114.400 E17.86210
G1 X85.999 Y110.880 E18.05726
G1 X85.580 Y110.880 E18.07371
G1 X89.100 Y114.400 E18.26887
G1 X88.681 Y114.400 E18.28531
G1 X85.161 Y110.880 E18.48047
G1 X84.741 Y110.880 E18.49691
G1 X88.262 Y114.400 E18.69207
G1 X87.842 Y114.400 E18.70852
G1 X84.322 Y110.880 E18.90368
G1 X83.902 Y110.880 E18.92012
G1 X87.423 Y114.400 E19.11528
G1 X87.003 Y114.400 E19.13172
G1 X83.483 Y110.880 E19.32688
G1 X83.063 Y110.880 E19.34332
G1 X86.584 Y114.400 E19.53849
G1 X86.164 Y114.400 E19.55493
G1 X82.644 Y110.880 E19.75009
G1 X82.224 Y110.880 E19.76653
G1 X85.745 Y114.400 E19.96169
G1 X85.325 Y114.400 E19.97813
G1 X81.805 Y110.880 E20.17329
G1 X81.386 Y110.880 E20.18974
G1 X84.906 Y114.400 E20.38490
G1 X84.487 Y114.400 E20.40134
G1 X80.966 Y110.880 E20.59650
G1 X80.547 Y110.880 E20.61294
G1 X84.067 Y114.400 E20.80810
G1 X83.648 Y114.400 E20.82455
G1 X80.127 Y110.880 E21.01971
G1 X79.708 Y110.880 E21.03615
G1 X83.228 Y114.400 E21.23131
G1 X82.809 Y114.400 E21.24775
G1 X79.288 Y110.880 E21.44291
G1 X78.869 Y110.880 E21.45935
G1 X82.389 Y114.400 E21.65452
G1 X81.970 Y114.400 E21.67096
G1 X78.450 Y110.880 E21.86612
G1 X78.030 Y110.880 E21.88256
G1 X81.551 Y114.400 E22.07772
G1 X81.131 Y114.400 E22.09416
G1 X77.611 Y110.880 E22.28933
G1 X77.191 Y110.880 E22.30577
G1 X80.712 Y114.400 E22.50093
G1 X80.292 Y114.400 E22.51737
G1 X76.772 Y110.880 E22.71253
G1 X76.352 Y110.880 E22.72897
G1 X79.873 Y114.400 E22.92413
G1 X79.453 Y114.400 E22.94058
G1 X75.933 Y110.880 E23.13574
G1 X75.514 Y110.880 E23.15218
G1 X79.034 Y114.400 E23.34734
G1 X78.615 Y114.400 E23.36378
G1 X75.094 Y110.880 E23.55894
G1 X74.675 Y110.880 E23.57539
G1 X78.195 Y114.400 E23.77055
G1 X77.776 Y114.400 E23.78699
G1 X74.255 Y110.880 E23.98215
G1 X73.836 Y110.880 E23.99859
G1 X77.356 Y114.400 E24.19375
G1 X76.937 Y114.400 E24.21020
G1 X73.416 Y110.880 E24.40536
G1 X72.997 Y110.880 E24.42180
G1 X76.517 Y114.400 E24.61696
G1 X76.098 Y114.400 E24.63340
G1 X72.577 Y110.880 E24.82856
G1 X72.158 Y110.880 E24.84500
G1 X75.678 Y114.400 E25.04017
G1 X75.259 Y114.400 E25.05661
G1 X71.739 Y110.880 E25.25177
G1 X71.319 Y110.880 E25.26821
G1 X74.840 Y114.400 E25.46337
G1 X74.420 Y114.400 E25.47981
G1 X70.900 Y110.880 E25.67498
G1 X70.480 Y110.880 E25.69142
G1 X74.001 Y114.400 E25.88658
G1 X73.581 Y114.400 E25.90302
G1 X70.061 Y110.880 E26.09818
G1 X69.641 Y110.880 E26.11462
G1 X73.162 Y114.400 E26.30978
G1 X72.742 Y114.400 E26.32623
G1 X69.222 Y110.880 E26.52139
G1 X68.803 Y110.880 E26.53783
G1 X72.323 Y114.400 E26.73299
G1 X71.904 Y114.400 E26.74943
G1 X68.383 Y110.880 E26.94459
G1 X67.964 Y110.880 E26.96104
G1 X71.484 Y114.400 E27.15620
G1 X71.065 Y114.400 E27.17264
G1 X67.544 Y110.880 E27.36780
G1 X67.125 Y110.880 E27.38424
G1 X70.645 Y114.400 E27.57940
G1 X70.226 Y114.400 E27.59585
G1 X66.705 Y110.880 E27.79101
G1 X66.286 Y110.880 E27.80745
G1 X69.806 Y114.400 E28.00261
G1 X69.387 Y114.400 E28.01905
G1 X65.867 Y110.880 E28.21421
G1 X65.447 Y110.880 E28.23065
G1 X68.968 Y114.400 E28.42582
G1 X68.548 Y114.400 E28.44226
G1 X65.028 Y110.880 E28.63742
G1 X64.608 Y110.880 E28.65386
G1 X68.129 Y114.400 E28.84902
G1 X67.709 Y114.400 E28.86546
G1 X64.189 Y110.880 E29.06062
G1 X63.769 Y110.880 E29.07707
G1 X67.290 Y114.400 E29.27223
G1 X66.870 Y114.400 E29.28867
G1 X63.350 Y110.880 E29.48383
G1 X62.930 Y110.880 E29.50027
G1 X66.451 Y114.400 E29.69543
G1 X66.031 Y114.400 E29.71188
G1 X62.511 Y110.880 E29.90704
G1 X62.092 Y110.880 E29.92348
G1 X65.612 Y114.400 E30.11864
G1 X65.193 Y114.400 E30.13508
G1 X61.672 Y110.880 E30.33024
G1 X61.253 Y110.880 E30.34669
G1 X64.773 Y114.400 E30.54185
G1 X64.354 Y114.400 E30.55829
G1 X60.833 Y110.880 E30.75345
G1 X60.414 Y110.880 E30.76989
G1 X63.934 Y114.400 E30.96505
G1 X63.515 Y114.400 E30.98149
G1 X59.994 Y110.880 E31.17666
G1 X59.575 Y110.880 E31.19310
G1 X63.095 Y114.400 E31.38826
G1 X62.676 Y114.400 E31.40470
G1 X59.156 Y110.880 E31.59986
G1 X58.736 Y110.880 E31.61630
G1 X62.257 Y114.400 E31.81147
G1 X61.837 Y114.400 E31.82791
G1 X58.336 Y110.900 E32.02197
G1 X58.316 Y111.299 E32.03764
G1 X61.418 Y114.400 E32.20957
G1 X60.998 Y114.400 E32.22601
G1 X58.316 Y111.718 E32.37469
G1 X58.316 Y112.138 E32.39113
G1 X60.579 Y114.400 E32.51656
G1 X60.159 Y114.400 E32.53300
G1 X58.316 Y112.557 E32.63518
G1 X58.316 Y112.977 E32.65162
G1 X59.740 Y114.400 E32.73054
G1 X59.321 Y114.400 E32.74698
G1 X58.316 Y113.396 E32.80266
G1 X58.316 Y113.815 E32.81910
G1 X58.901 Y114.400 E32.85152
G1 X58.482 Y114.400 E32.86796
G1 X58.316 Y114.235 E32.87712
G1 E31.87712 F1800.00000
G92 E0
G1 Z0.300 F7800.000
G1 X97.416 Y49.095 F7800.000
G1 E1.00000 F1800.00000
G1 X97.171 Y48.917 E1.01183 F270.000
G1 X96.964 Y48.687 E1.02391
G1 X96.813 Y48.425 E1.03573
G1 X96.731 Y48.195 E1.04528
G1 X96.685 Y47.902 E1.05686
G1 X96.691 Y47.658 E1.06641
G1 X96.754 Y47.362 E1.07824
G1 X96.880 Y47.080 E1.09031
G1 X97.061 Y46.829 E1.10239
G1 X97.291 Y46.623 E1.11446
G1 X97.553 Y46.471 E1.12629
G1 X97.784 Y46.390 E1.13584
G1 X98.076 Y46.343 E1.14742
G1 X98.321 Y46.350 E1.15697
G1 X98.617 Y46.413 E1.16880
G1 X98.899 Y46.538 E1.18087
G1 X99.149 Y46.720 E1.19295
G1 X99.356 Y46.950 E1.20502
G1 X99.510 Y47.217 E1.21710
G1 X99.604 Y47.505 E1.22892
G1 X99.636 Y47.748 E1.23847
G1 X99.620 Y48.050 E1.25030
G1 X99.540 Y48.348 E1.26237
G1 X99.403 Y48.618 E1.27420
G1 X99.258 Y48.807 E1.28350
G1 X99.085 Y48.971 E1.29281
G1 X98.831 Y49.136 E1.30464
G1 X98.543 Y49.246 E1.31671
G1 X98.237 Y49.295 E1.32878
G1 X97.929 Y49.279 E1.34086
G1 X97.636 Y49.200 E1.35269
G1 X97.463 Y49.118 E1.36018
G1 X97.568 Y48.840 F7800.000
G1 X97.370 Y48.696 E1.36974 F270.000
G1 X97.204 Y48.513 E1.37939
G1 X97.082 Y48.301 E1.38894
G1 X97.019 Y48.122 E1.39636
G1 X96.981 Y47.883 E1.40582
G1 X96.986 Y47.693 E1.41325
G1 X97.037 Y47.454 E1.42280
G1 X97.137 Y47.228 E1.43245
G1 X97.282 Y47.028 E1.44209
G1 X97.466 Y46.863 E1.45174
G1 X97.678 Y46.741 E1.46129
G1 X97.857 Y46.677 E1.46872
G1 X98.096 Y46.640 E1.47818
G1 X98.286 Y46.645 E1.48560
G1 X98.525 Y46.695 E1.49515
G1 X98.750 Y46.796 E1.50480
G1 X98.950 Y46.941 E1.51445
G1 X99.115 Y47.124 E1.52410
G1 X99.239 Y47.338 E1.53374
G1 X99.314 Y47.571 E1.54330
G1 X99.339 Y47.759 E1.55072
G1 X99.326 Y48.003 E1.56027
G1 X99.263 Y48.242 E1.56992
G1 X99.151 Y48.460 E1.57947
G1 X99.037 Y48.609 E1.58680
G1 X98.901 Y48.738 E1.59414
G1 X98.696 Y48.871 E1.60369
G1 X98.466 Y48.959 E1.61334
G1 X98.222 Y48.998 E1.62298
G1 X97.975 Y48.985 E1.63263
G1 X97.739 Y48.922 E1.64218
G1 X97.615 Y48.863 E1.64755
G1 X97.351 Y48.953 F7800.000
G1 E0.64755 F1800.00000
G92 E0
G1 X63.921 Y54.952 F7800.000
G1 E1.00000 F1800.00000
G1 X63.921 Y62.294 E1.28689 F270.000
G1 X58.779 Y62.294 E1.48781
G1 X58.779 Y54.952 E1.77470
G1 X63.869 Y54.952 E1.97358
G1 X63.626 Y55.247 F7800.000
G1 X63.626 Y61.999 E2.23736 F270.000
G1 X59.074 Y61.999 E2.41519
G1 X59.074 Y55.247 E2.67897
G1 X63.573 Y55.247 E2.85475
G1 X63.330 Y55.543 F7800.000
G1 X63.330 Y61.703 E3.09543 F270.000
G1 X59.370 Y61.703 E3.25016
G1 X59.370 Y55.543 E3.49084
G1 X63.278 Y55.543 E3.64351
G1 X63.680 Y55.543 F7800.000
G1 E2.64351 F1800.00000
G92 E0
G1 X91.745 Y54.109 F7800.000
G1 E1.00000 F1800.00000
G1 X92.984 Y53.795 E1.04994 F270.000
G1 X93.850 Y55.393 E1.12094
G1 X94.475 Y56.705 E1.17773
G1 X95.033 Y58.051 E1.23466
G1 X95.643 Y59.817 E1.30767
G1 X95.687 Y60.235 E1.32408
G1 X95.643 Y60.645 E1.34022
G1 X95.519 Y61.029 E1.35596
G1 X95.361 Y61.319 E1.36885
G1 X95.108 Y61.632 E1.38459
G1 X94.795 Y61.885 E1.40033
G1 X94.505 Y62.043 E1.41323
G1 X94.122 Y62.167 E1.42896
G1 X93.711 Y62.210 E1.44510
G1 X93.300 Y62.167 E1.46124
G1 X92.917 Y62.043 E1.47697
G1 X92.627 Y61.885 E1.48987
G1 X92.314 Y61.632 E1.50560
G1 X92.054 Y61.311 E1.52174
G1 X91.871 Y60.952 E1.53748
G1 X91.783 Y60.653 E1.54965
G1 X91.745 Y60.410 E1.55927
G1 X91.745 Y54.161 E1.80342
G1 X92.041 Y54.339 F7800.000
G1 X92.834 Y54.138 E1.83538 F270.000
G1 X93.586 Y55.527 E1.89710
G1 X94.205 Y56.825 E1.95329
G1 X94.756 Y58.156 E2.00957
G1 X95.352 Y59.882 E2.08092
G1 X95.389 Y60.235 E2.09479
G1 X95.353 Y60.584 E2.10850
G1 X95.246 Y60.911 E2.12197
G1 X95.115 Y61.154 E2.13274
G1 X94.898 Y61.422 E2.14620
G1 X94.630 Y61.638 E2.15966
G1 X94.388 Y61.770 E2.17044
G1 X94.060 Y61.876 E2.18390
G1 X93.711 Y61.913 E2.19761
G1 X93.362 Y61.876 E2.21131
G1 X93.034 Y61.770 E2.22478
G1 X92.792 Y61.638 E2.23555
G1 X92.524 Y61.422 E2.24901
G1 X92.304 Y61.149 E2.26272
G1 X92.147 Y60.842 E2.27618
G1 X92.072 Y60.589 E2.28651
G1 X92.041 Y60.387 E2.29447
G1 X92.041 Y54.391 E2.52874
G1 X92.337 Y54.569 F7800.000
G1 X92.683 Y54.481 E2.54272 F270.000
G1 X93.323 Y55.661 E2.59516
G1 X93.935 Y56.945 E2.65075
G1 X94.480 Y58.260 E2.70638
G1 X95.062 Y59.946 E2.77605
G1 X95.092 Y60.235 E2.78740
G1 X95.062 Y60.522 E2.79868
G1 X94.973 Y60.794 E2.80987
G1 X94.868 Y60.989 E2.81851
G1 X94.688 Y61.211 E2.82970
G1 X94.465 Y61.391 E2.84089
G1 X94.270 Y61.497 E2.84954
G1 X93.998 Y61.586 E2.86073
G1 X93.711 Y61.616 E2.87201
G1 X93.424 Y61.586 E2.88329
G1 X93.152 Y61.497 E2.89447
G1 X92.957 Y61.391 E2.90312
G1 X92.735 Y61.211 E2.91431
G1 X92.553 Y60.987 E2.92559
G1 X92.423 Y60.732 E2.93678
G1 X92.361 Y60.524 E2.94526
G1 X92.337 Y60.364 E2.95156
G1 X92.337 Y54.621 E3.17596
G1 X92.279 Y54.223 F7800.000
G1 E2.17596 F1800.00000
G92 E0
G1 X97.121 Y52.380 F7800.000
G1 E1.00000 F1800.00000
G1 X97.121 Y50.363 E1.07879 F900.000
G1 X95.125 Y49.211 E1.16884
G1 X95.325 Y48.889 E1.18365
G1 X96.276 Y47.520 E1.24876
G1 X96.398 Y47.563 E1.25380
G1 X96.388 Y47.922 E1.26779
G1 X96.443 Y48.268 E1.28150
G1 X96.543 Y48.550 E1.29317
G1 X96.724 Y48.862 E1.30727
G1 X96.972 Y49.138 E1.32178
G1 X97.264 Y49.350 E1.33588
G1 X97.534 Y49.479 E1.34755
G1 X97.882 Y49.572 E1.36165
G1 X98.253 Y49.592 E1.37616
G1 X98.619 Y49.534 E1.39066
G1 X98.966 Y49.401 E1.40516
G1 X99.269 Y49.204 E1.41927
G1 X99.501 Y48.983 E1.43178
G1 X99.614 Y49.043 E1.43675
G1 X99.579 Y49.262 E1.44544
G1 X99.579 Y55.570 E1.69187
G1 X99.762 Y56.327 E1.72232
G1 X99.965 Y57.036 E1.75114
G1 X100.343 Y58.176 E1.79806
G1 X100.834 Y59.562 E1.85552
G1 X101.132 Y60.501 E1.89401
G1 X101.253 Y60.984 E1.91345
G1 X101.338 Y61.450 E1.93197
G1 X101.378 Y61.852 E1.94775
G1 X101.385 Y62.089 E1.95700
G1 X101.357 Y62.527 E1.97417
G1 X101.278 Y62.940 E1.99059
G1 X101.140 Y63.357 E2.00774
G1 X100.998 Y63.652 E2.02054
G1 X100.105 Y63.652 E2.05541
G1 X100.105 Y105.818 E3.70292
G1 X58.498 Y105.818 E5.32862
G1 X58.498 Y63.652 E6.97613
G1 X57.421 Y63.652 E7.01820
G1 X57.421 Y49.194 E7.58308
G1 X61.979 Y49.194 E7.76115
G1 X61.979 Y50.136 E7.79794
G1 X60.579 Y50.802 E7.85852
G1 X60.579 Y52.860 E7.93894
G1 X64.679 Y52.860 E8.09914
G1 X64.680 Y60.656 E8.40376
G1 X64.787 Y61.161 E8.42392
G1 X65.061 Y61.635 E8.44529
G1 X65.412 Y61.968 E8.46423
G1 X65.900 Y62.217 E8.48559
G1 X66.389 Y62.294 E8.50496
G1 X89.511 Y62.294 E9.40837
G1 X90.000 Y62.217 E9.42773
G1 X90.488 Y61.968 E9.44910
G1 X90.839 Y61.635 E9.46804
G1 X91.113 Y61.161 E9.48941
G1 X91.220 Y60.656 E9.50957
G1 X91.221 Y52.860 E9.81418
G1 X93.292 Y52.860 E9.89509
G1 X94.440 Y54.967 E9.98884
G1 X95.599 Y57.398 E10.09406
G1 X96.630 Y59.887 E10.19934
G1 X97.622 Y62.664 E10.31455
G1 X97.925 Y63.080 E10.33465
G1 X98.350 Y63.389 E10.35520
G1 X98.840 Y63.549 E10.37534
G1 X99.278 Y63.560 E10.39246
G1 X99.631 Y63.485 E10.40654
G1 X99.951 Y63.343 E10.42023
G1 X100.234 Y63.137 E10.43392
G1 X100.469 Y62.877 E10.44760
G1 X100.644 Y62.573 E10.46129
G1 X100.752 Y62.240 E10.47497
G1 X100.788 Y61.892 E10.48866
G1 X100.751 Y61.534 E10.50271
G1 X99.751 Y58.689 E10.62054
G1 X98.653 Y56.038 E10.73265
G1 X97.419 Y53.450 E10.84468
G1 X96.842 Y52.380 E10.89219
G1 X97.069 Y52.380 E10.90106
G1 X99.963 Y48.421 F7800.000
G1 X99.845 Y48.353 E10.90638 F270.000
G1 X99.914 Y48.096 E10.91677
G1 X99.932 Y47.736 E10.93088
G1 X99.893 Y47.440 E10.94255
G1 X99.782 Y47.096 E10.95665
G1 X99.596 Y46.775 E10.97115
G1 X99.348 Y46.499 E10.98566
G1 X99.048 Y46.281 E11.00016
G1 X98.709 Y46.130 E11.01466
G1 X98.356 Y46.055 E11.02877
G1 X98.057 Y46.047 E11.04044
G1 X97.710 Y46.102 E11.05414
G1 X97.513 Y46.172 E11.06233
G1 X97.436 Y46.059 E11.06766
G1 X97.976 Y45.431 E11.10004
G1 X102.310 Y45.431 E11.26936
G1 X102.407 Y45.441 E11.27316
G1 X102.483 Y45.481 E11.27652
G1 X102.567 Y45.598 E11.28213
G1 X102.577 Y50.352 E11.46788
