; generated by Slic3r 1.2.9 on 2018-12-20 at 19:07:59

; external perimeters extrusion width = 0.35mm
; perimeters extrusion width = 0.39mm
; infill extrusion width = 0.39mm
; solid infill extrusion width = 0.39mm
; top infill extrusion width = 0.39mm

M107
M190 S80 ; set bed temperature
M104 S230 ; set temperature
G28 ; home all axes
G1 Z5 F5000 ; lift nozzle
M109 S230 ; wait for temperature to be reached
G21 ; set units to millimeters
G90 ; use absolute coordinates
M82 ; use absolute distances for extrusion
G92 E0
G1 E-1.00000 F1800.00000
G92 E0
G1 Z0.350 F7800.000
G1 X54.300 Y52.869 F7800.000
G1 E1.00000 F1800.00000
G1 X56.544 Y51.168 E1.14978 F1080.000
G1 X57.590 Y50.612 E1.21278
G1 X58.141 Y50.364 E1.24490
G1 X58.765 Y50.110 E1.28075
G1 X59.433 Y49.879 E1.31833
G1 X60.389 Y49.604 E1.37126
G1 X61.345 Y49.395 E1.42327
G1 X62.689 Y49.214 E1.49541
G1 X64.000 Y49.155 E1.56520
G1 X96.478 Y49.166 E3.29243
G1 X97.306 Y49.213 E3.33651
G1 X97.877 Y49.278 E3.36711
G1 X98.674 Y49.398 E3.40993
G1 X99.609 Y49.604 E3.46089
G1 X100.565 Y49.878 E3.51376
G1 X101.145 Y50.077 E3.54638
G1 X101.857 Y50.363 E3.58717
G1 X102.361 Y50.589 E3.61656
G1 X103.496 Y51.190 E3.68486
G1 X105.700 Y52.869 E3.83223
G1 X107.131 Y54.300 E3.93980
G1 X108.832 Y56.543 E4.08957
G1 X109.388 Y57.590 E4.15256
G1 X109.636 Y58.141 E4.18471
G1 X109.890 Y58.765 E4.22055
G1 X110.121 Y59.433 E4.25813
G1 X110.396 Y60.389 E4.31106
G1 X110.605 Y61.345 E4.36306
G1 X110.786 Y62.689 E4.43519
G1 X110.845 Y64.000 E4.50499
G1 X110.834 Y96.478 E6.23223
G1 X110.787 Y97.305 E6.27629
G1 X110.722 Y97.877 E6.30691
G1 X110.602 Y98.673 E6.34973
G1 X110.396 Y99.609 E6.40069
G1 X110.122 Y100.565 E6.45356
G1 X109.924 Y101.145 E6.48613
G1 X109.637 Y101.857 E6.52697
G1 X109.411 Y102.362 E6.55640
G1 X108.810 Y103.496 E6.62466
G1 X107.131 Y105.700 E6.77203
G1 X105.700 Y107.131 E6.87959
G1 X103.456 Y108.832 E7.02937
G1 X102.410 Y109.388 E7.09236
G1 X101.859 Y109.636 E7.12450
G1 X101.235 Y109.890 E7.16035
G1 X100.567 Y110.121 E7.19793
G1 X99.611 Y110.396 E7.25086
G1 X98.655 Y110.605 E7.30285
G1 X97.311 Y110.786 E7.37499
G1 X96.000 Y110.845 E7.44479
G1 X63.522 Y110.834 E9.17203
G1 X62.695 Y110.787 E9.21609
G1 X62.123 Y110.722 E9.24671
G1 X61.327 Y110.602 E9.28952
G1 X60.391 Y110.396 E9.34048
G1 X59.435 Y110.122 E9.39336
G1 X58.855 Y109.924 E9.42593
G1 X58.143 Y109.637 E9.46676
G1 X57.638 Y109.411 E9.49619
G1 X56.504 Y108.810 E9.56446
G1 X54.300 Y107.131 E9.71182
G1 X52.869 Y105.700 E9.81939
G1 X51.168 Y103.456 E9.96917
G1 X50.612 Y102.410 E10.03219
G1 X50.364 Y101.859 E10.06429
G1 X50.110 Y101.235 E10.10017
G1 X49.879 Y100.567 E10.13772
G1 X49.604 Y99.611 E10.19065
G1 X49.395 Y98.656 E10.24265
G1 X49.214 Y97.311 E10.31481
G1 X49.155 Y96.000 E10.38459
G1 X49.166 Y63.522 E12.11182
G1 X49.213 Y62.694 E12.15590
G1 X49.278 Y62.123 E12.18650
G1 X49.398 Y61.326 E12.22933
G1 X49.604 Y60.391 E12.28028
G1 X49.878 Y59.435 E12.33316
G1 X50.077 Y58.855 E12.36577
G1 X50.363 Y58.143 E12.40656
G1 X50.589 Y57.639 E12.43596
G1 X51.190 Y56.504 E12.50424
G1 X52.869 Y54.300 E12.65162
G1 X54.262 Y52.906 E12.75639
G1 E11.75639 F1800.00000
G92 E0
G1 X55.956 Y54.066 F7800.000
G1 E1.00000 F1800.00000
G1 X58.391 Y52.710 E1.14821 F1080.000
G1 X59.173 Y52.356 E1.19388
G1 X59.630 Y52.178 E1.21995
G1 X60.487 Y51.894 E1.26797
G1 X61.383 Y51.671 E1.31709
G1 X61.822 Y51.585 E1.34087
G1 X62.537 Y51.481 E1.37931
G1 X63.133 Y51.427 E1.41114
G1 X63.979 Y51.395 E1.45613
G1 X96.288 Y51.400 E3.17437
G1 X96.995 Y51.435 E3.21204
G1 X97.461 Y51.481 E3.23694
G1 X98.390 Y51.623 E3.28692
G1 X99.152 Y51.798 E3.32848
G1 X99.729 Y51.960 E3.36035
G1 X100.549 Y52.243 E3.40650
G1 X101.567 Y52.690 E3.46561
G1 X103.964 Y54.032 E3.61174
G1 X104.756 Y55.155 E3.68481
G1 X105.935 Y55.959 E3.76070
G1 X107.290 Y58.391 E3.90873
G1 X107.644 Y59.173 E3.95440
G1 X107.822 Y59.630 E3.98047
G1 X108.106 Y60.487 E4.02848
G1 X108.329 Y61.383 E4.07761
G1 X108.415 Y61.822 E4.10138
G1 X108.519 Y62.537 E4.13983
G1 X108.573 Y63.133 E4.17166
G1 X108.605 Y63.978 E4.21663
G1 X108.600 Y96.288 E5.93489
G1 X108.565 Y96.995 E5.97256
G1 X108.519 Y97.461 E5.99746
G1 X108.377 Y98.390 E6.04743
G1 X108.202 Y99.152 E6.08900
G1 X108.040 Y99.729 E6.12087
G1 X107.757 Y100.549 E6.16699
G1 X107.310 Y101.567 E6.22615
G1 X105.968 Y103.963 E6.37217
G1 X104.842 Y104.758 E6.44552
G1 X104.031 Y105.941 E6.52176
G1 X101.609 Y107.290 E6.66919
G1 X100.827 Y107.644 E6.71486
G1 X100.370 Y107.822 E6.74094
G1 X99.513 Y108.106 E6.78896
G1 X98.617 Y108.329 E6.83807
G1 X98.178 Y108.415 E6.86185
G1 X97.463 Y108.519 E6.90029
G1 X96.867 Y108.573 E6.93212
G1 X96.021 Y108.605 E6.97710
G1 X63.712 Y108.600 E8.69535
G1 X63.005 Y108.565 E8.73301
G1 X62.539 Y108.519 E8.75792
G1 X61.610 Y108.377 E8.80789
G1 X60.848 Y108.202 E8.84946
G1 X60.271 Y108.040 E8.88134
G1 X59.451 Y107.757 E8.92746
G1 X58.433 Y107.310 E8.98661
G1 X56.036 Y105.968 E9.13273
G1 X55.241 Y104.841 E9.20604
G1 X54.059 Y104.030 E9.28230
G1 X52.710 Y101.609 E9.42967
G1 X52.356 Y100.827 E9.47533
G1 X52.178 Y100.370 E9.50142
G1 X51.894 Y99.513 E9.54942
G1 X51.671 Y98.617 E9.59853
G1 X51.585 Y98.178 E9.62231
G1 X51.481 Y97.463 E9.66076
G1 X51.427 Y96.866 E9.69259
G1 X51.395 Y96.021 E9.73758
G1 X51.400 Y63.712 E11.45581
G1 X51.435 Y63.005 E11.49348
G1 X51.481 Y62.539 E11.51839
G1 X51.623 Y61.610 E11.56837
G1 X51.798 Y60.848 E11.60993
G1 X51.960 Y60.271 E11.64180
G1 X52.243 Y59.451 E11.68795
G1 X52.690 Y58.433 E11.74706
G1 X54.031 Y56.037 E11.89309
G1 X55.154 Y55.245 E11.96616
G1 X55.927 Y54.110 E12.03918
G1 X56.197 Y54.327 F7800.000
G1 X58.544 Y53.020 E12.18203 F1080.000
G1 X59.308 Y52.673 E12.22668
G1 X59.747 Y52.502 E12.25173
G1 X60.583 Y52.225 E12.29856
G1 X61.458 Y52.007 E12.34653
G1 X61.880 Y51.925 E12.36939
G1 X62.581 Y51.823 E12.40705
G1 X63.153 Y51.771 E12.43761
G1 X63.980 Y51.740 E12.48159
G1 X96.276 Y51.744 E14.19913
G1 X96.970 Y51.779 E14.23610
G1 X97.418 Y51.823 E14.26003
G1 X98.325 Y51.962 E14.30882
G1 X99.070 Y52.133 E14.34947
G1 X99.624 Y52.288 E14.38007
G1 X100.425 Y52.565 E14.42519
G1 X101.416 Y53.000 E14.48273
G1 X103.727 Y54.294 E14.62358
G1 X104.511 Y55.406 E14.69595
G1 X105.675 Y56.200 E14.77085
G1 X106.980 Y58.543 E14.91351
G1 X107.327 Y59.308 E14.95818
G1 X107.498 Y59.747 E14.98322
G1 X107.775 Y60.583 E15.03005
G1 X107.993 Y61.458 E15.07802
G1 X108.075 Y61.880 E15.10087
G1 X108.177 Y62.581 E15.13854
G1 X108.229 Y63.153 E15.16910
G1 X108.260 Y63.979 E15.21306
G1 X108.256 Y96.276 E16.93062
G1 X108.221 Y96.970 E16.96760
G1 X108.177 Y97.418 E16.99152
G1 X108.038 Y98.325 E17.04031
G1 X107.867 Y99.070 E17.08096
G1 X107.712 Y99.624 E17.11157
G1 X107.435 Y100.425 E17.15666
G1 X107.000 Y101.417 E17.21424
G1 X105.707 Y103.726 E17.35499
G1 X104.591 Y104.513 E17.42760
G1 X103.791 Y105.680 E17.50285
G1 X101.457 Y106.980 E17.64495
G1 X100.692 Y107.327 E17.68962
G1 X100.253 Y107.498 E17.71467
G1 X99.417 Y107.775 E17.76150
G1 X98.542 Y107.993 E17.80946
G1 X98.120 Y108.075 E17.83231
G1 X97.419 Y108.177 E17.86998
G1 X96.847 Y108.229 E17.90054
G1 X96.020 Y108.260 E17.94451
G1 X63.724 Y108.256 E19.66206
G1 X63.030 Y108.221 E19.69903
G1 X62.582 Y108.177 E19.72296
G1 X61.676 Y108.038 E19.77175
G1 X60.930 Y107.867 E19.81240
G1 X60.376 Y107.712 E19.84301
G1 X59.575 Y107.435 E19.88810
G1 X58.584 Y107.000 E19.94567
G1 X56.273 Y105.706 E20.08652
G1 X55.486 Y104.591 E20.15909
G1 X54.319 Y103.790 E20.23437
G1 X53.020 Y101.456 E20.37640
G1 X52.673 Y100.692 E20.42106
G1 X52.502 Y100.252 E20.44612
G1 X52.225 Y99.417 E20.49294
G1 X52.007 Y98.542 E20.54090
G1 X51.925 Y98.120 E20.56375
G1 X51.823 Y97.419 E20.60142
G1 X51.771 Y96.847 E20.63198
G1 X51.740 Y96.020 E20.67597
G1 X51.744 Y63.724 E22.39350
G1 X51.779 Y63.030 E22.43046
G1 X51.823 Y62.582 E22.45440
G1 X51.962 Y61.675 E22.50320
G1 X52.133 Y60.930 E22.54384
G1 X52.288 Y60.376 E22.57444
G1 X52.565 Y59.575 E22.61957
G1 X53.000 Y58.584 E22.67710
G1 X54.293 Y56.275 E22.81786
G1 X55.405 Y55.490 E22.89023
G1 X56.168 Y54.370 E22.96226
G1 X56.438 Y54.587 F7800.000
G1 X58.696 Y53.329 E23.09974 F1080.000
G1 X59.444 Y52.991 E23.14338
G1 X59.865 Y52.827 E23.16741
G1 X60.679 Y52.556 E23.21305
G1 X61.534 Y52.344 E23.25987
G1 X61.938 Y52.265 E23.28180
G1 X62.625 Y52.166 E23.31868
G1 X63.173 Y52.115 E23.34798
G1 X63.981 Y52.085 E23.39095
G1 X96.263 Y52.089 E25.10779
G1 X96.945 Y52.123 E25.14407
G1 X97.374 Y52.165 E25.16702
G1 X98.259 Y52.300 E25.21462
G1 X98.987 Y52.468 E25.25436
G1 X99.518 Y52.617 E25.28369
G1 X100.302 Y52.888 E25.32779
G1 X101.265 Y53.310 E25.38374
G1 X103.490 Y54.556 E25.51931
G1 X104.266 Y55.657 E25.59098
G1 X105.414 Y56.441 E25.66490
G1 X106.671 Y58.696 E25.80220
G1 X107.009 Y59.444 E25.84585
G1 X107.173 Y59.865 E25.86987
G1 X107.443 Y60.679 E25.91551
G1 X107.656 Y61.534 E25.96234
G1 X107.735 Y61.938 E25.98426
G1 X107.834 Y62.625 E26.02115
G1 X107.885 Y63.173 E26.05044
G1 X107.915 Y63.980 E26.09339
G1 X107.911 Y96.263 E27.81025
G1 X107.877 Y96.945 E27.84654
G1 X107.835 Y97.374 E27.86948
G1 X107.700 Y98.259 E27.91709
G1 X107.532 Y98.987 E27.95683
G1 X107.383 Y99.518 E27.98616
G1 X107.113 Y100.301 E28.03023
G1 X106.690 Y101.266 E28.08622
G1 X105.445 Y103.488 E28.22170
G1 X104.341 Y104.268 E28.29359
G1 X103.551 Y105.419 E28.36785
G1 X101.304 Y106.671 E28.50461
G1 X100.556 Y107.009 E28.54826
G1 X100.135 Y107.173 E28.57229
G1 X99.321 Y107.444 E28.61793
G1 X98.466 Y107.656 E28.66475
G1 X98.062 Y107.735 E28.68667
G1 X97.375 Y107.834 E28.72356
G1 X96.827 Y107.885 E28.75285
G1 X96.020 Y107.915 E28.79582
G1 X63.737 Y107.911 E30.51267
G1 X63.055 Y107.877 E30.54894
G1 X62.626 Y107.835 E30.57189
G1 X61.741 Y107.700 E30.61950
G1 X61.013 Y107.532 E30.65924
G1 X60.482 Y107.383 E30.68857
G1 X59.698 Y107.113 E30.73264
G1 X58.734 Y106.690 E30.78863
G1 X56.510 Y105.444 E30.92420
G1 X55.732 Y104.340 E30.99604
G1 X54.580 Y103.549 E31.07034
G1 X53.329 Y101.304 E31.20704
G1 X52.991 Y100.556 E31.25068
G1 X52.827 Y100.135 E31.27471
G1 X52.556 Y99.321 E31.32035
G1 X52.344 Y98.467 E31.36716
G1 X52.265 Y98.062 E31.38908
G1 X52.166 Y97.375 E31.42598
G1 X52.115 Y96.827 E31.45527
G1 X52.085 Y96.019 E31.49825
G1 X52.089 Y63.737 E33.21508
G1 X52.123 Y63.056 E33.25135
G1 X52.165 Y62.626 E33.27431
G1 X52.300 Y61.741 E33.32192
G1 X52.468 Y61.013 E33.36166
G1 X52.617 Y60.482 E33.39098
G1 X52.888 Y59.698 E33.43508
G1 X53.310 Y58.735 E33.49103
G1 X54.555 Y56.512 E33.62652
G1 X55.656 Y55.735 E33.69819
G1 X56.409 Y54.631 E33.76924
G1 X56.679 Y54.847 F7800.000
G1 X58.849 Y53.639 E33.90135 F1080.000
G1 X59.579 Y53.308 E33.94398
G1 X59.982 Y53.151 E33.96698
G1 X60.775 Y52.888 E34.01143
G1 X61.609 Y52.680 E34.05711
G1 X62.668 Y52.508 E34.11420
G1 X63.193 Y52.460 E34.14222
G1 X63.982 Y52.430 E34.18419
G1 X96.251 Y52.434 E35.90033
G1 X96.919 Y52.467 E35.93591
G1 X97.330 Y52.508 E35.95788
G1 X98.193 Y52.639 E36.00430
G1 X98.905 Y52.803 E36.04314
G1 X99.413 Y52.945 E36.07119
G1 X100.178 Y53.210 E36.11426
G1 X101.114 Y53.620 E36.16863
G1 X103.252 Y54.818 E36.29893
G1 X104.021 Y55.908 E36.36989
G1 X105.154 Y56.681 E36.44282
G1 X106.361 Y58.848 E36.57476
G1 X106.692 Y59.579 E36.61740
G1 X106.849 Y59.982 E36.64040
G1 X107.112 Y60.775 E36.68485
G1 X107.320 Y61.609 E36.73053
G1 X107.492 Y62.668 E36.78762
G1 X107.540 Y63.193 E36.81564
G1 X107.570 Y63.981 E36.85759
G1 X107.566 Y96.251 E38.57375
G1 X107.533 Y96.919 E38.60934
G1 X107.492 Y97.330 E38.63131
G1 X107.361 Y98.193 E38.67773
G1 X107.197 Y98.905 E38.71656
G1 X107.055 Y99.413 E38.74461
G1 X106.791 Y100.178 E38.78766
G1 X106.379 Y101.115 E38.84207
G1 X105.183 Y103.251 E38.97227
G1 X104.090 Y104.023 E39.04343
G1 X103.310 Y105.159 E39.11671
G1 X101.151 Y106.361 E39.24814
G1 X100.421 Y106.692 E39.29078
G1 X100.018 Y106.849 E39.31378
G1 X99.225 Y107.112 E39.35823
G1 X98.391 Y107.320 E39.40390
G1 X97.332 Y107.492 E39.46099
G1 X96.807 Y107.540 E39.48901
G1 X96.019 Y107.570 E39.53098
G1 X63.749 Y107.566 E41.24712
G1 X63.081 Y107.533 E41.28270
G1 X62.670 Y107.492 E41.30468
G1 X61.807 Y107.361 E41.35110
G1 X61.095 Y107.197 E41.38993
G1 X60.587 Y107.055 E41.41799
G1 X59.822 Y106.791 E41.46103
G1 X58.885 Y106.379 E41.51544
G1 X56.748 Y105.182 E41.64573
G1 X55.977 Y104.090 E41.71684
G1 X54.841 Y103.309 E41.79016
G1 X53.638 Y101.151 E41.92152
G1 X53.308 Y100.421 E41.96415
G1 X53.151 Y100.018 E41.98716
G1 X52.888 Y99.225 E42.03161
G1 X52.680 Y98.391 E42.07727
G1 X52.508 Y97.332 E42.13437
G1 X52.460 Y96.807 E42.16239
G1 X52.430 Y96.018 E42.20436
G1 X52.434 Y63.749 E43.92050
G1 X52.467 Y63.081 E43.95607
G1 X52.508 Y62.670 E43.97805
G1 X52.639 Y61.807 E44.02448
G1 X52.803 Y61.095 E44.06330
G1 X52.945 Y60.587 E44.09136
G1 X53.210 Y59.822 E44.13443
G1 X53.620 Y58.885 E44.18880
G1 X54.817 Y56.749 E44.31901
G1 X55.907 Y55.979 E44.38999
G1 X56.649 Y54.891 E44.46005
G1 X56.919 Y55.108 F7800.000
G1 X59.001 Y53.948 E44.58679 F1080.000
G1 X59.714 Y53.625 E44.62841
G1 X60.099 Y53.475 E44.65038
G1 X60.871 Y53.219 E44.69365
G1 X61.684 Y53.017 E44.73818
G1 X62.712 Y52.850 E44.79356
G1 X63.213 Y52.804 E44.82032
G1 X63.982 Y52.775 E44.86128
G1 X96.239 Y52.778 E46.57672
G1 X97.287 Y52.850 E46.63258
G1 X98.128 Y52.978 E46.67782
G1 X98.823 Y53.137 E46.71574
G1 X99.308 Y53.274 E46.74252
G1 X100.055 Y53.532 E46.78456
G1 X100.964 Y53.931 E46.83735
G1 X103.015 Y55.079 E46.96238
G1 X103.776 Y56.159 E47.03263
G1 X104.894 Y56.922 E47.10458
G1 X106.052 Y59.001 E47.23116
G1 X106.375 Y59.714 E47.27279
G1 X106.525 Y60.099 E47.29476
G1 X106.781 Y60.871 E47.33802
G1 X106.983 Y61.684 E47.38256
G1 X107.150 Y62.712 E47.43794
G1 X107.196 Y63.213 E47.46470
G1 X107.225 Y63.982 E47.50564
G1 X107.222 Y96.239 E49.22110
G1 X107.150 Y97.287 E49.27696
G1 X107.022 Y98.128 E49.32220
G1 X106.863 Y98.823 E49.36012
G1 X106.726 Y99.308 E49.38690
G1 X106.469 Y100.054 E49.42892
G1 X106.069 Y100.964 E49.48175
G1 X104.921 Y103.014 E49.60668
G1 X103.839 Y103.777 E49.67711
G1 X103.070 Y104.898 E49.74940
G1 X100.999 Y106.052 E49.87549
G1 X100.286 Y106.375 E49.91712
G1 X99.901 Y106.525 E49.93910
G1 X99.129 Y106.781 E49.98237
G1 X98.316 Y106.983 E50.02689
G1 X97.288 Y107.150 E50.08228
G1 X96.787 Y107.196 E50.10903
G1 X96.018 Y107.225 E50.14998
G1 X63.761 Y107.222 E51.86543
G1 X62.713 Y107.150 E51.92130
G1 X61.872 Y107.022 E51.96653
G1 X61.177 Y106.863 E52.00445
G1 X60.692 Y106.726 E52.03123
G1 X59.946 Y106.469 E52.07326
G1 X59.036 Y106.069 E52.12608
G1 X56.985 Y104.920 E52.25109
G1 X56.222 Y103.839 E52.32148
G1 X55.101 Y103.069 E52.39380
G1 X53.948 Y100.999 E52.51984
G1 X53.625 Y100.286 E52.56146
G1 X53.475 Y99.901 E52.58344
G1 X53.219 Y99.129 E52.62670
G1 X53.017 Y98.316 E52.67122
G1 X52.850 Y97.288 E52.72661
G1 X52.804 Y96.787 E52.75336
G1 X52.775 Y96.018 E52.79432
G1 X52.778 Y63.761 E54.50976
G1 X52.850 Y62.713 E54.56563
G1 X52.978 Y61.872 E54.61087
G1 X53.137 Y61.177 E54.64879
G1 X53.274 Y60.692 E54.67556
G1 X53.532 Y59.945 E54.71761
G1 X53.931 Y59.036 E54.77040
G1 X55.079 Y56.987 E54.89534
G1 X56.158 Y56.224 E54.96562
G1 X56.890 Y55.151 E55.03469
G1 X57.160 Y55.368 F7800.000
G1 X59.154 Y54.257 E55.15606 F1080.000
G1 X59.849 Y53.943 E55.19667
G1 X60.217 Y53.800 E55.21762
G1 X60.967 Y53.550 E55.25970
G1 X61.759 Y53.354 E55.30308
G1 X62.755 Y53.192 E55.35676
G1 X63.233 Y53.148 E55.38225
G1 X63.983 Y53.120 E55.42220
G1 X96.227 Y53.123 E57.13694
G1 X97.243 Y53.192 E57.19114
G1 X98.062 Y53.316 E57.23518
G1 X98.740 Y53.472 E57.27219
G1 X99.202 Y53.602 E57.29770
G1 X99.931 Y53.854 E57.33872
G1 X100.813 Y54.241 E57.38993
G1 X102.777 Y55.341 E57.50967
G1 X103.531 Y56.410 E57.57922
G1 X104.633 Y57.162 E57.65019
G1 X105.743 Y59.154 E57.77141
G1 X106.057 Y59.850 E57.81203
G1 X106.200 Y60.217 E57.83298
G1 X106.450 Y60.967 E57.87505
G1 X106.646 Y61.759 E57.91843
G1 X106.808 Y62.755 E57.97212
G1 X106.852 Y63.233 E57.99760
G1 X106.880 Y63.983 E58.03754
G1 X106.877 Y96.227 E59.75229
G1 X106.808 Y97.243 E59.80649
G1 X106.684 Y98.062 E59.85054
G1 X106.528 Y98.740 E59.88755
G1 X106.398 Y99.202 E59.91306
G1 X106.146 Y99.931 E59.95406
G1 X105.759 Y100.813 E60.00530
G1 X104.659 Y102.776 E60.12496
G1 X103.589 Y103.532 E60.19466
G1 X102.830 Y104.637 E60.26596
G1 X100.846 Y105.743 E60.38672
G1 X100.150 Y106.057 E60.42734
G1 X99.783 Y106.200 E60.44829
