; generated by Slic3r 1.2.9 on 2018-11-11 at 21:04:49

; external perimeters extrusion width = 0.35mm
; perimeters extrusion width = 0.39mm
; infill extrusion width = 0.39mm
; solid infill extrusion width = 0.39mm
; top infill extrusion width = 0.39mm

M107
M190 S80 ; set bed temperature
M104 S230 ; set temperature
G28 ; home all axes
G1 Z5 F5000 ; lift nozzle
M109 S230 ; wait for temperature to be reached
G21 ; set units to millimeters
G90 ; use absolute coordinates
M82 ; use absolute distances for extrusion
G92 E0
G1 E-1.00000 F1800.00000
G92 E0
G1 Z0.350 F7800.000
G1 X59.913 Y57.487 F7800.000
G1 E1.00000 F1800.00000
G1 X62.084 Y55.611 E1.15262 F1080.000
G1 X64.687 Y54.403 E1.30524
G1 X67.698 Y53.955 E1.46714
G1 X92.698 Y53.955 E2.79667
G1 X95.541 Y54.353 E2.94929
G1 X98.164 Y55.516 E3.10192
G1 X100.484 Y57.487 E3.26381
G1 X107.386 Y65.375 E3.82122
G1 X108.950 Y67.760 E3.97286
G1 X114.402 Y79.272 E4.65032
G1 X115.259 Y82.011 E4.80294
G1 X115.398 Y83.700 E4.89308
G1 X115.398 Y87.700 E5.10580
G1 X115.000 Y90.542 E5.25842
G1 X113.836 Y93.166 E5.41104
G1 X111.997 Y95.369 E5.56367
G1 X110.613 Y96.424 E5.65624
G1 X98.060 Y104.424 E6.44788
G1 X95.449 Y105.616 E6.60050
G1 X92.500 Y106.045 E6.75899
G1 X67.500 Y106.045 E8.08852
G1 X64.658 Y105.647 E8.24114
G1 X61.940 Y104.424 E8.39963
G1 X49.387 Y96.424 E9.19127
G1 X47.204 Y94.561 E9.34389
G1 X45.617 Y92.170 E9.49651
G1 X44.748 Y89.435 E9.64913
G1 X44.602 Y87.700 E9.74171
G1 X44.602 Y83.700 E9.95443
G1 X45.000 Y80.858 E10.10705
G1 X45.724 Y79.014 E10.21241
G1 X51.574 Y67.502 E10.89918
G1 X53.011 Y65.375 E11.03566
G1 X59.879 Y57.527 E11.59028
G1 E10.59028 F1800.00000
G92 E0
G1 X52.692 Y75.393 F7800.000
G1 E1.00000 F1800.00000
G1 X52.692 Y70.715 E1.24879 F1080.000
G1 X53.727 Y67.959 E1.40540
G1 X62.753 Y57.643 E2.13434
G1 X65.946 Y56.195 E2.32078
G1 X94.451 Y56.195 E3.83675
G1 X97.644 Y57.643 E4.02319
G1 X106.670 Y67.959 E4.75213
G1 X107.705 Y70.715 E4.90873
G1 X107.705 Y75.393 E5.15753
G1 X107.907 Y75.595 E5.17272
G1 X108.410 Y75.595 E5.19947
G1 X113.158 Y80.343 E5.55655
G1 X113.158 Y91.058 E6.12635
G1 X108.410 Y95.805 E6.48342
G1 X103.260 Y95.805 E6.75734
G1 X103.124 Y95.867 E6.76528
G1 X97.445 Y102.357 E7.22388
G1 X94.253 Y103.805 E7.41032
G1 X65.747 Y103.805 E8.92630
G1 X62.555 Y102.357 E9.11274
G1 X56.876 Y95.867 E9.57134
G1 X56.740 Y95.805 E9.57927
G1 X51.590 Y95.805 E9.85319
G1 X46.842 Y91.058 E10.21027
G1 X46.842 Y80.343 E10.78007
G1 X51.590 Y75.595 E11.13715
G1 X52.490 Y75.595 E11.18500
G1 X52.654 Y75.431 E11.19741
G1 X53.036 Y75.738 F7800.000
G1 X53.036 Y70.778 E11.46121 F1080.000
G1 X54.028 Y68.139 E11.61115
G1 X62.964 Y57.927 E12.33279
G1 X66.020 Y56.540 E12.51130
G1 X94.377 Y56.540 E14.01934
G1 X97.433 Y57.927 E14.19784
G1 X106.369 Y68.139 E14.91948
G1 X107.360 Y70.778 E15.06942
G1 X107.360 Y75.738 E15.33323
G1 X107.563 Y75.940 E15.34842
G1 X108.267 Y75.940 E15.38591
G1 X112.813 Y80.486 E15.72779
G1 X112.813 Y90.915 E16.28240
G1 X108.267 Y95.460 E16.62428
G1 X103.103 Y95.460 E16.89893
G1 X102.967 Y95.522 E16.90686
G1 X97.235 Y102.073 E17.36982
G1 X94.178 Y103.460 E17.54833
G1 X65.822 Y103.460 E19.05637
G1 X62.765 Y102.073 E19.23488
G1 X57.033 Y95.522 E19.69783
G1 X56.897 Y95.460 E19.70577
G1 X51.733 Y95.460 E19.98041
G1 X47.187 Y90.915 E20.32230
G1 X47.187 Y80.486 E20.87690
G1 X51.733 Y75.940 E21.21879
G1 X52.834 Y75.940 E21.27739
G1 X52.999 Y75.775 E21.28979
G1 X53.381 Y76.083 F7800.000
G1 X53.381 Y70.841 E21.56860 F1080.000
G1 X54.329 Y68.319 E21.71188
G1 X63.174 Y58.210 E22.42622
G1 X66.095 Y56.885 E22.59679
G1 X94.302 Y56.885 E24.09690
G1 X97.223 Y58.210 E24.26747
G1 X106.068 Y68.319 E24.98181
G1 X107.016 Y70.841 E25.12509
G1 X107.016 Y76.083 E25.40390
G1 X107.218 Y76.285 E25.41910
G1 X108.125 Y76.285 E25.46733
G1 X112.468 Y80.629 E25.79402
G1 X112.468 Y90.772 E26.33343
G1 X108.125 Y95.115 E26.66012
G1 X102.947 Y95.115 E26.93549
G1 X102.811 Y95.177 E26.94342
G1 X97.024 Y101.790 E27.41074
G1 X94.104 Y103.115 E27.58131
G1 X65.896 Y103.115 E29.08142
G1 X62.976 Y101.790 E29.25199
G1 X57.189 Y95.177 E29.71931
G1 X57.053 Y95.115 E29.72724
G1 X51.875 Y95.115 E30.00261
G1 X47.532 Y90.772 E30.32930
G1 X47.532 Y80.629 E30.86871
G1 X51.875 Y76.285 E31.19540
G1 X53.179 Y76.285 E31.26474
G1 X53.344 Y76.120 E31.27715
G1 E30.27715 F1800.00000
G92 E0
G1 X106.671 Y76.428 F7800.000
G1 E1.00000 F1800.00000
G1 X106.873 Y76.630 E1.01519 F1080.000
G1 X107.982 Y76.630 E1.07417
G1 X112.123 Y80.772 E1.38567
G1 X112.123 Y90.629 E1.90988
G1 X107.982 Y94.771 E2.22138
G1 X102.790 Y94.771 E2.49747
G1 X102.654 Y94.832 E2.50541
G1 X96.814 Y101.507 E2.97708
G1 X94.029 Y102.771 E3.13972
G1 X65.971 Y102.771 E4.63189
G1 X63.186 Y101.507 E4.79453
G1 X57.346 Y94.832 E5.26620
G1 X57.210 Y94.771 E5.27413
G1 X52.018 Y94.771 E5.55023
G1 X47.877 Y90.629 E5.86172
G1 X47.877 Y80.772 E6.38594
G1 X52.018 Y76.630 E6.69743
G1 X53.524 Y76.630 E6.77752
G1 X53.726 Y76.428 E6.79272
G1 X53.726 Y70.903 E7.08654
G1 X54.630 Y68.498 E7.22316
G1 X63.385 Y58.493 E7.93020
G1 X66.169 Y57.229 E8.09283
G1 X94.228 Y57.229 E9.58501
G1 X97.012 Y58.493 E9.74765
G1 X105.767 Y68.498 E10.45469
G1 X106.671 Y70.903 E10.59130
G1 X106.671 Y76.376 E10.88233
G1 X106.326 Y76.773 F7800.000
G1 X106.528 Y76.975 E10.89753 F1080.000
G1 X107.839 Y76.975 E10.96725
G1 X111.778 Y80.915 E11.26355
G1 X111.778 Y90.486 E11.77257
G1 X107.839 Y94.426 E12.06887
G1 X102.634 Y94.426 E12.34569
G1 X102.498 Y94.487 E12.35362
G1 X96.604 Y101.224 E12.82965
G1 X93.954 Y102.426 E12.98436
G1 X66.045 Y102.426 E14.46860
G1 X63.396 Y101.224 E14.62330
G1 X57.502 Y94.487 E15.09933
G1 X57.366 Y94.426 E15.10726
G1 X52.161 Y94.426 E15.38408
G1 X48.221 Y90.486 E15.68038
G1 X48.221 Y80.915 E16.18941
G1 X52.161 Y76.975 E16.48570
G1 X53.869 Y76.975 E16.57654
G1 X54.071 Y76.773 E16.59173
G1 X54.071 Y70.966 E16.90057
G1 X54.931 Y68.678 E17.03052
G1 X63.595 Y58.776 E17.73026
G1 X66.244 Y57.574 E17.88496
G1 X94.153 Y57.574 E19.36920
G1 X96.802 Y58.776 E19.52391
G1 X105.466 Y68.678 E20.22365
G1 X106.326 Y70.966 E20.35360
G1 X106.326 Y76.720 E20.65964
G1 X105.981 Y77.118 F7800.000
G1 X106.183 Y77.320 E20.67483 F1080.000
G1 X107.696 Y77.320 E20.75530
G1 X111.434 Y81.057 E21.03640
G1 X111.434 Y90.343 E21.53023
G1 X107.696 Y94.081 E21.81134
G1 X102.477 Y94.081 E22.08888
G1 X102.341 Y94.142 E22.09682
G1 X96.393 Y100.940 E22.57720
G1 X93.880 Y102.081 E22.72397
G1 X66.120 Y102.081 E24.20028
G1 X63.607 Y100.940 E24.34705
G1 X57.659 Y94.142 E24.82743
G1 X57.523 Y94.081 E24.83537
G1 X52.304 Y94.081 E25.11291
G1 X48.566 Y90.343 E25.39402
G1 X48.566 Y81.057 E25.88785
G1 X52.304 Y77.320 E26.16895
G1 X54.214 Y77.320 E26.27053
G1 X54.416 Y77.118 E26.28572
G1 X54.416 Y71.029 E26.60956
G1 X55.231 Y68.858 E26.73285
G1 X63.805 Y59.060 E27.42529
G1 X66.319 Y57.919 E27.57206
G1 X94.078 Y57.919 E29.04837
G1 X96.592 Y59.060 E29.19514
G1 X105.166 Y68.858 E29.88758
G1 X105.981 Y71.029 E30.01087
G1 X105.981 Y77.065 E30.33192
G1 X105.636 Y77.463 F7800.000
G1 X105.838 Y77.665 E30.34712 F1080.000
G1 X107.553 Y77.665 E30.43833
G1 X111.089 Y81.200 E30.70424
G1 X111.089 Y90.200 E31.18287
G1 X107.553 Y93.736 E31.44878
G1 X102.321 Y93.736 E31.72705
G1 X102.185 Y93.798 E31.73498
G1 X96.183 Y100.657 E32.21972
G1 X93.805 Y101.736 E32.35856
G1 X66.195 Y101.736 E33.82694
G1 X63.817 Y100.657 E33.96577
G1 X57.815 Y93.798 E34.45051
G1 X57.679 Y93.736 E34.45844
G1 X52.447 Y93.736 E34.73672
G1 X48.911 Y90.200 E35.00263
G1 X48.911 Y81.200 E35.48126
G1 X52.447 Y77.665 E35.74717
G1 X54.559 Y77.665 E35.85949
G1 X54.761 Y77.463 E35.87469
G1 X54.761 Y71.091 E36.21354
G1 X55.532 Y69.038 E36.33016
G1 X64.016 Y59.343 E37.01530
G1 X66.393 Y58.264 E37.15414
G1 X94.004 Y58.264 E38.62251
G1 X96.381 Y59.343 E38.76135
G1 X104.865 Y69.038 E39.44649
G1 X105.636 Y71.091 E39.56312
G1 X105.636 Y77.410 E39.89918
G1 X105.291 Y77.808 F7800.000
G1 X105.493 Y78.010 E39.91437 F1080.000
G1 X107.410 Y78.010 E40.01633
G1 X110.744 Y81.343 E40.26704
G1 X110.744 Y90.058 E40.73048
G1 X107.410 Y93.391 E40.98119
G1 X102.164 Y93.391 E41.26019
G1 X102.028 Y93.453 E41.26813
G1 X95.972 Y100.374 E41.75722
G1 X93.731 Y101.391 E41.88813
G1 X66.269 Y101.391 E43.34857
G1 X64.028 Y100.374 E43.47947
G1 X57.972 Y93.453 E43.96856
G1 X57.836 Y93.391 E43.97650
G1 X52.590 Y93.391 E44.25550
G1 X49.256 Y90.058 E44.50621
G1 X49.256 Y81.343 E44.96965
G1 X52.590 Y78.010 E45.22036
G1 X54.904 Y78.010 E45.34343
G1 X55.106 Y77.808 E45.35863
G1 X55.106 Y71.154 E45.71249
G1 X55.833 Y69.218 E45.82245
G1 X64.226 Y59.626 E46.50029
G1 X66.468 Y58.609 E46.63119
G1 X93.929 Y58.609 E48.09163
G1 X96.171 Y59.626 E48.22254
G1 X104.564 Y69.218 E48.90038
G1 X105.291 Y71.154 E49.01034
G1 X105.291 Y77.755 E49.36141
G1 X104.946 Y78.153 F7800.000
G1 X105.148 Y78.355 E49.37660 F1080.000
G1 X107.267 Y78.355 E49.48930
G1 X110.399 Y81.486 E49.72482
G1 X110.399 Y89.915 E50.17307
G1 X107.267 Y93.046 E50.40859
G1 X102.008 Y93.046 E50.68831
G1 X101.872 Y93.108 E50.69624
G1 X95.762 Y100.091 E51.18969
G1 X93.656 Y101.046 E51.31266
G1 X66.344 Y101.046 E52.76517
G1 X64.238 Y100.091 E52.88814
G1 X58.128 Y93.108 E53.38159
G1 X57.992 Y93.046 E53.38953
G1 X52.733 Y93.046 E53.66925
G1 X49.601 Y89.915 E53.90477
G1 X49.601 Y81.486 E54.35301
G1 X52.733 Y78.355 E54.58853
G1 X55.249 Y78.355 E54.72234
G1 X55.451 Y78.153 E54.73754
G1 X55.451 Y71.216 E55.10641
G1 X56.134 Y69.398 E55.20970
G1 X64.437 Y59.909 E55.88025
G1 X66.542 Y58.954 E56.00322
G1 X93.855 Y58.954 E57.45573
G1 X95.960 Y59.909 E57.57870
G1 X104.263 Y69.398 E58.24924
G1 X104.946 Y71.216 E58.35254
G1 X104.946 Y78.100 E58.71861
G1 X104.601 Y78.497 F7800.000
G1 X104.803 Y78.699 E58.73381 F1080.000
G1 X107.125 Y78.699 E58.85725
G1 X110.054 Y81.629 E59.07758
G1 X110.054 Y89.772 E59.51063
G1 X107.125 Y92.701 E59.73095
G1 X101.851 Y92.701 E60.01140
G1 X101.715 Y92.763 E60.01933
G1 X95.551 Y99.807 E60.51714
G1 X93.582 Y100.701 E60.63218
G1 X66.418 Y100.701 E62.07675
G1 X64.449 Y99.807 E62.19179
G1 X58.285 Y92.763 E62.68960
G1 X58.149 Y92.701 E62.69753
G1 X52.875 Y92.701 E62.97798
G1 X49.946 Y89.772 E63.19830
G1 X49.946 Y81.629 E63.63135
G1 X52.875 Y78.699 E63.85168
G1 X55.594 Y78.699 E63.99623
G1 X55.796 Y78.497 E64.01143
G1 X55.796 Y71.279 E64.39531
G1 X56.435 Y69.578 E64.49194
G1 X64.647 Y60.193 E65.15518
G1 X66.617 Y59.299 E65.27022
G1 X93.780 Y59.299 E66.71479
G1 X95.750 Y60.193 E66.82983
G1 X103.962 Y69.578 E67.49308
G1 X104.601 Y71.279 E67.58971
G1 X104.601 Y78.445 E67.97080
G1 X103.866 Y78.619 F7800.000
G1 X104.043 Y79.044 E67.99531 F1080.000
G1 X106.982 Y79.044 E68.15162
G1 X109.709 Y81.772 E68.35675
G1 X109.709 Y89.629 E68.77460
G1 X106.982 Y92.356 E68.97973
G1 X101.695 Y92.356 E69.26091
G1 X101.559 Y92.418 E69.26884
G1 X95.341 Y99.524 E69.77100
G1 X93.507 Y100.356 E69.87811
G1 X66.493 Y100.356 E71.31475
G1 X64.659 Y99.524 E71.42185
G1 X58.441 Y92.418 E71.92401
G1 X58.305 Y92.356 E71.93195
G1 X53.018 Y92.356 E72.21312
G1 X50.291 Y89.629 E72.41825
G1 X50.291 Y81.772 E72.83611
G1 X53.018 Y79.044 E73.04124
G1 X56.354 Y79.044 E73.21866
G1 X56.531 Y78.619 E73.24317
G1 X56.140 Y78.228 E73.27253
G1 X56.140 Y71.342 E73.63876
G1 X56.735 Y69.758 E73.72872
G1 X64.858 Y60.476 E74.38467
G1 X66.692 Y59.644 E74.49177
G1 X93.705 Y59.644 E75.92841
G1 X95.539 Y60.476 E76.03552
G1 X103.661 Y69.758 E76.69146
G1 X104.256 Y71.342 E76.78143
G1 X104.256 Y78.228 E77.14766
G1 X103.903 Y78.581 E77.17423
G1 X103.034 Y78.963 F7800.000
G1 X103.210 Y79.389 E77.19874 F1080.000
G1 X106.839 Y79.389 E77.39173
G1 X109.364 Y81.915 E77.58167
G1 X109.364 Y89.486 E77.98433
G1 X106.839 Y92.011 E78.17426
G1 X101.538 Y92.011 E78.45616
G1 X101.402 Y92.073 E78.46409
G1 X95.130 Y99.241 E78.97061
G1 X93.432 Y100.011 E79.06978
G1 X66.568 Y100.011 E80.49849
G1 X64.870 Y99.241 E80.59766
G1 X58.598 Y92.073 E81.10418
G1 X58.462 Y92.011 E81.11211
G1 X53.161 Y92.011 E81.39401
G1 X50.636 Y89.486 E81.58395
G1 X50.636 Y81.915 E81.98661
G1 X53.161 Y79.389 E82.17654
G1 X57.187 Y79.389 E82.39065
G1 X57.363 Y78.963 E82.41516
G1 X56.485 Y78.085 E82.48120
G1 X56.485 Y71.404 E82.83650
G1 X57.036 Y69.938 E82.91980
G1 X65.068 Y60.759 E83.56845
G1 X66.766 Y59.989 E83.66762
G1 X93.631 Y59.989 E85.09633
G1 X95.329 Y60.759 E85.19550
G1 X103.361 Y69.938 E85.84415
G1 X103.912 Y71.404 E85.92745
G1 X103.912 Y78.085 E86.28275
G1 X103.071 Y78.926 E86.34600
G1 X102.201 Y79.308 F7800.000
G1 X102.377 Y79.734 E86.37051 F1080.000
G1 X106.696 Y79.734 E86.60019
G1 X109.019 Y82.058 E86.77493
G1 X109.019 Y89.343 E87.16239
G1 X106.696 Y91.667 E87.33713
G1 X101.382 Y91.667 E87.61976
G1 X101.246 Y91.728 E87.62769
G1 X94.920 Y98.958 E88.13857
G1 X93.358 Y99.667 E88.22980
G1 X66.642 Y99.667 E89.65057
G1 X65.080 Y98.958 E89.74181
G1 X58.754 Y91.728 E90.25269
G1 X58.618 Y91.667 E90.26062
G1 X53.304 Y91.667 E90.54325
G1 X50.981 Y89.343 E90.71799
G1 X50.981 Y82.058 E91.10545
G1 X53.304 Y79.734 E91.28019
G1 X58.020 Y79.734 E91.53098
G1 X58.196 Y79.308 E91.55549
G1 X56.830 Y77.942 E91.65822
G1 X56.830 Y71.467 E92.00259
G1 X57.337 Y70.118 E92.07923
G1 X65.278 Y61.042 E92.72057
G1 X66.841 Y60.333 E92.81181
G1 X93.556 Y60.333 E94.23258
G1 X95.119 Y61.042 E94.32382
G1 X103.060 Y70.118 E94.96517
G1 X103.567 Y71.467 E95.04181
G1 X103.567 Y77.942 E95.38618
G1 X102.238 Y79.271 E95.48611
G1 X101.368 Y79.653 F7800.000
G1 X101.545 Y80.079 E95.51062 F1080.000
G1 X106.553 Y80.079 E95.77698
G1 X108.674 Y82.200 E95.93653
G1 X108.674 Y89.200 E96.30880
G1 X106.553 Y91.322 E96.46834
G1 X101.225 Y91.322 E96.75169
G1 X101.089 Y91.383 E96.75963
G1 X94.710 Y98.674 E97.27486
G1 X93.283 Y99.322 E97.35816
G1 X66.717 Y99.322 E98.77100
G1 X65.290 Y98.674 E98.85430
G1 X58.911 Y91.383 E99.36954
G1 X58.775 Y91.322 E99.37747
G1 X53.447 Y91.322 E99.66082
G1 X51.325 Y89.200 E99.82037
G1 X51.325 Y82.200 E100.19264
G1 X53.447 Y80.079 E100.35218
G1 X58.852 Y80.079 E100.63965
G1 X59.029 Y79.653 E100.66417
G1 X57.175 Y77.800 E100.80357
G1 X57.175 Y71.530 E101.13701
G1 X57.638 Y70.298 E101.20699
G1 X65.489 Y61.326 E101.84104
G1 X66.915 Y60.678 E101.92434
G1 X93.482 Y60.678 E103.33718
G1 X94.908 Y61.326 E103.42048
G1 X102.759 Y70.298 E104.05453
G1 X103.222 Y71.530 E104.12451
G1 X103.222 Y77.800 E104.45795
G1 X101.405 Y79.616 E104.59456
G1 X100.958 Y79.576 F7800.000
G1 X59.439 Y79.576 E106.80257 F1080.000
G1 X57.520 Y77.657 E106.94692
G1 X57.520 Y71.592 E107.26943
G1 X57.939 Y70.478 E107.33274
G1 X65.699 Y61.609 E107.95949
G1 X66.990 Y61.023 E108.03486
G1 X93.407 Y61.023 E109.43976
G1 X94.698 Y61.609 E109.51513
G1 X102.458 Y70.478 E110.14188
G1 X102.877 Y71.592 E110.20519
G1 X102.877 Y77.657 E110.52771
G1 X100.995 Y79.539 E110.66926
G1 X100.815 Y79.231 F7800.000
G1 X59.582 Y79.231 E112.86207 F1080.000
G1 X57.865 Y77.514 E112.99123
G1 X57.865 Y71.655 E113.30281
G1 X58.240 Y70.658 E113.35946
G1 X65.910 Y61.892 E113.97891
G1 X67.064 Y61.368 E114.04634
G1 X93.332 Y61.368 E115.44332
G1 X94.487 Y61.892 E115.51075
G1 X102.157 Y70.658 E116.13020
G1 X102.532 Y71.655 E116.18685
G1 X102.532 Y77.514 E116.49843
G1 X100.852 Y79.194 E116.62479
G1 X100.672 Y78.886 F7800.000
G1 X59.725 Y78.886 E118.80241 F1080.000
G1 X58.210 Y77.371 E118.91637
G1 X58.210 Y71.718 E119.21702
G1 X58.540 Y70.838 E119.26700
G1 X66.120 Y62.175 E119.87916
G1 X67.139 Y61.713 E119.93866
G1 X93.258 Y61.713 E121.32770
G1 X94.277 Y62.175 E121.38720
G1 X101.857 Y70.838 E121.99935
G1 X102.187 Y71.718 E122.04933
G1 X102.187 Y77.371 E122.34999
G1 X100.709 Y78.849 E122.46115
G1 X100.529 Y78.541 F7800.000
G1 X59.868 Y78.541 E124.62357 F1080.000
G1 X58.555 Y77.228 E124.72234
G1 X58.555 Y71.780 E125.01206
G1 X58.841 Y71.018 E125.05538
G1 X66.331 Y62.459 E125.66023
G1 X67.214 Y62.058 E125.71180
G1 X93.183 Y62.058 E127.09291
G1 X94.066 Y62.459 E127.14448
G1 X101.556 Y71.018 E127.74933
G1 X101.842 Y71.780 E127.79265
G1 X101.842 Y77.228 E128.08237
G1 X100.566 Y78.504 E128.17835
G1 X100.386 Y78.197 F7800.000
G1 X60.011 Y78.197 E130.32557 F1080.000
G1 X58.900 Y77.085 E130.40914
G1 X58.900 Y71.843 E130.68793
G1 X59.142 Y71.198 E130.72459
G1 X66.541 Y62.742 E131.32214
G1 X67.288 Y62.403 E131.36578
G1 X93.109 Y62.403 E132.73895
G1 X93.856 Y62.742 E132.78258
G1 X101.255 Y71.198 E133.38014
G1 X101.497 Y71.843 E133.41679
