; generated by Slic3r 1.1.7 on 2016-10-07 at 09:00:14

; perimeters extrusion width = 0.40mm
; infill extrusion width = 0.42mm
; solid infill extrusion width = 0.42mm
; top infill extrusion width = 0.42mm

G21 ; set units to millimeters
M107
M190 S60 ; wait for bed temperature to be reached
M104 S185 ; set temperature
G28 ; home all axes
G1 Z5 F5000 ; lift nozzle
M109 S185 ; wait for temperature to be reached
G90 ; use absolute coordinates
G92 E0
M82 ; use absolute distances for extrusion
G1 F1800.000 E-1.00000
G92 E0
G1 Z0.400 F7800.000
G1 X46.583 Y63.220 F7800.000
G1 E1.00000 F1800.000
G1 X48.743 Y62.405 E1.29059 F1080.000
G1 X50.000 Y62.286 E1.44951
G1 X110.000 Y62.286 E9.00076
G1 X112.275 Y62.683 E9.29135
G1 X114.280 Y63.827 E9.58194
G1 X115.780 Y65.583 E9.87254
G1 X116.595 Y67.743 E10.16313
G1 X116.714 Y69.000 E10.32205
G1 X116.714 Y86.000 E12.46157
G1 X116.585 Y87.310 E12.62721
G1 X116.205 Y89.223 E12.87276
G1 X115.202 Y91.644 E13.20244
G1 X114.118 Y93.266 E13.44799
G1 X112.266 Y95.118 E13.77768
G1 X110.644 Y96.202 E14.02323
G1 X108.223 Y97.205 E14.35291
G1 X106.310 Y97.585 E14.59846
G1 X105.000 Y97.714 E14.76410
G1 X55.000 Y97.714 E21.05680
G1 X53.690 Y97.585 E21.22244
G1 X51.777 Y97.205 E21.46800
G1 X49.356 Y96.202 E21.79769
G1 X47.734 Y95.118 E22.04322
G1 X45.882 Y93.266 E22.37291
G1 X44.798 Y91.644 E22.61844
G1 X43.795 Y89.223 E22.94815
G1 X43.415 Y87.310 E23.19368
G1 X43.286 Y86.000 E23.35933
G1 X43.286 Y69.000 E25.49885
G1 X43.683 Y66.725 E25.78944
G1 X44.827 Y64.720 E26.08004
G1 X46.537 Y63.259 E26.36308
G1 F1800.000 E25.36308
G92 E0
G1 X70.420 Y85.920 F7800.000
G1 E1.00000 F1800.000
G1 X69.768 Y86.355 E1.09860 F378.000
G1 X69.039 Y86.500 E1.19214
G1 X53.961 Y86.500 E3.08987
G1 X53.232 Y86.355 E3.18341
G1 X52.580 Y85.920 E3.28200
G1 X52.145 Y85.268 E3.38060
G1 X51.992 Y84.500 E3.47920
G1 X52.145 Y83.732 E3.57779
G1 X52.580 Y83.080 E3.67639
G1 X53.232 Y82.645 E3.77499
G1 X53.961 Y82.500 E3.86853
G1 X69.039 Y82.500 E5.76626
G1 X69.768 Y82.645 E5.85980
G1 X70.420 Y83.080 E5.95839
G1 X70.855 Y83.732 E6.05699
G1 X71.008 Y84.500 E6.15559
G1 X70.855 Y85.268 E6.25418
G1 X70.453 Y85.870 E6.34523
G1 X70.498 Y86.312 F7800.000
G1 X79.436 Y84.500 F7800.000
G1 X79.700 Y83.174 E6.51533 F540.000
G1 X80.450 Y82.050 E6.68545
G1 X81.574 Y81.300 E6.85556
G1 X82.720 Y81.072 E7.00256
G1 X98.080 Y81.072 E8.93569
G1 X99.226 Y81.300 E9.08270
G1 X100.349 Y82.050 E9.25281
G1 X101.100 Y83.174 E9.42292
G1 X101.285 Y84.103 E9.54202
G1 X101.364 Y84.500 E9.59303
G1 X101.100 Y85.826 E9.76324
G1 X100.349 Y86.950 E9.93323
G1 X99.226 Y87.700 E10.10335
G1 X98.080 Y87.928 E10.25034
G1 X82.720 Y87.928 E12.18348
G1 X81.574 Y87.700 E12.33048
G1 X80.450 Y86.950 E12.50059
G1 X79.700 Y85.826 E12.67071
G1 X79.448 Y84.559 E12.83326
G1 X80.164 Y84.500 F7800.000
G1 X80.372 Y83.453 E12.96761 F540.000
G1 X80.965 Y82.565 E13.10197
G1 X81.853 Y81.972 E13.23632
G1 X82.790 Y81.786 E13.35659
G1 X98.010 Y81.786 E15.27202
G1 X98.947 Y81.972 E15.39230
G1 X99.835 Y82.565 E15.52665
G1 X100.428 Y83.453 E15.66100
G1 X100.585 Y84.242 E15.76223
G1 X100.636 Y84.500 E15.79536
G1 X100.427 Y85.547 E15.92977
G1 X99.835 Y86.435 E16.06406
G1 X98.947 Y87.028 E16.19841
G1 X98.010 Y87.214 E16.31868
G1 X82.790 Y87.214 E18.23411
G1 X81.853 Y87.028 E18.35438
G1 X80.965 Y86.435 E18.48874
G1 X80.372 Y85.547 E18.62309
G1 X80.176 Y84.559 E18.74989
G1 X80.892 Y84.500 F7800.000
G1 X81.045 Y83.732 E18.84849 F378.000
G1 X81.480 Y83.080 E18.94709
G1 X82.132 Y82.645 E19.04568
G1 X82.861 Y82.500 E19.13922
G1 X97.939 Y82.500 E21.03695
G1 X98.668 Y82.645 E21.13049
G1 X99.320 Y83.080 E21.22909
G1 X99.755 Y83.732 E21.32768
G1 X99.884 Y84.381 E21.41103
G1 X99.908 Y84.500 E21.42628
G1 X99.755 Y85.269 E21.52490
G1 X99.320 Y85.920 E21.62347
G1 X98.668 Y86.355 E21.72207
G1 X97.939 Y86.500 E21.81561
G1 X82.861 Y86.500 E23.71334
G1 X82.132 Y86.355 E23.80688
G1 X81.480 Y85.920 E23.90547
G1 X81.045 Y85.268 E24.00407
G1 X80.904 Y84.559 E24.09512
G1 X80.560 Y84.278 F7800.000
G1 F1800.000 E23.09512
G92 E0
G1 X52.906 Y87.746 F7800.000
G1 E1.00000 F1800.000
G1 X53.820 Y87.928 E1.11734 F540.000
G1 X69.180 Y87.928 E3.05047
G1 X70.326 Y87.700 E3.19748
G1 X71.450 Y86.950 E3.36758
G1 X72.200 Y85.826 E3.53770
G1 X72.464 Y84.500 E3.70780
G1 X72.200 Y83.174 E3.87791
G1 X71.450 Y82.050 E4.04803
G1 X70.326 Y81.300 E4.21813
G1 X69.180 Y81.072 E4.36514
G1 X53.820 Y81.072 E6.29827
G1 X51.828 Y81.468 E6.55384
G1 X51.828 Y70.828 E7.89286
G1 X108.172 Y70.828 E14.98390
G1 X108.172 Y85.820 E16.87066
G1 X107.897 Y87.200 E17.04776
G1 X107.217 Y88.217 E17.20174
G1 X106.200 Y88.897 E17.35573
G1 X104.820 Y89.172 E17.53283
G1 X55.180 Y89.172 E23.78021
G1 X53.800 Y88.897 E23.95730
G1 X52.726 Y88.180 E24.11985
G1 X52.883 Y87.802 E24.17131
G1 X51.533 Y85.638 F7800.000
G1 X52.065 Y86.435 E24.29196 F540.000
G1 X52.953 Y87.028 E24.42631
G1 X53.890 Y87.214 E24.54659
G1 X69.110 Y87.214 E26.46202
G1 X70.047 Y87.028 E26.58229
G1 X70.935 Y86.435 E26.71664
G1 X71.528 Y85.547 E26.85100
G1 X71.736 Y84.500 E26.98535
G1 X71.528 Y83.453 E27.11970
G1 X70.935 Y82.565 E27.25406
G1 X70.047 Y81.972 E27.38841
G1 X69.110 Y81.786 E27.50868
G1 X53.890 Y81.786 E29.42411
G1 X52.805 Y82.002 E29.56339
G1 X52.805 Y82.071 E29.57214
G1 X52.065 Y82.565 E29.68407
G1 X51.520 Y83.382 E29.80770
G1 X51.114 Y83.259 E29.86103
G1 X51.114 Y70.114 E31.51537
G1 X108.886 Y70.114 E38.78617
G1 X108.886 Y85.890 E40.77166
G1 X108.570 Y87.479 E40.97549
G1 X107.732 Y88.732 E41.16523
G1 X106.479 Y89.570 E41.35498
G1 X104.890 Y89.886 E41.55880
G1 X55.110 Y89.886 E47.82389
G1 X53.521 Y89.570 E48.02772
G1 X52.268 Y88.732 E48.21746
G1 X51.430 Y87.479 E48.40721
G1 X51.100 Y85.817 E48.62044
G1 X51.477 Y85.660 E48.67190
G1 X50.400 Y69.400 F7800.000
G1 X109.600 Y69.400 E56.12246 F378.000
G1 X109.600 Y85.961 E58.20668
G1 X109.243 Y87.757 E58.43724
G1 X108.247 Y89.247 E58.66274
G1 X106.757 Y90.243 E58.88824
G1 X104.961 Y90.600 E59.11880
G1 X55.039 Y90.600 E65.40159
G1 X53.243 Y90.243 E65.63215
G1 X51.753 Y89.247 E65.85765
G1 X50.757 Y87.757 E66.08315
G1 X50.400 Y85.961 E66.31371
G1 X50.400 Y69.460 E68.39038
G1 X50.746 Y69.600 F7800.000
G1 X52.363 Y80.854 F7800.000
G1 X52.326 Y80.817 E68.39696 F1080.000
G1 X52.326 Y79.804 E68.52439
G1 X53.208 Y80.686 E68.68128
G1 X54.108 Y80.574 E68.79548
G1 X52.326 Y78.792 E69.11264
G1 X52.326 Y77.780 E69.24006
G1 X55.120 Y80.574 E69.73743
G1 X56.133 Y80.574 E69.86485
G1 X52.326 Y76.767 E70.54242
G1 X52.326 Y75.755 E70.66985
G1 X57.145 Y80.574 E71.52763
G1 X58.158 Y80.574 E71.65505
G1 X52.326 Y74.742 E72.69303
G1 X52.326 Y73.730 E72.82046
G1 X59.170 Y80.574 E74.03865
G1 X60.183 Y80.574 E74.16607
G1 X52.326 Y72.717 E75.56447
G1 X52.326 Y71.705 E75.69189
G1 X61.195 Y80.574 E77.27049
G1 X62.208 Y80.574 E77.39792
G1 X52.960 Y71.326 E79.04389
G1 X53.972 Y71.326 E79.17132
G1 X63.220 Y80.574 E80.81730
G1 X64.233 Y80.574 E80.94472
G1 X54.985 Y71.326 E82.59070
G1 X55.997 Y71.326 E82.71813
G1 X65.245 Y80.574 E84.36410
G1 X66.258 Y80.574 E84.49153
G1 X57.010 Y71.326 E86.13751
G1 X58.022 Y71.326 E86.26493
G1 X67.270 Y80.574 E87.91091
G1 X68.283 Y80.574 E88.03834
G1 X59.035 Y71.326 E89.68431
G1 X60.047 Y71.326 E89.81174
G1 X69.312 Y80.590 E91.46064
G1 X70.654 Y80.920 E91.63464
G1 X61.060 Y71.326 E93.34228
G1 X62.072 Y71.326 E93.46971
G1 X79.420 Y88.674 E96.55736
G1 X80.433 Y88.674 E96.68479
G1 X63.085 Y71.326 E99.77244
G1 X64.097 Y71.326 E99.89987
G1 X80.566 Y87.795 E102.83108
G1 X79.088 Y85.305 F7800.000
G1 X65.110 Y71.326 E105.31907 F1080.000
G1 X66.122 Y71.326 E105.44649
G1 X78.989 Y84.193 E107.73665
G1 X79.157 Y83.349 E107.84501
G1 X67.135 Y71.326 E109.98486
G1 X68.147 Y71.326 E110.11228
G1 X79.459 Y82.638 E112.12565
G1 X79.865 Y82.031 E112.21752
G1 X69.160 Y71.326 E114.12286
G1 X70.172 Y71.326 E114.25028
G1 X80.359 Y81.513 E116.06339
G1 X80.966 Y81.107 E116.15526
G1 X71.185 Y71.326 E117.89619
G1 X72.197 Y71.326 E118.02361
G1 X81.648 Y80.777 E119.70579
G1 X82.493 Y80.609 E119.81416
G1 X73.210 Y71.326 E121.46644
G1 X74.222 Y71.326 E121.59386
G1 X83.470 Y80.574 E123.23984
G1 X84.482 Y80.574 E123.36727
G1 X75.235 Y71.326 E125.01325
G1 X76.247 Y71.326 E125.14067
G1 X85.495 Y80.574 E126.78665
G1 X86.507 Y80.574 E126.91407
G1 X77.260 Y71.326 E128.56005
G1 X78.272 Y71.326 E128.68748
G1 X87.520 Y80.574 E130.33346
G1 X88.532 Y80.574 E130.46088
G1 X79.284 Y71.326 E132.10686
G1 X80.297 Y71.326 E132.23428
G1 X89.545 Y80.574 E133.88026
G1 X90.557 Y80.574 E134.00769
G1 X81.309 Y71.326 E135.65367
G1 X82.322 Y71.326 E135.78109
G1 X91.570 Y80.574 E137.42707
G1 X92.582 Y80.574 E137.55449
G1 X83.334 Y71.326 E139.20047
G1 X84.347 Y71.326 E139.32790
G1 X93.595 Y80.574 E140.97388
G1 X94.607 Y80.574 E141.10130
G1 X85.359 Y71.326 E142.74728
G1 X86.372 Y71.326 E142.87470
G1 X95.620 Y80.574 E144.52068
G1 X96.632 Y80.574 E144.64811
G1 X87.384 Y71.326 E146.29408
G1 X88.397 Y71.326 E146.42151
G1 X97.645 Y80.574 E148.06749
G1 X98.788 Y80.705 E148.21236
G1 X89.409 Y71.326 E149.88167
G1 X90.422 Y71.326 E150.00910
G1 X106.892 Y87.796 E152.94054
G1 X107.302 Y87.194 E153.03224
G1 X91.434 Y71.326 E155.85653
G1 X92.447 Y71.326 E155.98395
G1 X107.544 Y86.423 E158.67106
G1 X107.674 Y85.541 E158.78334
G1 X93.459 Y71.326 E161.31335
G1 X94.472 Y71.326 E161.44077
G1 X107.674 Y84.528 E163.79057
G1 X107.674 Y83.516 E163.91799
G1 X95.484 Y71.326 E166.08758
G1 X96.497 Y71.326 E166.21501
G1 X107.674 Y82.503 E168.20439
G1 X107.674 Y81.491 E168.33182
G1 X97.509 Y71.326 E170.14100
G1 X98.522 Y71.326 E170.26842
G1 X107.674 Y80.478 E171.89739
G1 X107.674 Y79.466 E172.02482
G1 X99.534 Y71.326 E173.47358
G1 X100.547 Y71.326 E173.60101
G1 X107.674 Y78.453 E174.86957
G1 X107.674 Y77.441 E174.99700
G1 X101.559 Y71.326 E176.08535
G1 X102.572 Y71.326 E176.21278
G1 X107.674 Y76.428 E177.12093
G1 X107.674 Y75.416 E177.24835
G1 X103.584 Y71.326 E177.97629
G1 X104.596 Y71.326 E178.10372
G1 X107.674 Y74.404 E178.65146
G1 X107.674 Y73.391 E178.77888
G1 X105.609 Y71.326 E179.14641
G1 X106.621 Y71.326 E179.27384
G1 X107.674 Y72.379 E179.46116
G1 X107.674 Y71.366 E179.58859
G1 X107.634 Y71.326 E179.59571
G1 X106.309 Y88.226 F7800.000
G1 X101.695 Y83.612 E180.41693 F1080.000
G1 X101.822 Y84.751 E180.56119
G1 X105.583 Y88.512 E181.23067
G1 X104.732 Y88.674 E181.33968
G1 X101.653 Y85.595 E181.88764
G1 X101.368 Y86.322 E181.98591
G1 X103.720 Y88.674 E182.40455
G1 X102.707 Y88.674 E182.53198
G1 X100.962 Y86.929 E182.84260
G1 X100.481 Y87.460 E182.93281
G1 X101.695 Y88.674 E183.14883
G1 X100.682 Y88.674 E183.27626
G1 X100.254 Y88.246 E183.35243
G1 F1800.000 E182.35243
G92 E0
G1 X72.580 Y82.846 F7800.000
G1 E1.00000 F1800.000
G1 X78.408 Y88.674 E2.03732 F1080.000
G1 X77.395 Y88.674 E2.16474
G1 X72.910 Y84.188 E2.96310
G1 X72.845 Y85.136 E3.08268
G1 X76.383 Y88.674 E3.71233
G1 X75.370 Y88.674 E3.83975
G1 X72.677 Y85.981 E4.31909
G1 X72.283 Y86.599 E4.41136
G1 X74.358 Y88.674 E4.78072
G1 X73.345 Y88.674 E4.90814
G1 X71.877 Y87.206 E5.16948
G1 X71.304 Y87.645 F7800.000
G1 X72.333 Y88.674 E5.35256 F1080.000
G1 X71.320 Y88.674 E5.47999
G1 X71.181 Y88.535 E5.50476
G1 X81.207 Y87.991 F7800.000
G1 X81.471 Y88.433 E5.54105 F360.000
G1 X82.685 Y88.550 E5.62698
G1 X98.115 Y88.550 E6.71469
G1 X99.329 Y88.433 E6.80062
G1 X99.593 Y87.991 E6.83692
G1 X70.693 Y87.991 F7800.000
G1 X70.429 Y88.433 E6.87321 F360.000
G1 X69.215 Y88.550 E6.95914
G1 X55.241 Y88.550 E7.94418
G1 X54.386 Y88.466 E8.00473
G1 F1800.000 E7.00473
G92 E0
G1 Z0.750 F7800.000
G1 X97.534 Y81.900 F7800.000
G1 E1.00000 F1800.000
G1 X97.534 Y81.166 E1.04530 F1800.000
G1 X99.752 Y82.648 E1.20985
G1 X100.320 Y83.498 E1.27289
G1 X100.520 Y84.500 E1.33594
G1 X100.320 Y85.502 E1.39898
G1 X99.752 Y86.352 E1.46202
G1 X98.902 Y86.920 E1.52507
G1 X97.998 Y87.100 E1.58192
G1 X82.802 Y87.100 E2.51926
G1 X81.898 Y86.920 E2.57611
G1 X81.048 Y86.352 E2.63915
G1 X80.480 Y85.502 E2.70219
G1 X80.280 Y84.500 E2.76524
G1 X80.480 Y83.498 E2.82828
G1 X81.048 Y82.648 E2.89132
G1 X81.898 Y82.080 E2.95437
G1 X82.802 Y81.900 E3.01122
G1 X97.474 Y81.900 E3.91622
G1 X97.934 Y82.300 F7800.000
G1 X97.934 Y81.914 E3.94003 F1800.000
G1 X99.464 Y82.936 E4.05352
G1 X99.943 Y83.654 E4.10674
G1 X100.112 Y84.500 E4.15997
G1 X99.943 Y85.346 E4.21320
G1 X99.464 Y86.064 E4.26643
G1 X98.746 Y86.543 E4.31966
G1 X97.959 Y86.700 E4.36917
G1 X82.841 Y86.700 E5.30165
G1 X82.054 Y86.543 E5.35116
G1 X81.336 Y86.064 E5.40439
G1 X80.857 Y85.346 E5.45762
G1 X80.688 Y84.500 E5.51085
G1 X80.857 Y83.654 E5.56408
G1 X81.336 Y82.936 E5.61730
G1 X82.054 Y82.457 E5.67053
G1 X82.841 Y82.300 E5.72004
G1 X97.874 Y82.300 E6.64729
G1 X97.920 Y82.700 F7800.000
G1 X98.334 Y82.782 E6.67335 F1260.000
G1 X98.334 Y82.662 E6.68077
G1 X99.176 Y83.224 E6.74318
G1 X99.567 Y83.810 E6.78660
G1 X99.704 Y84.500 E6.83001
G1 X99.567 Y85.190 E6.87342
G1 X99.176 Y85.776 E6.91684
G1 X98.590 Y86.167 E6.96025
G1 X97.920 Y86.300 E7.00242
G1 X82.880 Y86.300 E7.93005
G1 X82.210 Y86.167 E7.97222
G1 X81.624 Y85.776 E8.01563
G1 X81.233 Y85.190 E8.05905
G1 X81.096 Y84.500 E8.10246
G1 X81.233 Y83.810 E8.14587
G1 X81.624 Y83.224 E8.18929
G1 X82.210 Y82.833 E8.23270
G1 X82.880 Y82.700 E8.27488
G1 X97.860 Y82.700 E9.19880
G1 X98.163 Y82.383 F7800.000
G1 F1800.000 E8.19880
G92 E0
G1 X71.620 Y84.500 F7800.000
G1 E1.00000 F1800.000
G1 X71.420 Y85.502 E1.06304 F1800.000
G1 X70.852 Y86.352 E1.12609
G1 X70.002 Y86.920 E1.18913
G1 X69.099 Y87.100 E1.24598
G1 X53.902 Y87.100 E2.18332
G1 X52.998 Y86.920 E2.24017
G1 X52.148 Y86.352 E2.30321
G1 X51.580 Y85.502 E2.36626
G1 X51.380 Y84.500 E2.42930
G1 X51.580 Y83.498 E2.49234
G1 X52.148 Y82.648 E2.55539
G1 X52.998 Y82.080 E2.61843
G1 X53.902 Y81.900 E2.67528
G1 X69.098 Y81.900 E3.61262
G1 X70.002 Y82.080 E3.66947
G1 X70.852 Y82.648 E3.73252
G1 X71.420 Y83.498 E3.79556
G1 X71.608 Y84.441 E3.85490
G1 X71.212 Y84.500 F7800.000
G1 X71.043 Y85.346 E3.90813 F1800.000
G1 X70.564 Y86.064 E3.96136
G1 X69.846 Y86.543 E4.01459
G1 X69.059 Y86.700 E4.06410
G1 X53.941 Y86.700 E4.99658
G1 X53.154 Y86.543 E5.04609
G1 X52.436 Y86.064 E5.09932
G1 X51.957 Y85.346 E5.15255
G1 X51.788 Y84.500 E5.20578
G1 X51.957 Y83.654 E5.25900
G1 X52.436 Y82.936 E5.31223
G1 X53.154 Y82.457 E5.36546
G1 X53.941 Y82.300 E5.41497
G1 X69.059 Y82.300 E6.34746
G1 X69.846 Y82.457 E6.39697
G1 X70.564 Y82.936 E6.45020
G1 X71.043 Y83.654 E6.50343
G1 X71.200 Y84.441 E6.55295
G1 X70.804 Y84.500 F7800.000
G1 X70.667 Y85.190 E6.59637 F1260.000
G1 X70.276 Y85.776 E6.63978
G1 X69.690 Y86.167 E6.68319
G1 X69.020 Y86.300 E6.72537
G1 X53.980 Y86.300 E7.65299
G1 X53.310 Y86.167 E7.69516
G1 X52.724 Y85.776 E7.73858
G1 X52.333 Y85.190 E7.78199
G1 X52.196 Y84.500 E7.82540
G1 X52.333 Y83.810 E7.86882
G1 X52.724 Y83.224 E7.91223
G1 X53.310 Y82.833 E7.95564
G1 X53.980 Y82.700 E7.99782
G1 X69.020 Y82.700 E8.92544
G1 X69.690 Y82.833 E8.96761
G1 X70.276 Y83.224 E9.01103
G1 X70.667 Y83.810 E9.05444
G1 X70.792 Y84.441 E9.09415
G1 X71.137 Y84.722 F7800.000
G1 F1800.000 E8.09415
G92 E0
G1 X51.000 Y70.000 F7800.000
G1 E1.00000 F1800.000
G1 X109.000 Y70.000 E4.57741 F1800.000
G1 X109.000 Y85.902 E5.55820
G1 X108.677 Y87.523 E5.66019
G1 X107.815 Y88.815 E5.75598
G1 X106.523 Y89.677 E5.85178
G1 X104.902 Y90.000 E5.95376
G1 X55.098 Y90.000 E9.02558
G1 X53.477 Y89.677 E9.12757
G1 X52.185 Y88.815 E9.22336
G1 X51.323 Y87.523 E9.31916
G1 X51.000 Y85.902 E9.42114
G1 X51.000 Y70.060 E10.39824
G1 X50.600 Y69.600 F7800.000
G1 X109.400 Y69.600 E14.02499 F1800.000
G1 X109.400 Y85.941 E15.03289
G1 X109.054 Y87.679 E15.14221
G1 X108.103 Y89.103 E15.24782
G1 X106.679 Y90.054 E15.35343
G1 X104.941 Y90.400 E15.46275
G1 X55.059 Y90.400 E18.53943
G1 X53.321 Y90.054 E18.64876
G1 X51.897 Y89.103 E18.75437
G1 X50.946 Y87.679 E18.85997
G1 X50.600 Y85.941 E18.96930
G1 X50.600 Y69.660 E19.97350
G1 X50.200 Y69.200 F7800.000
G1 X109.800 Y69.200 E23.64959 F1260.000
G1 X109.800 Y85.980 E24.68459
G1 X109.431 Y87.835 E24.80125
G1 X108.391 Y89.391 E24.91667
G1 X106.835 Y90.431 E25.03210
G1 X104.980 Y90.800 E25.14876
G1 X55.020 Y90.800 E28.23030
G1 X53.165 Y90.431 E28.34696
G1 X51.609 Y89.391 E28.46238
G1 X50.569 Y87.835 E28.57781
G1 X50.200 Y85.980 E28.69447
G1 X50.200 Y69.260 E29.72577
G1 X50.546 Y69.400 F7800.000
