; generated by Slic3r 1.1.7 on 2016-10-06 at 14:36:50

; perimeters extrusion width = 0.40mm
; infill extrusion width = 0.42mm
; solid infill extrusion width = 0.42mm
; top infill extrusion width = 0.42mm

G21 ; set units to millimeters
M107
M190 S60 ; wait for bed temperature to be reached
M104 S185 ; set temperature
G28 ; home all axes
G1 Z5 F5000 ; lift nozzle
M109 S185 ; wait for temperature to be reached
G90 ; use absolute coordinates
G92 E0
M82 ; use absolute distances for extrusion
G1 F1800.000 E-1.00000
G92 E0
G1 Z0.400 F7800.000
G1 X61.720 Y32.321 F7800.000
G1 E1.00000 F1800.000
G1 X63.244 Y29.972 E1.35231 F1080.000
G1 X68.193 Y25.023 E2.23329
G1 X70.083 Y23.695 E2.52388
G1 X72.310 Y23.086 E2.81448
G1 X74.151 Y23.166 E3.04638
G1 X124.343 Y32.358 E9.46836
G1 X126.509 Y33.159 E9.75896
G1 X127.881 Y34.215 E9.97691
G1 X129.295 Y35.629 E10.22862
G1 X130.130 Y36.647 E10.39426
G1 X131.214 Y38.269 E10.63981
G1 X132.217 Y40.689 E10.96948
G1 X132.597 Y42.603 E11.21503
G1 X132.597 Y45.222 E11.54473
G1 X132.217 Y47.136 E11.79026
G1 X131.214 Y49.556 E12.11995
G1 X130.130 Y51.178 E12.36550
G1 X129.295 Y52.196 E12.53115
G1 X47.978 Y133.513 E27.00437
G1 X46.961 Y134.348 E27.17001
G1 X45.338 Y135.432 E27.41555
G1 X42.918 Y136.434 E27.74526
G1 X41.005 Y136.815 E27.99079
G1 X38.385 Y136.815 E28.32049
G1 X36.471 Y136.434 E28.56604
G1 X34.051 Y135.432 E28.89571
G1 X32.429 Y134.348 E29.14125
G1 X31.412 Y133.513 E29.30690
G1 X30.704 Y132.805 E29.43282
G1 X29.869 Y131.787 E29.59855
G1 X28.785 Y130.166 E29.84402
G1 X27.783 Y127.746 E30.17362
G1 X27.403 Y125.833 E30.41915
G1 X27.403 Y123.213 E30.74887
G1 X28.097 Y120.210 E31.13674
G1 X61.699 Y32.377 E42.97219
G1 F1800.000 E41.97219
G92 E0
G1 X70.577 Y34.720 F7800.000
G1 E1.00000 F1800.000
G1 X72.941 Y32.356 E1.42078 F540.000
G1 X81.376 Y40.791 E2.92209
G1 X122.376 Y40.791 E8.08211
G1 X123.128 Y41.542 E8.21584
G1 X123.909 Y42.712 E8.39294
G1 X124.148 Y43.912 E8.54693
G1 X123.909 Y45.112 E8.70091
G1 X123.128 Y46.282 E8.87801
G1 X42.065 Y127.345 E23.30591
G1 X40.895 Y128.127 E23.48301
G1 X39.695 Y128.366 E23.63700
G1 X38.495 Y128.127 E23.79098
G1 X37.325 Y127.345 E23.96808
G1 X36.872 Y126.892 E24.04866
G1 X36.091 Y125.723 E24.22570
G1 X35.852 Y124.523 E24.37970
G1 X36.091 Y123.323 E24.53368
G1 X36.872 Y122.153 E24.71078
G1 X75.007 Y84.018 E31.49821
G1 X75.111 Y83.887 E31.51921
G1 X76.894 Y82.024 E31.84378
G1 X79.681 Y78.808 E32.37938
G1 X83.912 Y72.963 E33.28744
G1 X86.175 Y68.867 E33.87630
G1 X86.392 Y68.552 E33.92453
G1 X86.488 Y68.221 E33.96789
G1 X88.356 Y62.883 E34.67969
G1 X88.747 Y60.198 E35.02117
G1 X88.783 Y59.382 E35.12394
G1 X88.831 Y59.152 E35.15353
G1 X88.792 Y58.888 E35.18708
G1 X88.750 Y57.519 E35.35944
G1 X88.036 Y54.085 E35.80093
G1 X87.888 Y53.691 E35.85388
G1 X87.844 Y53.479 E35.88111
G1 X87.699 Y53.240 E35.91627
G1 X86.820 Y51.476 E36.16441
G1 X84.950 Y49.093 E36.54550
G1 X70.619 Y34.762 E39.09619
G1 X69.567 Y34.720 F7800.000
G1 X72.941 Y31.346 E39.69673 F540.000
G1 X81.672 Y40.077 E41.25069
G1 X122.672 Y40.077 E46.41071
G1 X123.682 Y41.087 E46.59053
G1 X124.582 Y42.434 E46.79435
G1 X124.876 Y43.912 E46.98410
G1 X124.582 Y45.391 E47.17384
G1 X123.682 Y46.738 E47.37767
G1 X42.520 Y127.900 E61.82327
G1 X41.174 Y128.800 E62.02711
G1 X39.695 Y129.094 E62.21685
G1 X38.216 Y128.800 E62.40659
G1 X36.870 Y127.900 E62.61042
G1 X36.317 Y127.348 E62.70871
G1 X35.418 Y126.001 E62.91248
G1 X35.124 Y124.523 E63.10223
G1 X35.418 Y123.044 E63.29197
G1 X36.318 Y121.697 E63.49579
G1 X74.474 Y83.541 E70.28704
G1 X74.573 Y83.417 E70.30705
G1 X76.366 Y81.543 E70.63344
G1 X79.121 Y78.364 E71.16289
G1 X83.308 Y72.580 E72.06154
G1 X85.567 Y68.491 E72.64934
G1 X85.739 Y68.242 E72.68750
G1 X85.808 Y68.003 E72.71876
G1 X87.660 Y62.712 E73.42429
G1 X88.035 Y60.130 E73.75260
G1 X88.072 Y59.293 E73.85813
G1 X88.106 Y59.130 E73.87898
G1 X88.079 Y58.951 E73.90176
G1 X88.038 Y57.603 E74.07151
G1 X87.348 Y54.284 E74.49819
G1 X87.199 Y53.889 E74.55130
G1 X87.170 Y53.745 E74.56985
G1 X87.073 Y53.587 E74.59314
G1 X86.213 Y51.860 E74.83591
G1 X84.403 Y49.556 E75.20476
G1 X69.609 Y34.762 E77.83770
G1 X68.557 Y34.720 F7800.000
G1 X72.941 Y30.336 E78.61800 F378.000
G1 X81.968 Y39.363 E80.22461
G1 X122.968 Y39.363 E85.38463
G1 X124.237 Y40.632 E85.61052
G1 X125.255 Y42.155 E85.84108
G1 X125.604 Y43.912 E86.06658
G1 X125.255 Y45.670 E86.29209
G1 X124.237 Y47.193 E86.52264
G1 X42.975 Y128.455 E100.98595
G1 X41.452 Y129.472 E101.21651
G1 X39.695 Y129.822 E101.44201
G1 X37.938 Y129.472 E101.66751
G1 X36.414 Y128.455 E101.89807
G1 X35.763 Y127.803 E102.01407
G1 X34.745 Y126.280 E102.24457
G1 X34.396 Y124.523 E102.47007
G1 X34.745 Y122.765 E102.69557
G1 X35.763 Y121.242 E102.92612
G1 X73.941 Y83.064 E109.72119
G1 X74.035 Y82.946 E109.74020
G1 X75.838 Y81.062 E110.06842
G1 X78.561 Y77.919 E110.59173
G1 X82.704 Y72.196 E111.48095
G1 X84.958 Y68.115 E112.06769
G1 X85.085 Y67.931 E112.09578
G1 X86.963 Y62.541 E112.81418
G1 X87.323 Y60.063 E113.12930
G1 X87.361 Y59.203 E113.23761
G1 X87.380 Y59.109 E113.24972
G1 X87.326 Y57.687 E113.42878
G1 X86.660 Y54.483 E113.84065
G1 X86.495 Y54.010 E113.90369
G1 X85.607 Y52.244 E114.15248
G1 X83.855 Y50.018 E114.50909
G1 X68.599 Y34.762 E117.22427
G1 X68.943 Y34.616 F7800.000
G1 X72.680 Y33.349 F7800.000
G1 X104.004 Y64.674 E122.79951 F1080.000
G1 X103.498 Y65.180 E122.88964
G1 X72.173 Y33.856 E128.46488
G1 X71.667 Y34.362 E128.55501
G1 X102.991 Y65.686 E134.13025
G1 X88.595 Y54.328 F7800.000
G1 X101.472 Y67.206 E136.42229 F1080.000
G1 X100.966 Y67.712 E136.51242
G1 X88.861 Y55.607 E138.66699
G1 X89.127 Y56.885 E138.83137
G1 X100.460 Y68.218 E140.84848
G1 X99.953 Y68.725 E140.93860
G1 X89.264 Y58.035 E142.84118
G1 X89.328 Y59.112 E142.97698
G1 X99.447 Y69.231 E144.77797
G1 X98.940 Y69.737 E144.86810
G1 X89.251 Y60.048 E146.59259
G1 X89.140 Y60.950 E146.70691
G1 X98.434 Y70.244 E148.36106
G1 X97.928 Y70.750 E148.45119
G1 X89.012 Y61.834 E150.03808
G1 X88.883 Y62.718 E150.15053
G1 X97.421 Y71.257 E151.67018
G1 X96.915 Y71.763 E151.76030
G1 X88.664 Y63.512 E153.22890
G1 X88.401 Y64.262 E153.32893
G1 X96.409 Y72.269 E154.75413
G1 X95.902 Y72.776 E154.84426
G1 X88.139 Y65.012 E156.22605
G1 X87.876 Y65.762 E156.32609
G1 X95.396 Y73.282 E157.66448
G1 X94.889 Y73.788 E157.75461
G1 X87.614 Y66.512 E159.04960
G1 X87.351 Y67.263 E159.14964
G1 X94.383 Y74.295 E160.40123
G1 X93.877 Y74.801 E160.49136
G1 X87.089 Y68.013 E161.69955
G1 X86.841 Y68.778 E161.80075
G1 X93.370 Y75.307 E162.96292
G1 X92.864 Y75.814 E163.05304
G1 X86.449 Y69.399 E164.19472
G1 X86.089 Y70.052 E164.28852
G1 X92.358 Y76.320 E165.40421
G1 X91.851 Y76.827 E165.49434
G1 X85.729 Y70.704 E166.58405
G1 X85.368 Y71.356 E166.67784
G1 X91.345 Y77.333 E167.74157
G1 X90.838 Y77.839 E167.83170
G1 X85.008 Y72.009 E168.86944
G1 X84.648 Y72.661 E168.96323
G1 X90.332 Y78.346 E169.97499
G1 X89.826 Y78.852 E170.06512
G1 X84.279 Y73.305 E171.05237
G1 X83.854 Y73.893 E171.14364
G1 X89.319 Y79.358 E172.11646
G1 X88.813 Y79.865 E172.20658
G1 X83.428 Y74.480 E173.16496
G1 X83.003 Y75.068 E173.25624
G1 X88.307 Y80.371 E174.20018
G1 X87.800 Y80.878 E174.29030
G1 X82.578 Y75.655 E175.21981
G1 X82.153 Y76.243 E175.31109
G1 X87.294 Y81.384 E176.22616
G1 X86.787 Y81.890 E176.31628
G1 X81.727 Y76.830 E177.21692
G1 X81.302 Y77.418 E177.30819
G1 X86.281 Y82.397 E178.19439
G1 X85.775 Y82.903 E178.28452
G1 X80.877 Y78.005 E179.15629
G1 X80.452 Y78.593 E179.24756
G1 X85.268 Y83.409 E180.10489
G1 X84.762 Y83.916 E180.19502
G1 X80.021 Y79.175 E181.03877
G1 X79.551 Y79.718 E181.12912
G1 X84.256 Y84.422 E181.96643
G1 X83.749 Y84.929 E182.05656
G1 X79.081 Y80.260 E182.88743
G1 X78.611 Y80.803 E182.97778
G1 X83.243 Y85.435 E183.80221
G1 X82.737 Y85.941 E183.89234
G1 X78.141 Y81.345 E184.71032
G1 X77.671 Y81.888 E184.80068
G1 X82.230 Y86.448 E185.61223
G1 X81.724 Y86.954 E185.70235
G1 X77.197 Y82.427 E186.50804
G1 X76.702 Y82.945 E186.59819
G1 X81.217 Y87.460 E187.40189
G1 X80.711 Y87.967 E187.49202
G1 X76.207 Y83.462 E188.29373
G1 X75.711 Y83.980 E188.38388
G1 X80.205 Y88.473 E189.18359
G1 X79.698 Y88.980 E189.27372
G1 X75.224 Y84.505 E190.07011
G1 X74.717 Y85.011 E190.16023
G1 X79.192 Y89.486 E190.95662
G1 X78.686 Y89.992 E191.04675
G1 X74.211 Y85.518 E191.84314
G1 X73.705 Y86.024 E191.93326
G1 X78.179 Y90.499 E192.72965
G1 X77.673 Y91.005 E192.81978
G1 X73.198 Y86.531 E193.61616
G1 X72.692 Y87.037 E193.70629
G1 X77.166 Y91.511 E194.50268
G1 X76.660 Y92.018 E194.59280
G1 X72.186 Y87.543 E195.38919
G1 X71.679 Y88.050 E195.47932
G1 X76.154 Y92.524 E196.27571
G1 X75.647 Y93.031 E196.36583
G1 X71.173 Y88.556 E197.16222
G1 X70.666 Y89.062 E197.25235
G1 X75.141 Y93.537 E198.04874
G1 X74.635 Y94.043 E198.13886
G1 X70.160 Y89.569 E198.93525
G1 X69.654 Y90.075 E199.02538
G1 X74.128 Y94.550 E199.82176
G1 X73.622 Y95.056 E199.91189
G1 X69.147 Y90.582 E200.70828
G1 X68.641 Y91.088 E200.79841
G1 X73.115 Y95.562 E201.59479
G1 X72.609 Y96.069 E201.68492
G1 X68.135 Y91.594 E202.48131
G1 X67.628 Y92.101 E202.57143
G1 X72.103 Y96.575 E203.36782
G1 X71.596 Y97.081 E203.45795
G1 X67.122 Y92.607 E204.25434
G1 X66.615 Y93.113 E204.34446
G1 X71.090 Y97.588 E205.14085
G1 X70.584 Y98.094 E205.23098
G1 X66.109 Y93.620 E206.02737
G1 X65.603 Y94.126 E206.11749
G1 X70.077 Y98.601 E206.91388
G1 X69.571 Y99.107 E207.00401
G1 X65.096 Y94.632 E207.80039
G1 X64.590 Y95.139 E207.89052
G1 X69.064 Y99.613 E208.68691
G1 X68.558 Y100.120 E208.77704
G1 X64.084 Y95.645 E209.57342
G1 X63.577 Y96.152 E209.66355
G1 X68.052 Y100.626 E210.45994
G1 X67.545 Y101.132 E210.55006
G1 X63.071 Y96.658 E211.34645
G1 X62.565 Y97.164 E211.43658
G1 X67.039 Y101.639 E212.23297
G1 X66.533 Y102.145 E212.32309
G1 X62.058 Y97.671 E213.11948
G1 X61.552 Y98.177 E213.20961
G1 X66.026 Y102.652 E214.00599
G1 X65.520 Y103.158 E214.09612
G1 X61.045 Y98.683 E214.89251
G1 X60.539 Y99.190 E214.98264
G1 X65.014 Y103.664 E215.77902
G1 X64.507 Y104.171 E215.86915
G1 X60.033 Y99.696 E216.66554
G1 X59.526 Y100.203 E216.75566
G1 X64.001 Y104.677 E217.55205
G1 X63.494 Y105.183 E217.64218
G1 X59.020 Y100.709 E218.43857
G1 X58.514 Y101.215 E218.52869
G1 X62.988 Y105.690 E219.32508
G1 X62.482 Y106.196 E219.41521
G1 X58.007 Y101.722 E220.21160
G1 X57.501 Y102.228 E220.30172
G1 X61.975 Y106.703 E221.09811
G1 X61.469 Y107.209 E221.18824
G1 X56.994 Y102.734 E221.98462
G1 X56.488 Y103.241 E222.07475
G1 X60.963 Y107.715 E222.87114
G1 X60.456 Y108.222 E222.96127
G1 X55.982 Y103.747 E223.75765
G1 X55.475 Y104.254 E223.84778
G1 X59.950 Y108.728 E224.64417
G1 X59.443 Y109.234 E224.73429
G1 X54.969 Y104.760 E225.53068
G1 X54.463 Y105.266 E225.62081
G1 X58.937 Y109.741 E226.41720
G1 X58.431 Y110.247 E226.50732
G1 X53.956 Y105.773 E227.30371
G1 X53.450 Y106.279 E227.39384
G1 X57.924 Y110.754 E228.19023
G1 X57.418 Y111.260 E228.28035
G1 X52.943 Y106.785 E229.07674
G1 X52.437 Y107.292 E229.16687
G1 X56.912 Y111.766 E229.96325
G1 X56.405 Y112.273 E230.05338
G1 X51.931 Y107.798 E230.84977
G1 X51.424 Y108.305 E230.93989
G1 X55.899 Y112.779 E231.73628
G1 X55.392 Y113.285 E231.82641
G1 X50.918 Y108.811 E232.62280
G1 X50.412 Y109.317 E232.71292
G1 X54.886 Y113.792 E233.50931
G1 X54.380 Y114.298 E233.59944
G1 X49.905 Y109.824 E234.39583
G1 X49.399 Y110.330 E234.48595
G1 X53.873 Y114.804 E235.28234
G1 X53.367 Y115.311 E235.37247
G1 X48.892 Y110.836 E236.16885
G1 X48.386 Y111.343 E236.25898
G1 X52.861 Y115.817 E237.05537
G1 X52.354 Y116.324 E237.14550
G1 X47.880 Y111.849 E237.94188
G1 X47.373 Y112.356 E238.03201
G1 X51.848 Y116.830 E238.82840
G1 X51.341 Y117.336 E238.91852
G1 X46.867 Y112.862 E239.71491
G1 X46.361 Y113.368 E239.80504
G1 X50.835 Y117.843 E240.60143
G1 X50.329 Y118.349 E240.69155
G1 X45.854 Y113.875 E241.48794
G1 X45.348 Y114.381 E241.57807
G1 X49.822 Y118.855 E242.37446
G1 X49.316 Y119.362 E242.46458
G1 X44.841 Y114.887 E243.26097
G1 X44.335 Y115.394 E243.35110
G1 X48.810 Y119.868 E244.14748
G1 X48.303 Y120.375 E244.23761
G1 X43.829 Y115.900 E245.03400
G1 X43.322 Y116.406 E245.12413
G1 X47.797 Y120.881 E245.92051
G1 X47.290 Y121.387 E246.01064
G1 X42.816 Y116.913 E246.80703
G1 X42.310 Y117.419 E246.89715
G1 X46.784 Y121.894 E247.69354
G1 X46.278 Y122.400 E247.78367
G1 X41.803 Y117.926 E248.58006
G1 X41.297 Y118.432 E248.67018
G1 X45.771 Y122.906 E249.46657
G1 X45.265 Y123.413 E249.55670
G1 X40.791 Y118.938 E250.35309
G1 X40.284 Y119.445 E250.44321
G1 X44.759 Y123.919 E251.23960
G1 X44.252 Y124.426 E251.32973
G1 X39.778 Y119.951 E252.12611
G1 X39.271 Y120.457 E252.21624
G1 X43.746 Y124.932 E253.01263
G1 X43.240 Y125.438 E253.10275
G1 X38.765 Y120.964 E253.89914
G1 X38.259 Y121.470 E253.98927
G1 X42.733 Y125.945 E254.78566
G1 X42.227 Y126.451 E254.87578
G1 X37.752 Y121.977 E255.67217
G1 X37.249 Y122.486 E255.76230
G1 X41.720 Y126.957 E256.55822
G1 X41.125 Y127.375 E256.64974
G1 X36.843 Y123.093 E257.41186
G1 X36.509 Y123.771 E257.50706
G1 X40.446 Y127.709 E258.20784
G1 X39.555 Y127.830 E258.32103
G1 X36.387 Y124.663 E258.88482
G1 X37.202 Y126.490 F7800.000
G1 X37.727 Y127.015 E258.97836 F1080.000
G1 F1800.000 E257.97836
G92 E0
G1 X87.991 Y52.712 F7800.000
G1 E1.00000 F1800.000
G1 X101.979 Y66.699 E3.48952 F1080.000
G1 X102.485 Y66.193 E3.57964
G1 X86.303 Y50.010 E6.45985
G1 X81.632 Y41.289 F7800.000
G1 X104.511 Y64.167 E10.53188 F1080.000
G1 X105.017 Y63.661 E10.62201
G1 X82.645 Y41.289 E14.60392
G1 X83.657 Y41.289 E14.73137
G1 X105.523 Y63.155 E18.62315
G1 X106.030 Y62.648 E18.71328
G1 X84.670 Y41.289 E22.51493
G1 X85.683 Y41.289 E22.64239
G1 X106.536 Y62.142 E26.35392
G1 X107.042 Y61.635 E26.44405
G1 X86.696 Y41.289 E30.06545
G1 X87.708 Y41.289 E30.19291
G1 X107.549 Y61.129 E33.72418
G1 X108.055 Y60.623 E33.81431
G1 X88.721 Y41.289 E37.25546
G1 X89.734 Y41.289 E37.38291
G1 X108.561 Y60.116 E40.73394
G1 X109.068 Y59.610 E40.82406
G1 X90.747 Y41.289 E44.08496
G1 X91.759 Y41.289 E44.21242
G1 X109.574 Y59.104 E47.38318
G1 X110.081 Y58.597 E47.47331
G1 X92.772 Y41.289 E50.55395
G1 X93.785 Y41.289 E50.68141
G1 X110.587 Y58.091 E53.67193
G1 X111.093 Y57.584 E53.76205
G1 X94.798 Y41.289 E56.66244
G1 X95.810 Y41.289 E56.78990
G1 X111.600 Y57.078 E59.60016
G1 X112.106 Y56.572 E59.69029
G1 X96.823 Y41.289 E62.41043
G1 X97.836 Y41.289 E62.53789
G1 X112.612 Y56.065 E65.16790
G1 X113.119 Y55.559 E65.25802
G1 X98.849 Y41.289 E67.79791
G1 X99.861 Y41.289 E67.92536
G1 X113.625 Y55.053 E70.37512
G1 X114.132 Y54.546 E70.46525
G1 X100.874 Y41.289 E72.82488
G1 X101.887 Y41.289 E72.95234
G1 X114.638 Y54.040 E75.22184
G1 X115.144 Y53.533 E75.31197
G1 X102.900 Y41.289 E77.49135
G1 X103.912 Y41.289 E77.61880
G1 X115.651 Y53.027 E79.70806
G1 X116.157 Y52.521 E79.79818
G1 X104.925 Y41.289 E81.79731
G1 X105.938 Y41.289 E81.92476
G1 X116.663 Y52.014 E83.83376
G1 X117.170 Y51.508 E83.92389
G1 X106.951 Y41.289 E85.74276
G1 X107.963 Y41.289 E85.87022
G1 X117.676 Y51.002 E87.59897
G1 X118.183 Y50.495 E87.68909
G1 X108.976 Y41.289 E89.32771
G1 X109.989 Y41.289 E89.45517
G1 X118.689 Y49.989 E91.00366
G1 X119.195 Y49.483 E91.09379
G1 X111.002 Y41.289 E92.55216
G1 X112.014 Y41.289 E92.67961
G1 X119.702 Y48.976 E94.04785
G1 X120.208 Y48.470 E94.13798
G1 X113.027 Y41.289 E95.41609
G1 X114.040 Y41.289 E95.54355
G1 X120.714 Y47.963 E96.73154
G1 X121.221 Y47.457 E96.82166
G1 X115.053 Y41.289 E97.91952
G1 X116.065 Y41.289 E98.04698
G1 X121.727 Y46.951 E99.05472
G1 X122.234 Y46.444 E99.14484
G1 X117.078 Y41.289 E100.06245
G1 X118.091 Y41.289 E100.18991
G1 X122.740 Y45.938 E101.01739
G1 X123.157 Y45.342 E101.10890
G1 X119.103 Y41.289 E101.83038
G1 X120.116 Y41.289 E101.95784
G1 X123.491 Y44.664 E102.55852
G1 X123.613 Y43.772 E102.67171
G1 X121.129 Y41.289 E103.11378
G1 X122.142 Y41.289 F7800.000
G1 X122.798 Y41.945 E103.23057 F1080.000
G1 F1800.000 E102.23057
G92 E0
G1 Z0.750 F7800.000
G1 X69.406 Y34.720 F7800.000
G1 E1.00000 F1800.000
G1 X72.941 Y31.184 E1.30840 F1800.000
G1 X81.719 Y39.963 E2.07410
G1 X122.719 Y39.963 E4.60295
G1 X123.771 Y41.014 E4.69469
G1 X124.690 Y42.389 E4.79668
G1 X124.993 Y43.912 E4.89247
G1 X124.690 Y45.436 E4.98826
G1 X123.771 Y46.810 E5.09025
G1 X42.593 Y127.988 E12.17123
G1 X41.218 Y128.907 E12.27323
G1 X39.695 Y129.210 E12.36902
