; generated by Slic3r 1.1.7 on 2016-10-07 at 06:29:57

; perimeters extrusion width = 0.40mm
; infill extrusion width = 0.42mm
; solid infill extrusion width = 0.42mm
; top infill extrusion width = 0.42mm

G21 ; set units to millimeters
M107
M190 S60 ; wait for bed temperature to be reached
M104 S185 ; set temperature
G28 ; home all axes
G1 Z5 F5000 ; lift nozzle
M109 S185 ; wait for temperature to be reached
G90 ; use absolute coordinates
G92 E0
M82 ; use absolute distances for extrusion
G1 F1800.000 E-1.00000
G92 E0
G1 Z0.400 F7800.000
G1 X107.335 Y31.174 F7800.000
G1 E1.00000 F1800.000
G1 X107.804 Y30.705 E1.08353 F1080.000
G1 X108.822 Y29.870 E1.24918
G1 X110.444 Y28.786 E1.49471
G1 X112.864 Y27.783 E1.82441
G1 X114.778 Y27.403 E2.06994
G1 X117.397 Y27.403 E2.39965
G1 X119.311 Y27.783 E2.64517
G1 X121.731 Y28.786 E2.97488
G1 X123.353 Y29.870 E3.22041
G1 X124.371 Y30.705 E3.38606
G1 X125.785 Y32.119 E3.63777
G1 X127.113 Y34.008 E3.92836
G1 X127.642 Y35.657 E4.14631
G1 X136.834 Y85.849 E10.56830
G1 X136.853 Y88.158 E10.85889
G1 X136.089 Y90.337 E11.14948
G1 X134.977 Y91.807 E11.38138
G1 X130.028 Y96.756 E12.26236
G1 X127.679 Y98.280 E12.61467
G1 X38.701 Y132.217 E24.59984
G1 X36.787 Y132.597 E24.84537
G1 X34.167 Y132.597 E25.17509
G1 X32.254 Y132.217 E25.42061
G1 X29.834 Y131.215 E25.75021
G1 X28.213 Y130.131 E25.99569
G1 X27.195 Y129.296 E26.16142
G1 X26.487 Y128.588 E26.28733
G1 X25.652 Y127.571 E26.45298
G1 X24.568 Y125.949 E26.69851
G1 X23.566 Y123.529 E27.02819
G1 X23.185 Y121.615 E27.27372
G1 X23.185 Y118.995 E27.60344
G1 X23.566 Y117.082 E27.84897
G1 X24.568 Y114.662 E28.17866
G1 X25.652 Y113.039 E28.42422
G1 X26.487 Y112.022 E28.58987
G1 X107.293 Y31.216 E42.97201
G1 F1800.000 E41.97201
G92 E0
G1 X127.644 Y87.059 F7800.000
G1 E1.00000 F1800.000
G1 X125.280 Y89.423 E1.42078 F540.000
G1 X110.907 Y75.050 E3.97902
G1 X108.524 Y73.180 E4.36011
G1 X106.760 Y72.301 E4.60824
G1 X106.521 Y72.156 E4.64341
G1 X106.309 Y72.112 E4.67065
G1 X105.915 Y71.964 E4.72359
G1 X102.481 Y71.250 E5.16508
G1 X101.112 Y71.208 E5.33744
G1 X100.848 Y71.169 E5.37099
G1 X100.618 Y71.217 E5.40058
G1 X99.802 Y71.253 E5.50335
G1 X97.117 Y71.644 E5.84483
G1 X91.779 Y73.512 E6.55663
G1 X91.448 Y73.608 E6.59999
G1 X91.133 Y73.825 E6.64822
G1 X87.037 Y76.088 E7.23708
G1 X81.192 Y80.319 E8.14515
G1 X77.976 Y83.106 E8.68074
G1 X76.113 Y84.889 E9.00531
G1 X75.982 Y84.993 E9.02632
G1 X37.847 Y123.128 E15.81375
G1 X36.677 Y123.909 E15.99084
G1 X35.477 Y124.148 E16.14482
G1 X34.277 Y123.909 E16.29882
G1 X33.108 Y123.128 E16.47586
G1 X32.655 Y122.675 E16.55644
G1 X31.873 Y121.505 E16.73354
G1 X31.634 Y120.305 E16.88753
G1 X31.873 Y119.105 E17.04151
G1 X32.655 Y117.935 E17.21862
G1 X113.718 Y36.872 E31.64651
G1 X114.888 Y36.091 E31.82361
G1 X116.088 Y35.852 E31.97760
G1 X117.288 Y36.091 E32.13159
G1 X118.458 Y36.872 E32.30868
G1 X119.209 Y37.624 E32.44242
G1 X119.209 Y78.624 E37.60243
G1 X127.602 Y87.016 E39.09620
G1 X128.654 Y87.059 F7800.000
G1 X125.280 Y90.433 E39.69673 F540.000
G1 X110.444 Y75.597 E42.33722
G1 X108.140 Y73.787 E42.70607
G1 X106.413 Y72.927 E42.94884
G1 X106.255 Y72.830 E42.97214
G1 X106.111 Y72.801 E42.99068
G1 X105.716 Y72.652 E43.04380
G1 X102.397 Y71.962 E43.47047
G1 X101.049 Y71.921 E43.64022
G1 X100.870 Y71.894 E43.66300
G1 X100.707 Y71.928 E43.68385
G1 X99.870 Y71.965 E43.78939
G1 X97.288 Y72.340 E44.11769
G1 X91.997 Y74.192 E44.82322
G1 X91.758 Y74.261 E44.85448
G1 X91.509 Y74.433 E44.89264
G1 X87.420 Y76.692 E45.48044
G1 X81.636 Y80.879 E46.37909
G1 X78.457 Y83.634 E46.90854
G1 X76.583 Y85.427 E47.23493
G1 X76.459 Y85.526 E47.25494
G1 X38.303 Y123.682 E54.04619
G1 X36.956 Y124.582 E54.25001
G1 X35.477 Y124.876 E54.43976
G1 X33.999 Y124.582 E54.62951
G1 X32.652 Y123.683 E54.83328
G1 X32.100 Y123.130 E54.93156
G1 X31.200 Y121.784 E55.13539
G1 X30.906 Y120.305 E55.32513
G1 X31.200 Y118.826 E55.51488
G1 X32.100 Y117.480 E55.71871
G1 X113.262 Y36.318 E70.16431
G1 X114.609 Y35.418 E70.36814
G1 X116.088 Y35.124 E70.55788
G1 X117.566 Y35.418 E70.74763
G1 X118.913 Y36.318 E70.95146
G1 X119.923 Y37.328 E71.13127
G1 X119.923 Y78.328 E76.29129
G1 X128.612 Y87.016 E77.83770
G1 X129.664 Y87.059 F7800.000
G1 X125.280 Y91.443 E78.61800 F378.000
G1 X109.982 Y76.145 E81.34073
G1 X107.756 Y74.393 E81.69734
G1 X105.990 Y73.505 E81.94613
G1 X105.517 Y73.340 E82.00917
G1 X102.313 Y72.674 E82.42104
G1 X100.891 Y72.620 E82.60010
G1 X100.797 Y72.639 E82.61221
G1 X99.937 Y72.677 E82.72052
G1 X97.459 Y73.037 E83.03564
G1 X92.069 Y74.915 E83.75404
G1 X91.885 Y75.042 E83.78213
G1 X87.804 Y77.296 E84.36887
G1 X82.081 Y81.439 E85.25810
G1 X78.938 Y84.162 E85.78140
G1 X77.054 Y85.965 E86.10962
G1 X76.936 Y86.059 E86.12863
G1 X38.758 Y124.237 E92.92370
G1 X37.235 Y125.255 E93.15425
G1 X35.477 Y125.604 E93.37975
G1 X33.720 Y125.255 E93.60525
G1 X32.197 Y124.237 E93.83575
G1 X31.545 Y123.586 E93.95175
G1 X30.528 Y122.062 E94.18231
G1 X30.178 Y120.305 E94.40781
G1 X30.528 Y118.548 E94.63331
G1 X31.545 Y117.025 E94.86387
G1 X112.807 Y35.763 E109.32718
G1 X114.330 Y34.745 E109.55774
G1 X116.088 Y34.396 E109.78324
G1 X117.845 Y34.745 E110.00874
G1 X119.368 Y35.763 E110.23930
G1 X120.637 Y37.032 E110.46519
G1 X120.637 Y78.032 E115.62521
G1 X129.622 Y87.016 E117.22428
G1 X129.278 Y87.162 F7800.000
G1 X126.651 Y87.320 F7800.000
G1 X95.326 Y55.996 E122.79952 F1080.000
G1 X94.820 Y56.502 E122.88964
G1 X126.144 Y87.827 E128.46489
G1 X125.638 Y88.333 E128.55501
G1 X94.314 Y57.009 E134.13026
G1 X105.672 Y71.405 F7800.000
G1 X92.794 Y58.528 E136.42230 F1080.000
G1 X92.288 Y59.034 E136.51243
G1 X104.394 Y71.139 E138.66701
G1 X103.115 Y70.873 E138.83139
G1 X91.782 Y59.540 E140.84849
G1 X91.275 Y60.047 E140.93862
G1 X101.965 Y70.736 E142.84120
G1 X100.888 Y70.672 E142.97699
G1 X90.769 Y60.553 E144.77799
G1 X90.263 Y61.060 E144.86812
G1 X99.952 Y70.749 E146.59261
G1 X99.050 Y70.860 E146.70693
G1 X89.756 Y61.566 E148.36108
G1 X89.250 Y62.072 E148.45121
G1 X98.166 Y70.988 E150.03811
G1 X97.282 Y71.117 E150.15056
G1 X88.743 Y62.579 E151.67021
G1 X88.237 Y63.085 E151.76033
G1 X96.488 Y71.336 E153.22893
G1 X95.738 Y71.599 E153.32896
G1 X87.731 Y63.591 E154.75416
G1 X87.224 Y64.098 E154.84429
G1 X94.988 Y71.861 E156.22609
G1 X94.238 Y72.124 E156.32612
G1 X86.718 Y64.604 E157.66452
G1 X86.212 Y65.111 E157.75465
G1 X93.488 Y72.386 E159.04964
G1 X92.737 Y72.649 E159.14968
G1 X85.705 Y65.617 E160.40127
G1 X85.199 Y66.123 E160.49140
G1 X91.987 Y72.911 E161.69960
G1 X91.222 Y73.159 E161.80079
G1 X84.693 Y66.630 E162.96296
G1 X84.186 Y67.136 E163.05309
G1 X90.601 Y73.551 E164.19477
G1 X89.948 Y73.911 E164.28857
G1 X83.680 Y67.642 E165.40426
G1 X83.173 Y68.149 E165.49439
G1 X89.296 Y74.271 E166.58410
G1 X88.644 Y74.632 E166.67790
G1 X82.667 Y68.655 E167.74162
G1 X82.161 Y69.162 E167.83175
G1 X87.991 Y74.992 E168.86949
G1 X87.339 Y75.352 E168.96329
G1 X81.654 Y69.668 E169.97505
G1 X81.148 Y70.174 E170.06518
G1 X86.695 Y75.721 E171.05243
G1 X86.107 Y76.146 E171.14370
G1 X80.642 Y70.681 E172.11652
G1 X80.135 Y71.187 E172.20665
G1 X85.520 Y76.572 E173.16503
G1 X84.932 Y76.997 E173.25630
G1 X79.629 Y71.693 E174.20024
G1 X79.122 Y72.200 E174.29037
G1 X84.345 Y77.422 E175.21988
G1 X83.757 Y77.847 E175.31116
G1 X78.616 Y72.706 E176.22623
G1 X78.110 Y73.212 E176.31635
G1 X83.170 Y78.273 E177.21699
G1 X82.582 Y78.698 E177.30827
G1 X77.603 Y73.719 E178.19447
G1 X77.097 Y74.225 E178.28460
G1 X81.995 Y79.123 E179.15636
G1 X81.407 Y79.548 E179.24764
G1 X76.591 Y74.732 E180.10497
G1 X76.084 Y75.238 E180.19510
G1 X80.825 Y79.979 E181.03885
G1 X80.282 Y80.449 E181.12921
G1 X75.578 Y75.744 E181.96652
G1 X75.071 Y76.251 E182.05664
G1 X79.740 Y80.919 E182.88751
G1 X79.197 Y81.389 E182.97787
G1 X74.565 Y76.757 E183.80230
G1 X74.059 Y77.263 E183.89243
G1 X78.655 Y81.859 E184.71041
G1 X78.112 Y82.329 E184.80077
G1 X73.552 Y77.770 E185.61232
G1 X73.046 Y78.276 E185.70245
G1 X77.573 Y82.803 E186.50814
G1 X77.055 Y83.298 E186.59829
G1 X72.540 Y78.783 E187.40199
G1 X72.033 Y79.289 E187.49212
G1 X76.538 Y83.793 E188.29383
G1 X76.020 Y84.289 E188.38398
G1 X71.527 Y79.795 E189.18370
G1 X71.020 Y80.302 E189.27382
G1 X75.495 Y84.776 E190.07021
G1 X74.989 Y85.283 E190.16034
G1 X70.514 Y80.808 E190.95673
G1 X70.008 Y81.314 E191.04685
G1 X74.482 Y85.789 E191.84324
G1 X73.976 Y86.295 E191.93337
G1 X69.501 Y81.821 E192.72976
G1 X68.995 Y82.327 E192.81989
G1 X73.469 Y86.802 E193.61627
G1 X72.963 Y87.308 E193.70640
G1 X68.489 Y82.834 E194.50279
G1 X67.982 Y83.340 E194.59292
G1 X72.457 Y87.814 E195.38931
G1 X71.950 Y88.321 E195.47943
G1 X67.476 Y83.846 E196.27582
G1 X66.969 Y84.353 E196.36595
G1 X71.444 Y88.827 E197.16234
G1 X70.938 Y89.334 E197.25246
G1 X66.463 Y84.859 E198.04885
G1 X65.957 Y85.365 E198.13898
G1 X70.431 Y89.840 E198.93537
G1 X69.925 Y90.346 E199.02550
G1 X65.450 Y85.872 E199.82189
G1 X64.944 Y86.378 E199.91201
G1 X69.418 Y90.853 E200.70840
G1 X68.912 Y91.359 E200.79853
G1 X64.438 Y86.885 E201.59492
G1 X63.931 Y87.391 E201.68504
G1 X68.406 Y91.865 E202.48143
G1 X67.899 Y92.372 E202.57156
G1 X63.425 Y87.897 E203.36795
G1 X62.919 Y88.404 E203.45807
G1 X67.393 Y92.878 E204.25446
G1 X66.887 Y93.385 E204.34459
G1 X62.412 Y88.910 E205.14098
G1 X61.906 Y89.416 E205.23111
G1 X66.380 Y93.891 E206.02750
G1 X65.874 Y94.397 E206.11762
G1 X61.399 Y89.923 E206.91401
G1 X60.893 Y90.429 E207.00414
G1 X65.368 Y94.904 E207.80053
G1 X64.861 Y95.410 E207.89065
G1 X60.387 Y90.936 E208.68704
G1 X59.880 Y91.442 E208.77717
G1 X64.355 Y95.916 E209.57356
G1 X63.848 Y96.423 E209.66369
G1 X59.374 Y91.948 E210.46007
G1 X58.868 Y92.455 E210.55020
G1 X63.342 Y96.929 E211.34659
G1 X62.836 Y97.435 E211.43672
G1 X58.361 Y92.961 E212.23311
G1 X57.855 Y93.467 E212.32323
G1 X62.329 Y97.942 E213.11962
G1 X61.823 Y98.448 E213.20975
G1 X57.348 Y93.974 E214.00614
G1 X56.842 Y94.480 E214.09626
G1 X61.317 Y98.955 E214.89265
G1 X60.810 Y99.461 E214.98278
G1 X56.336 Y94.986 E215.77917
G1 X55.829 Y95.493 E215.86930
G1 X60.304 Y99.967 E216.66568
G1 X59.797 Y100.474 E216.75581
G1 X55.323 Y95.999 E217.55220
G1 X54.817 Y96.506 E217.64233
G1 X59.291 Y100.980 E218.43872
G1 X58.785 Y101.486 E218.52884
G1 X54.310 Y97.012 E219.32523
G1 X53.804 Y97.518 E219.41536
G1 X58.278 Y101.993 E220.21175
G1 X57.772 Y102.499 E220.30187
G1 X53.297 Y98.025 E221.09826
G1 X52.791 Y98.531 E221.18839
G1 X57.266 Y103.006 E221.98478
G1 X56.759 Y103.512 E222.07490
G1 X52.285 Y99.037 E222.87129
G1 X51.778 Y99.544 E222.96142
G1 X56.253 Y104.018 E223.75781
G1 X55.746 Y104.525 E223.84794
G1 X51.272 Y100.050 E224.64432
G1 X50.766 Y100.557 E224.73445
G1 X55.240 Y105.031 E225.53084
G1 X54.734 Y105.537 E225.62097
G1 X50.259 Y101.063 E226.41736
G1 X49.753 Y101.569 E226.50748
G1 X54.227 Y106.044 E227.30387
G1 X53.721 Y106.550 E227.39400
G1 X49.246 Y102.076 E228.19039
G1 X48.740 Y102.582 E228.28051
G1 X53.215 Y107.057 E229.07690
G1 X52.708 Y107.563 E229.16703
G1 X48.234 Y103.088 E229.96342
G1 X47.727 Y103.595 E230.05354
G1 X52.202 Y108.069 E230.84993
G1 X51.695 Y108.576 E230.94006
G1 X47.221 Y104.101 E231.73645
G1 X46.715 Y104.608 E231.82658
G1 X51.189 Y109.082 E232.62296
G1 X50.683 Y109.588 E232.71309
G1 X46.208 Y105.114 E233.50948
G1 X45.702 Y105.620 E233.59961
G1 X50.176 Y110.095 E234.39600
G1 X49.670 Y110.601 E234.48612
G1 X45.195 Y106.127 E235.28251
G1 X44.689 Y106.633 E235.37264
G1 X49.164 Y111.108 E236.16903
G1 X48.657 Y111.614 E236.25915
G1 X44.183 Y107.139 E237.05554
G1 X43.676 Y107.646 E237.14567
G1 X48.151 Y112.120 E237.94206
G1 X47.644 Y112.627 E238.03218
G1 X43.170 Y108.152 E238.82857
G1 X42.664 Y108.659 E238.91870
G1 X47.138 Y113.133 E239.71509
G1 X46.632 Y113.639 E239.80521
G1 X42.157 Y109.165 E240.60160
G1 X41.651 Y109.671 E240.69173
G1 X46.125 Y114.146 E241.48812
G1 X45.619 Y114.652 E241.57825
G1 X41.145 Y110.178 E242.37463
G1 X40.638 Y110.684 E242.46476
G1 X45.113 Y115.159 E243.26115
G1 X44.606 Y115.665 E243.35128
G1 X40.132 Y111.190 E244.14767
G1 X39.625 Y111.697 E244.23779
G1 X44.100 Y116.171 E245.03418
G1 X43.594 Y116.678 E245.12431
G1 X39.119 Y112.203 E245.92070
G1 X38.613 Y112.710 E246.01082
G1 X43.087 Y117.184 E246.80721
G1 X42.581 Y117.690 E246.89734
G1 X38.106 Y113.216 E247.69373
G1 X37.600 Y113.722 E247.78385
G1 X42.074 Y118.197 E248.58024
G1 X41.568 Y118.703 E248.67037
G1 X37.094 Y114.229 E249.46676
G1 X36.587 Y114.735 E249.55688
G1 X41.062 Y119.209 E250.35327
G1 X40.555 Y119.716 E250.44340
G1 X36.081 Y115.241 E251.23979
G1 X35.574 Y115.748 E251.32991
G1 X40.049 Y120.222 E252.12630
G1 X39.543 Y120.729 E252.21643
G1 X35.068 Y116.254 E253.01282
G1 X34.562 Y116.760 E253.10295
G1 X39.036 Y121.235 E253.89933
G1 X38.530 Y121.741 E253.98946
G1 X34.055 Y117.267 E254.78585
G1 X33.549 Y117.773 E254.87598
G1 X38.023 Y122.248 E255.67236
G1 X37.514 Y122.751 E255.76249
G1 X33.043 Y118.280 E256.55842
G1 X32.625 Y118.875 E256.64993
G1 X36.907 Y123.157 E257.41205
G1 X36.229 Y123.491 E257.50726
G1 X32.291 Y119.554 E258.20803
G1 X32.170 Y120.445 E258.32123
G1 X35.337 Y123.613 E258.88502
G1 X33.510 Y122.798 F7800.000
G1 X32.985 Y122.273 E258.97855 F1080.000
G1 F1800.000 E257.97855
G92 E0
G1 X107.288 Y72.009 F7800.000
G1 E1.00000 F1800.000
G1 X93.301 Y58.021 E3.48952 F1080.000
G1 X93.807 Y57.515 E3.57965
G1 X109.990 Y73.697 E6.45986
G1 X118.711 Y78.368 F7800.000
G1 X95.833 Y55.489 E10.53189 F1080.000
G1 X96.339 Y54.983 E10.62201
G1 X118.711 Y77.355 E14.60392
G1 X118.711 Y76.343 E14.73138
G1 X96.845 Y54.477 E18.62316
G1 X97.352 Y53.970 E18.71328
G1 X118.711 Y75.330 E22.51494
G1 X118.711 Y74.317 E22.64240
G1 X97.858 Y53.464 E26.35392
G1 X98.365 Y52.958 E26.44405
G1 X118.711 Y73.304 E30.06545
G1 X118.711 Y72.292 E30.19291
G1 X98.871 Y52.451 E33.72418
G1 X99.377 Y51.945 E33.81431
G1 X118.711 Y71.279 E37.25545
G1 X118.711 Y70.266 E37.38291
G1 X99.884 Y51.438 E40.73393
G1 X100.390 Y50.932 E40.82406
G1 X118.711 Y69.253 E44.08495
G1 X118.711 Y68.241 E44.21241
G1 X100.896 Y50.426 E47.38318
G1 X101.403 Y49.919 E47.47331
G1 X118.711 Y67.228 E50.55395
G1 X118.711 Y66.215 E50.68140
G1 X101.909 Y49.413 E53.67192
G1 X102.416 Y48.907 E53.76205
G1 X118.711 Y65.202 E56.66244
G1 X118.711 Y64.190 E56.78989
G1 X102.922 Y48.400 E59.60016
G1 X103.428 Y47.894 E59.69028
G1 X118.711 Y63.177 E62.41042
G1 X118.711 Y62.164 E62.53788
G1 X103.935 Y47.388 E65.16789
G1 X104.441 Y46.881 E65.25801
G1 X118.711 Y61.151 E67.79790
G1 X118.711 Y60.139 E67.92535
G1 X104.947 Y46.375 E70.37511
G1 X105.454 Y45.868 E70.46524
G1 X118.711 Y59.126 E72.82487
G1 X118.711 Y58.113 E72.95233
G1 X105.960 Y45.362 E75.22183
G1 X106.467 Y44.856 E75.31196
G1 X118.711 Y57.100 E77.49133
G1 X118.711 Y56.088 E77.61879
G1 X106.973 Y44.349 E79.70804
G1 X107.479 Y43.843 E79.79817
G1 X118.711 Y55.075 E81.79729
G1 X118.711 Y54.062 E81.92475
G1 X107.986 Y43.337 E83.83375
G1 X108.492 Y42.830 E83.92388
G1 X118.711 Y53.049 E85.74275
G1 X118.711 Y52.037 E85.87021
G1 X108.998 Y42.324 E87.59895
G1 X109.505 Y41.817 E87.68908
G1 X118.711 Y51.024 E89.32770
G1 X118.711 Y50.011 E89.45516
G1 X110.011 Y41.311 E91.00365
G1 X110.517 Y40.805 E91.09377
G1 X118.711 Y48.998 E92.55214
G1 X118.711 Y47.986 E92.67960
G1 X111.024 Y40.298 E94.04784
G1 X111.530 Y39.792 E94.13797
G1 X118.711 Y46.973 E95.41608
G1 X118.711 Y45.960 E95.54354
G1 X112.037 Y39.286 E96.73152
G1 X112.543 Y38.779 E96.82165
G1 X118.711 Y44.947 E97.91951
G1 X118.711 Y43.935 E98.04697
G1 X113.049 Y38.273 E99.05470
G1 X113.556 Y37.766 E99.14483
G1 X118.711 Y42.922 E100.06244
G1 X118.711 Y41.909 E100.18990
G1 X114.062 Y37.260 E101.01738
G1 X114.658 Y36.843 E101.10889
G1 X118.711 Y40.897 E101.83037
G1 X118.711 Y39.884 E101.95783
G1 X115.336 Y36.509 E102.55851
G1 X116.228 Y36.387 E102.67170
G1 X118.711 Y38.871 E103.11377
G1 X118.711 Y37.858 E103.24123
G1 X118.055 Y37.202 E103.35801
G1 F1800.000 E102.35801
G92 E0
G1 Z0.750 F7800.000
G1 X128.816 Y87.059 F7800.000
G1 E1.00000 F1800.000
G1 X125.280 Y90.594 E1.30840 F1800.000
G1 X110.371 Y75.685 E2.60891
G1 X108.084 Y73.893 E2.78810
G1 X106.419 Y73.064 E2.90284
G1 X106.213 Y72.938 E2.91771
G1 X106.006 Y72.896 E2.93071
G1 X105.624 Y72.752 E2.95589
G1 X102.428 Y72.088 E3.15727
G1 X101.127 Y72.048 E3.23756
G1 X100.873 Y72.010 E3.25338
