; generated by Slic3r 1.2.9 on 2020-03-07 at 13:47:45

; external perimeters extrusion width = 0.35mm
; perimeters extrusion width = 0.44mm
; infill extrusion width = 0.44mm
; solid infill extrusion width = 0.44mm
; top infill extrusion width = 0.44mm

M107
M190 S100 ; set bed temperature
M104 S240 ; set temperature
G28 ; home all axes
G1 Z5 F5000 ; lift nozzle
M109 S240 ; wait for temperature to be reached
G21 ; set units to millimeters
G90 ; use absolute coordinates
M82 ; use absolute distances for extrusion
G92 E0
G1 E-1.00000 F1800.00000
G92 E0
G1 Z0.300 F7800.000
G1 X73.265 Y60.208 F7800.000
G1 E1.00000 F1800.00000
G1 X73.911 Y59.446 E1.03900 F1080.000
G1 X74.500 Y59.304 E1.06269
G1 X85.500 Y59.304 E1.49249
G1 X86.421 Y59.689 E1.53149
G1 X86.735 Y60.208 E1.55518
G1 X91.235 Y74.378 E2.13608
G1 X91.296 Y74.770 E2.15159
G1 X91.296 Y99.400 E3.11393
G1 X90.911 Y100.321 E3.15293
G1 X90.000 Y100.696 E3.19142
G1 X84.711 Y100.695 E3.39807
G1 X69.982 Y100.495 E3.97360
G1 X69.067 Y100.098 E4.01261
G1 X68.704 Y99.200 E4.05045
G1 X68.704 Y74.770 E5.00499
G1 X68.765 Y74.378 E5.02049
G1 X73.249 Y60.258 E5.59934
G1 E4.59934 F1800.00000
G92 E0
G1 X89.229 Y76.229 F7800.000
G1 E1.00000 F1800.00000
G1 X85.500 Y76.229 E1.14569 F270.000
G1 X85.500 Y75.541 E1.17255
G1 X89.229 Y75.541 E1.31824
G1 X89.229 Y76.176 E1.34306
G1 X89.524 Y76.524 F7800.000
G1 X85.204 Y76.524 E1.51185 F270.000
G1 X85.204 Y75.246 E1.56181
G1 X89.524 Y75.246 E1.73060
G1 X89.524 Y76.472 E1.77852
G1 X85.320 Y74.950 F7800.000
G1 X89.820 Y74.950 E1.95434 F540.000
G1 X89.820 Y76.820 E2.02741
G1 X84.909 Y76.820 E2.21930
G1 X84.909 Y60.780 E2.84601
G1 X85.320 Y60.780 E2.86208
G1 X85.320 Y74.898 E3.41368
G1 X85.320 Y75.300 F7800.000
G1 X85.114 Y75.098 F7800.000
G1 X85.114 Y60.928 E3.96733 F360.000
G1 E2.96733 F1800.00000
G92 E0
G1 X85.648 Y75.885 F7800.000
G1 E1.00000 F1800.00000
G1 X89.081 Y75.885 E1.29749 F360.000
G1 E0.29749 F1800.00000
G92 E0
G1 X74.500 Y75.541 F7800.000
G1 E1.00000 F1800.00000
G1 X74.500 Y76.029 E1.01905 F270.000
G1 X70.771 Y76.029 E1.16474
G1 X70.771 Y75.541 E1.18379
G1 X74.448 Y75.541 E1.32743
G1 X74.796 Y75.246 F7800.000
G1 X74.796 Y76.324 E1.36958 F270.000
G1 X70.476 Y76.324 E1.53837
G1 X70.476 Y75.246 E1.58052
G1 X74.743 Y75.246 E1.74726
G1 X74.680 Y74.950 F7800.000
G1 X74.680 Y60.780 E2.30091 F540.000
G1 X75.091 Y60.780 E2.31698
G1 X75.091 Y76.620 E2.93588
G1 X70.180 Y76.620 E3.12777
G1 X70.180 Y74.950 E3.19302
G1 X74.627 Y74.950 E3.36680
G1 X75.030 Y74.950 F7800.000
G1 X74.886 Y75.098 F7800.000
G1 X74.886 Y60.928 E3.92045 F360.000
G1 E2.92045 F1800.00000
G92 E0
G1 X74.352 Y75.785 F7800.000
G1 E1.00000 F1800.00000
G1 X70.919 Y75.785 E1.13414 F360.000
G1 E0.13414 F1800.00000
G92 E0
G1 Z0.300 F7800.000
G1 X85.500 Y97.941 F7800.000
G1 E1.00000 F1800.00000
G1 X89.229 Y97.941 E1.14569 F270.000
G1 X89.229 Y98.629 E1.17255
G1 X85.500 Y98.629 E1.31824
G1 X85.500 Y97.994 E1.34306
G1 X85.204 Y97.646 F7800.000
G1 X89.524 Y97.646 E1.51185 F270.000
G1 X89.524 Y98.924 E1.56181
G1 X85.204 Y98.924 E1.73060
G1 X85.204 Y97.698 E1.77852
G1 X85.320 Y97.350 F7800.000
G1 X89.820 Y97.350 E1.95434 F540.000
G1 X89.820 Y99.220 E2.02741
G1 X84.909 Y99.220 E2.21930
G1 X84.909 Y83.180 E2.84601
G1 X85.320 Y83.180 E2.86208
G1 X85.320 Y97.297 E3.41368
G1 X85.320 Y97.700 F7800.000
G1 X85.114 Y97.498 F7800.000
G1 X85.114 Y83.328 E3.96733 F360.000
G1 E2.96733 F1800.00000
G92 E0
G1 X85.648 Y98.285 F7800.000
G1 E1.00000 F1800.00000
G1 X89.081 Y98.285 E1.29749 F360.000
G1 E0.29749 F1800.00000
G92 E0
G1 X74.500 Y97.941 F7800.000
G1 E1.00000 F1800.00000
G1 X74.500 Y98.429 E1.01905 F270.000
G1 X70.771 Y98.429 E1.16474
G1 X70.771 Y97.941 E1.18379
G1 X74.448 Y97.941 E1.32743
G1 X74.796 Y97.646 F7800.000
G1 X74.796 Y98.724 E1.36958 F270.000
G1 X70.476 Y98.724 E1.53837
G1 X70.476 Y97.646 E1.58052
G1 X74.743 Y97.646 E1.74726
G1 X74.680 Y97.350 F7800.000
G1 X74.680 Y83.180 E2.30091 F540.000
G1 X75.091 Y83.180 E2.31698
G1 X75.091 Y99.020 E2.93588
G1 X70.180 Y99.020 E3.12777
G1 X70.180 Y97.350 E3.19302
G1 X74.627 Y97.350 E3.36680
G1 X75.030 Y97.350 F7800.000
G1 X74.886 Y97.498 F7800.000
G1 X74.886 Y83.328 E3.92045 F360.000
G1 E2.92045 F1800.00000
G92 E0
G1 X74.352 Y98.185 F7800.000
G1 E1.00000 F1800.00000
G1 X70.919 Y98.185 E1.13414 F360.000
M104 S250 ; set temperature
G1 E0.13414 F1800.00000
G92 E0
G1 Z0.550 F7800.000
G1 X85.470 Y75.615 F7800.000
G1 E1.00000 F1800.00000
G1 X89.100 Y75.615 E1.15385 F829.380
G1 X89.100 Y76.100 E1.17437
G1 X85.470 Y76.100 E1.32823
G1 X85.470 Y75.668 E1.34652
G1 X85.085 Y75.231 F7800.000
G1 X89.484 Y75.231 E1.53300 F829.380
G1 X89.484 Y76.484 E1.58614
G1 X85.085 Y76.484 E1.77262
G1 X85.085 Y75.283 E1.82354
G1 X85.325 Y74.890 F7800.000
G1 X89.825 Y74.890 E1.97042 F1658.759
G1 X89.825 Y76.825 E2.03358
G1 X84.744 Y76.825 E2.19942
G1 X84.744 Y60.775 E2.72330
G1 X85.325 Y60.775 E2.74224
G1 X85.325 Y74.838 E3.20125
G1 X85.325 Y75.240 F7800.000
G1 X85.035 Y75.060 F7800.000
G1 X85.035 Y60.945 E3.79955 F1105.840
G1 E2.79955 F1800.00000
G92 E0
G1 X85.662 Y75.858 F7800.000
G1 E1.00000 F1800.00000
G1 X88.907 Y75.858 E1.13754 F1105.840
G1 E0.13754 F1800.00000
G92 E0
G1 X74.530 Y75.615 F7800.000
G1 E1.00000 F1800.00000
G1 X74.530 Y75.900 E1.01204 F829.380
G1 X70.900 Y75.900 E1.16590
G1 X70.900 Y75.615 E1.17794
G1 X74.478 Y75.615 E1.32957
G1 X74.915 Y75.231 F7800.000
G1 X74.915 Y76.284 E1.37423 F829.380
G1 X70.516 Y76.284 E1.56071
G1 X70.516 Y75.231 E1.60538
G1 X74.862 Y75.231 E1.78963
G1 X74.675 Y74.890 F7800.000
G1 X74.675 Y60.775 E2.25035 F1658.759
G1 X75.256 Y60.775 E2.26930
G1 X75.256 Y76.625 E2.78665
G1 X70.175 Y76.625 E2.95249
G1 X70.175 Y74.890 E3.00912
G1 X74.622 Y74.890 E3.15429
G1 X75.025 Y74.890 F7800.000
G1 X74.965 Y75.060 F7800.000
G1 X74.965 Y60.945 E3.75258 F1105.840
G1 E2.75258 F1800.00000
G92 E0
G1 Z0.550 F7800.000
G1 X85.470 Y98.015 F7800.000
G1 E1.00000 F1800.00000
G1 X89.100 Y98.015 E1.15385 F829.380
G1 X89.100 Y98.500 E1.17437
G1 X85.470 Y98.500 E1.32823
G1 X85.470 Y98.068 E1.34652
G1 X85.085 Y97.631 F7800.000
G1 X89.484 Y97.631 E1.53300 F829.380
G1 X89.484 Y98.884 E1.58614
G1 X85.085 Y98.884 E1.77262
G1 X85.085 Y97.683 E1.82354
G1 X85.325 Y97.290 F7800.000
G1 X89.825 Y97.290 E1.97042 F1658.759
G1 X89.825 Y99.225 E2.03358
G1 X84.744 Y99.225 E2.19942
G1 X84.744 Y83.175 E2.72330
G1 X85.325 Y83.175 E2.74224
G1 X85.325 Y97.237 E3.20125
G1 X85.325 Y97.640 F7800.000
G1 X85.035 Y97.460 F7800.000
G1 X85.035 Y83.345 E3.79955 F1105.840
G1 E2.79955 F1800.00000
G92 E0
G1 X85.662 Y98.257 F7800.000
G1 E1.00000 F1800.00000
G1 X88.907 Y98.257 E1.13754 F1105.840
G1 E0.13754 F1800.00000
G92 E0
G1 X74.530 Y98.015 F7800.000
G1 E1.00000 F1800.00000
G1 X74.530 Y98.300 E1.01204 F829.380
G1 X70.900 Y98.300 E1.16590
G1 X70.900 Y98.015 E1.17794
G1 X74.478 Y98.015 E1.32957
G1 X74.915 Y97.631 F7800.000
G1 X74.915 Y98.684 E1.37423 F829.380
G1 X70.516 Y98.684 E1.56071
G1 X70.516 Y97.631 E1.60538
G1 X74.862 Y97.631 E1.78963
G1 X74.675 Y97.290 F7800.000
G1 X74.675 Y83.175 E2.25035 F1658.759
G1 X75.256 Y83.175 E2.26930
G1 X75.256 Y99.025 E2.78665
G1 X70.175 Y99.025 E2.95249
G1 X70.175 Y97.290 E3.00912
G1 X74.622 Y97.290 E3.15429
G1 X75.025 Y97.290 F7800.000
G1 X74.965 Y97.460 F7800.000
G1 X74.965 Y83.345 E3.75258 F1105.840
G1 E2.75258 F1800.00000
G92 E0
G1 Z0.800 F7800.000
G1 X85.325 Y75.565 F7800.000
G1 E1.00000 F1800.00000
G1 X89.100 Y75.565 E1.15999 F844.434
G1 X89.100 Y76.100 E1.18263
G1 X85.325 Y76.100 E1.34262
G1 X85.325 Y75.618 E1.36304
G1 X84.940 Y75.181 F7800.000
G1 X89.484 Y75.181 E1.55565 F844.434
G1 X89.484 Y76.484 E1.61092
G1 X84.940 Y76.484 E1.80353
G1 X84.940 Y75.233 E1.85657
G1 X85.325 Y74.840 F7800.000
G1 X89.825 Y74.840 E2.00346 F1688.868
G1 X89.825 Y76.825 E2.06825
G1 X84.600 Y76.825 E2.23881
G1 X84.600 Y60.775 E2.76269
G1 X85.325 Y60.775 E2.78636
G1 X85.325 Y74.788 E3.24374
G1 X85.325 Y75.190 F7800.000
G1 X84.962 Y75.010 F7800.000
G1 X84.962 Y60.945 E4.51921 F1125.912
G1 X85.517 Y75.832 F7800.000
G1 X88.907 Y75.832 E4.66289 F1125.912
G1 E3.66289 F1800.00000
G92 E0
G1 X74.675 Y75.565 F7800.000
G1 E1.00000 F1800.00000
G1 X74.675 Y75.900 E1.01416 F844.434
G1 X70.900 Y75.900 E1.17415
G1 X70.900 Y75.565 E1.18832
G1 X74.622 Y75.565 E1.34608
G1 X75.060 Y75.181 F7800.000
G1 X75.060 Y76.284 E1.39287 F844.434
G1 X70.516 Y76.284 E1.58549
G1 X70.516 Y75.181 E1.63227
G1 X75.007 Y75.181 E1.82266
G1 X74.675 Y74.840 F7800.000
G1 X74.675 Y60.775 E2.28175 F1688.868
G1 X75.400 Y60.775 E2.30543
G1 X75.400 Y76.625 E2.82278
G1 X70.175 Y76.625 E2.99334
G1 X70.175 Y74.840 E3.05160
G1 X74.622 Y74.840 E3.19677
G1 X75.025 Y74.840 F7800.000
G1 X75.038 Y75.010 F7800.000
G1 X75.038 Y60.945 E4.47224 F1125.912
G1 E3.47224 F1800.00000
G92 E0
G1 Z0.800 F7800.000
G1 X85.325 Y97.965 F7800.000
G1 E1.00000 F1800.00000
G1 X89.100 Y97.965 E1.15999 F844.434
G1 X89.100 Y98.500 E1.18263
G1 X85.325 Y98.500 E1.34262
G1 X85.325 Y98.018 E1.36304
G1 X84.940 Y97.581 F7800.000
G1 X89.484 Y97.581 E1.55565 F844.434
G1 X89.484 Y98.884 E1.61092
G1 X84.940 Y98.884 E1.80353
G1 X84.940 Y97.633 E1.85657
G1 X85.325 Y97.240 F7800.000
G1 X89.825 Y97.240 E2.00346 F1688.868
G1 X89.825 Y99.225 E2.06825
G1 X84.600 Y99.225 E2.23881
G1 X84.600 Y83.175 E2.76269
G1 X85.325 Y83.175 E2.78636
G1 X85.325 Y97.187 E3.24374
G1 X85.325 Y97.590 F7800.000
G1 X84.962 Y97.410 F7800.000
G1 X84.962 Y83.345 E4.51921 F1125.912
G1 X85.517 Y98.232 F7800.000
G1 X88.907 Y98.232 E4.66289 F1125.912
G1 E3.66289 F1800.00000
G92 E0
G1 X74.675 Y97.965 F7800.000
G1 E1.00000 F1800.00000
G1 X74.675 Y98.300 E1.01416 F844.434
G1 X70.900 Y98.300 E1.17415
G1 X70.900 Y97.965 E1.18832
G1 X74.622 Y97.965 E1.34608
G1 X75.060 Y97.581 F7800.000
G1 X75.060 Y98.684 E1.39287 F844.434
G1 X70.516 Y98.684 E1.58549
G1 X70.516 Y97.581 E1.63227
G1 X75.007 Y97.581 E1.82266
G1 X74.675 Y97.240 F7800.000
G1 X74.675 Y83.175 E2.28175 F1688.868
G1 X75.400 Y83.175 E2.30543
G1 X75.400 Y99.025 E2.82278
G1 X70.175 Y99.025 E2.99334
G1 X70.175 Y97.240 E3.05160
G1 X74.622 Y97.240 E3.19677
G1 X75.025 Y97.240 F7800.000
G1 X75.038 Y97.410 F7800.000
G1 X75.038 Y83.345 E4.47224 F1125.912
M106 S89.25
G1 E3.47224 F1800.00000
G92 E0
G1 Z1.050 F7800.000
G1 X85.180 Y75.515 F7800.000
G1 E1.00000 F1800.00000
G1 X89.100 Y75.515 E1.16613 F859.488
G1 X89.100 Y76.100 E1.19089
G1 X85.180 Y76.100 E1.35702
G1 X85.180 Y75.568 E1.37955
G1 X84.795 Y75.131 F7800.000
G1 X89.484 Y75.131 E1.57831 F859.488
G1 X89.484 Y76.484 E1.63569
G1 X84.795 Y76.484 E1.83445
G1 X84.795 Y75.183 E1.88961
G1 X85.325 Y74.790 F7800.000
G1 X89.825 Y74.790 E2.03649 F1718.976
G1 X89.825 Y76.825 E2.10291
G1 X84.455 Y76.825 E2.27820
G1 X84.455 Y60.775 E2.80208
G1 X85.325 Y60.775 E2.83048
G1 X85.325 Y74.738 E3.28622
G1 X85.325 Y75.140 F7800.000
G1 X84.890 Y74.960 F7800.000
G1 X84.890 Y60.945 E4.55716 F1145.984
G1 X85.373 Y75.807 F7800.000
G1 X88.907 Y75.808 E4.70697 F1145.984
G1 E3.70697 F1800.00000
G92 E0
G1 X74.820 Y75.515 F7800.000
G1 E1.00000 F1800.00000
G1 X74.820 Y75.900 E1.01628 F859.488
G1 X70.900 Y75.900 E1.18241
G1 X70.900 Y75.515 E1.19869
G1 X74.767 Y75.515 E1.36260
G1 X75.205 Y75.131 F7800.000
G1 X75.205 Y76.284 E1.41150 F859.488
G1 X70.516 Y76.284 E1.61026
G1 X70.516 Y75.131 E1.65917
G1 X75.152 Y75.131 E1.85570
G1 X74.675 Y74.790 F7800.000
G1 X74.675 Y60.775 E2.31315 F1718.976
G1 X75.545 Y60.775 E2.34155
G1 X75.545 Y76.625 E2.85891
G1 X70.175 Y76.625 E3.03419
G1 X70.175 Y74.790 E3.09409
G1 X74.622 Y74.790 E3.23926
G1 X75.025 Y74.790 F7800.000
G1 X75.110 Y74.960 F7800.000
G1 X75.110 Y60.945 E4.51019 F1145.984
G1 E3.51019 F1800.00000
G92 E0
G1 Z1.050 F7800.000
G1 X85.180 Y97.915 F7800.000
G1 E1.00000 F1800.00000
G1 X89.100 Y97.915 E1.16613 F859.488
G1 X89.100 Y98.500 E1.19089
G1 X85.180 Y98.500 E1.35702
G1 X85.180 Y97.968 E1.37955
G1 X84.795 Y97.531 F7800.000
G1 X89.484 Y97.531 E1.57831 F859.488
G1 X89.484 Y98.884 E1.63569
G1 X84.795 Y98.884 E1.83445
G1 X84.795 Y97.583 E1.88961
G1 X85.325 Y97.190 F7800.000
G1 X89.825 Y97.190 E2.03649 F1718.976
G1 X89.825 Y99.225 E2.10291
G1 X84.455 Y99.225 E2.27820
G1 X84.455 Y83.175 E2.80208
G1 X85.325 Y83.175 E2.83048
G1 X85.325 Y97.137 E3.28622
G1 X85.325 Y97.540 F7800.000
G1 X84.890 Y97.360 F7800.000
G1 X84.890 Y83.345 E4.55716 F1145.984
G1 X85.373 Y98.207 F7800.000
G1 X88.907 Y98.207 E4.70697 F1145.984
G1 E3.70697 F1800.00000
G92 E0
G1 X74.820 Y97.915 F7800.000
G1 E1.00000 F1800.00000
G1 X74.820 Y98.300 E1.01628 F859.488
G1 X70.900 Y98.300 E1.18241
G1 X70.900 Y97.915 E1.19869
G1 X74.767 Y97.915 E1.36260
G1 X75.205 Y97.531 F7800.000
G1 X75.205 Y98.684 E1.41150 F859.488
G1 X70.516 Y98.684 E1.61026
G1 X70.516 Y97.531 E1.65917
G1 X75.152 Y97.531 E1.85570
G1 X74.675 Y97.190 F7800.000
G1 X74.675 Y83.175 E2.31315 F1718.976
G1 X75.545 Y83.175 E2.34155
G1 X75.545 Y99.025 E2.85891
G1 X70.175 Y99.025 E3.03419
G1 X70.175 Y97.190 E3.09409
G1 X74.622 Y97.190 E3.23926
G1 X75.025 Y97.190 F7800.000
G1 X75.110 Y97.360 F7800.000
G1 X75.110 Y83.345 E4.51019 F1145.984
M106 S56.1
G1 E3.51019 F1800.00000
G92 E0
G1 Z1.300 F7800.000
G1 X85.035 Y75.465 F7800.000
G1 E1.00000 F1800.00000
G1 X88.778 Y75.465 E1.15862 F900.000
G1 X88.778 Y76.100 E1.18550
G1 X85.035 Y76.100 E1.34412
G1 X85.035 Y75.518 E1.36878
G1 X84.984 Y75.081 F7800.000
G1 X89.162 Y75.081 E1.54588 F900.000
G1 X89.162 Y76.484 E1.60538
G1 X84.651 Y76.484 E1.79663
G1 X84.651 Y61.116 E2.44807
G1 X84.984 Y61.116 E2.46222
G1 X84.984 Y75.028 E3.05194
G1 X85.325 Y74.740 F7800.000
G1 X89.503 Y74.740 E3.18831 F1800.000
G1 X89.503 Y76.825 E3.25637
G1 X84.310 Y76.825 E3.42587
G1 X84.310 Y60.775 E3.94975
G1 X85.325 Y60.775 E3.98288
G1 X85.325 Y74.688 E4.43700
G1 X85.325 Y75.090 F7800.000
G1 X85.228 Y75.782 F7800.000
G1 X88.585 Y75.782 E4.57931 F1200.000
G1 E3.57931 F1800.00000
G92 E0
G1 X74.965 Y75.465 F7800.000
G1 E1.00000 F1800.00000
G1 X74.965 Y75.900 E1.01840 F900.000
G1 X71.222 Y75.900 E1.17702
G1 X71.222 Y75.465 E1.19543
G1 X74.912 Y75.465 E1.35182
G1 X75.016 Y75.081 F7800.000
G1 X75.016 Y61.116 E1.94376 F900.000
G1 X75.349 Y61.116 E1.95791
G1 X75.349 Y76.284 E2.60088
G1 X70.838 Y76.284 E2.79213
G1 X70.838 Y75.081 E2.84316
G1 X74.963 Y75.081 E3.01803
G1 X74.675 Y74.740 F7800.000
G1 X74.675 Y60.775 E3.47385 F1800.000
G1 X75.690 Y60.775 E3.50698
G1 X75.690 Y76.625 E4.02434
G1 X70.497 Y76.625 E4.19384
G1 X70.497 Y74.740 E4.25537
G1 X74.622 Y74.740 E4.39003
G1 X75.025 Y74.740 F7800.000
G1 E3.39003 F1800.00000
G92 E0
G1 Z1.300 F7800.000
G1 X85.035 Y97.865 F7800.000
G1 E1.00000 F1800.00000
G1 X88.778 Y97.865 E1.15862 F900.000
G1 X88.778 Y98.500 E1.18550
G1 X85.035 Y98.500 E1.34412
G1 X85.035 Y97.918 E1.36878
G1 X84.984 Y97.481 F7800.000
G1 X89.162 Y97.481 E1.54588 F900.000
G1 X89.162 Y98.884 E1.60538
G1 X84.651 Y98.884 E1.79663
G1 X84.651 Y83.516 E2.44807
G1 X84.984 Y83.516 E2.46222
G1 X84.984 Y97.428 E3.05194
G1 X85.325 Y97.140 F7800.000
G1 X89.503 Y97.140 E3.18831 F1800.000
G1 X89.503 Y99.225 E3.25637
G1 X84.310 Y99.225 E3.42587
G1 X84.310 Y83.175 E3.94975
G1 X85.325 Y83.175 E3.98288
G1 X85.325 Y97.087 E4.43700
G1 X85.325 Y97.490 F7800.000
G1 X85.228 Y98.182 F7800.000
G1 X88.585 Y98.182 E4.57931 F1200.000
G1 E3.57931 F1800.00000
G92 E0
G1 X74.965 Y97.865 F7800.000
G1 E1.00000 F1800.00000
G1 X74.965 Y98.300 E1.01840 F900.000
G1 X71.222 Y98.300 E1.17702
G1 X71.222 Y97.865 E1.19543
G1 X74.912 Y97.865 E1.35182
G1 X75.016 Y97.481 F7800.000
G1 X75.016 Y83.516 E1.94376 F900.000
G1 X75.349 Y83.516 E1.95791
G1 X75.349 Y98.684 E2.60088
G1 X70.838 Y98.684 E2.79213
G1 X70.838 Y97.481 E2.84316
G1 X74.963 Y97.481 E3.01803
G1 X74.675 Y97.140 F7800.000
G1 X74.675 Y83.175 E3.47385 F1800.000
G1 X75.690 Y83.175 E3.50698
G1 X75.690 Y99.025 E4.02434
G1 X70.497 Y99.025 E4.19384
G1 X70.497 Y97.140 E4.25537
G1 X74.622 Y97.140 E4.39003
G1 X75.025 Y97.140 F7800.000
M107
G1 E3.39003 F1800.00000
G92 E0
G1 Z1.550 F7800.000
G1 X84.891 Y75.415 F7800.000
G1 E1.00000 F1800.00000
G1 X88.318 Y75.415 E1.14527 F900.000
G1 X88.318 Y76.100 E1.17427
G1 X84.891 Y76.100 E1.31953
G1 X84.891 Y75.468 E1.34631
G1 X84.984 Y75.031 F7800.000
G1 X88.703 Y75.031 E1.50391 F900.000
G1 X88.703 Y76.484 E1.56554
G1 X84.506 Y76.484 E1.74343
G1 X84.506 Y61.116 E2.39488
G1 X84.984 Y61.116 E2.41516
