; generated by Slic3r 1.2.9 on 2019-02-26 at 08:14:53

; external perimeters extrusion width = 0.35mm
; perimeters extrusion width = 0.37mm
; infill extrusion width = 0.37mm
; solid infill extrusion width = 0.37mm
; top infill extrusion width = 0.37mm

M107
M190 S90 ; set bed temperature
M104 S230 ; set temperature
G28 ; home all axes
G1 Z5 F5000 ; lift nozzle
M109 S230 ; wait for temperature to be reached
G21 ; set units to millimeters
G90 ; use absolute coordinates
M82 ; use absolute distances for extrusion
G92 E0
G1 E-1.00000 F1800.00000
G92 E0
G1 Z0.350 F7800.000
G1 X47.332 Y54.513 F7800.000
G1 E1.00000 F1800.00000
G1 X49.174 Y53.232 E1.11934 F1080.000
G1 X51.818 Y52.655 E1.26327
G1 X89.818 Y52.655 E3.28417
G1 X92.027 Y53.052 E3.40351
G1 X94.229 Y54.439 E3.54191
G1 X112.195 Y71.813 E4.87105
G1 X113.522 Y73.141 E4.97088
G1 X114.689 Y74.747 E5.07645
G1 X115.541 Y76.419 E5.17629
G1 X116.155 Y78.307 E5.28186
G1 X116.448 Y80.161 E5.38169
G1 X116.448 Y82.146 E5.48726
G1 X116.155 Y84.000 E5.58709
G1 X115.541 Y85.888 E5.69267
G1 X114.689 Y87.561 E5.79250
G1 X113.522 Y89.167 E5.89807
G1 X112.195 Y90.494 E5.99790
G1 X111.784 Y90.871 E6.02755
G1 X93.894 Y105.863 E7.26887
G1 X91.946 Y106.978 E7.38821
G1 X89.818 Y107.345 E7.50303
G1 X51.818 Y107.345 E9.52393
G1 X49.610 Y106.948 E9.64327
G1 X47.332 Y105.487 E9.78720
G1 X45.332 Y103.487 E9.93762
G1 X44.051 Y101.644 E10.05696
G1 X43.474 Y99.000 E10.20089
G1 X43.474 Y61.000 E12.22179
G1 X43.870 Y58.791 E12.34113
G1 X45.332 Y56.513 E12.48506
G1 X47.295 Y54.551 E12.63269
G1 E11.63269 F1800.00000
G92 E0
G1 X87.244 Y97.733 F7800.000
G1 E1.00000 F1800.00000
G1 X86.318 Y97.917 E1.05016 F270.000
G1 X85.393 Y97.733 E1.10032
G1 X84.609 Y97.209 E1.15049
G1 X84.085 Y96.425 E1.20065
G1 X83.901 Y95.500 E1.25081
G1 X84.085 Y94.575 E1.30097
G1 X84.609 Y93.791 E1.35113
G1 X85.393 Y93.267 E1.40130
G1 X86.318 Y93.083 E1.45146
G1 X87.244 Y93.267 E1.50162
G1 X88.028 Y93.791 E1.55178
G1 X88.552 Y94.575 E1.60194
G1 X88.736 Y95.500 E1.65211
G1 X88.552 Y96.425 E1.70227
G1 X88.028 Y97.209 E1.75243
G1 X87.287 Y97.704 E1.79980
G1 X87.109 Y97.409 F7800.000
G1 X86.318 Y97.566 E1.84267 F270.000
G1 X85.528 Y97.409 E1.88553
G1 X84.858 Y96.961 E1.92840
G1 X84.410 Y96.291 E1.97126
G1 X84.253 Y95.500 E2.01413
G1 X84.410 Y94.709 E2.05699
G1 X84.858 Y94.039 E2.09986
G1 X85.528 Y93.591 E2.14272
G1 X86.318 Y93.434 E2.18559
G1 X87.109 Y93.591 E2.22845
G1 X87.779 Y94.039 E2.27132
G1 X88.227 Y94.709 E2.31418
G1 X88.384 Y95.500 E2.35705
G1 X88.227 Y96.291 E2.39991
G1 X87.779 Y96.961 E2.44278
G1 X87.153 Y97.379 E2.48285
G1 X86.974 Y97.084 F7800.000
G1 X86.318 Y97.214 E2.51842 F270.000
G1 X85.663 Y97.084 E2.55399
G1 X85.106 Y96.712 E2.58956
G1 X84.735 Y96.156 E2.62513
G1 X84.604 Y95.500 E2.66070
G1 X84.735 Y94.844 E2.69626
G1 X85.106 Y94.288 E2.73183
G1 X85.663 Y93.916 E2.76740
G1 X86.318 Y93.786 E2.80297
G1 X86.974 Y93.916 E2.83854
G1 X87.531 Y94.288 E2.87411
G1 X87.902 Y94.844 E2.90967
G1 X88.033 Y95.500 E2.94524
G1 X87.902 Y96.156 E2.98081
G1 X87.531 Y96.712 E3.01638
G1 X87.018 Y97.054 E3.04916
G1 X86.906 Y97.427 F7800.000
G1 E2.04916 F1800.00000
G92 E0
G1 X65.462 Y91.781 F7800.000
G1 E1.00000 F1800.00000
G1 X64.396 Y93.377 E1.10204 F270.000
G1 X62.801 Y94.443 E1.20408
G1 X60.919 Y94.817 E1.30611
G1 X59.037 Y94.443 E1.40815
G1 X57.442 Y93.377 E1.51019
G1 X56.376 Y91.781 E1.61223
G1 X56.002 Y89.899 E1.71427
G1 X56.376 Y88.018 E1.81630
G1 X57.442 Y86.422 E1.91834
G1 X59.037 Y85.356 E2.02038
G1 X60.919 Y84.982 E2.12242
G1 X62.801 Y85.356 E2.22446
G1 X64.396 Y86.422 E2.32649
G1 X65.462 Y88.018 E2.42853
G1 X65.836 Y89.899 E2.53057
G1 X65.472 Y91.730 E2.62982
G1 X65.137 Y91.647 F7800.000
G1 X64.147 Y93.128 E2.72456 F270.000
G1 X62.666 Y94.118 E2.81930
G1 X60.919 Y94.465 E2.91404
G1 X59.172 Y94.118 E3.00878
G1 X57.690 Y93.128 E3.10352
G1 X56.701 Y91.647 E3.19826
G1 X56.353 Y89.899 E3.29300
G1 X56.701 Y88.152 E3.38774
G1 X57.690 Y86.671 E3.48249
G1 X59.172 Y85.681 E3.57723
G1 X60.919 Y85.334 E3.67197
G1 X62.666 Y85.681 E3.76671
G1 X64.147 Y86.671 E3.86145
G1 X65.137 Y88.152 E3.95619
G1 X65.485 Y89.899 E4.05093
G1 X65.147 Y91.595 E4.14288
G1 X64.812 Y91.512 F7800.000
G1 X63.899 Y92.879 E4.23033 F270.000
G1 X62.532 Y93.793 E4.31777
G1 X60.919 Y94.114 E4.40522
G1 X59.306 Y93.793 E4.49266
G1 X57.939 Y92.879 E4.58010
G1 X57.026 Y91.512 E4.66755
G1 X56.705 Y89.899 E4.75499
G1 X57.026 Y88.287 E4.84244
G1 X57.939 Y86.920 E4.92988
G1 X59.306 Y86.006 E5.01733
G1 X60.919 Y85.685 E5.10477
G1 X62.532 Y86.006 E5.19222
G1 X63.899 Y86.920 E5.27966
G1 X64.812 Y88.287 E5.36710
G1 X65.133 Y89.899 E5.45455
G1 X64.823 Y91.461 E5.53920
G1 X65.007 Y91.803 F7800.000
G1 E4.53920 F1800.00000
G92 E0
G1 X57.552 Y94.575 F7800.000
G1 E1.00000 F1800.00000
G1 X57.736 Y95.500 E1.05016 F270.000
G1 X57.552 Y96.425 E1.10032
G1 X57.028 Y97.209 E1.15049
G1 X56.244 Y97.733 E1.20065
G1 X55.318 Y97.917 E1.25081
G1 X54.393 Y97.733 E1.30097
G1 X53.609 Y97.209 E1.35113
G1 X53.085 Y96.425 E1.40130
G1 X52.901 Y95.500 E1.45146
G1 X53.085 Y94.575 E1.50162
G1 X53.609 Y93.791 E1.55178
G1 X54.393 Y93.267 E1.60195
G1 X55.318 Y93.083 E1.65211
G1 X56.244 Y93.267 E1.70227
G1 X57.028 Y93.791 E1.75243
G1 X57.523 Y94.531 E1.79980
G1 X57.227 Y94.709 F7800.000
G1 X57.384 Y95.500 E1.84267 F270.000
G1 X57.227 Y96.291 E1.88553
G1 X56.779 Y96.961 E1.92840
G1 X56.109 Y97.409 E1.97126
G1 X55.318 Y97.566 E2.01413
G1 X54.528 Y97.409 E2.05699
G1 X53.858 Y96.961 E2.09986
G1 X53.410 Y96.291 E2.14272
G1 X53.253 Y95.500 E2.18559
G1 X53.410 Y94.709 E2.22845
G1 X53.858 Y94.039 E2.27132
G1 X54.528 Y93.591 E2.31418
G1 X55.318 Y93.434 E2.35705
G1 X56.109 Y93.591 E2.39992
G1 X56.779 Y94.039 E2.44278
G1 X57.198 Y94.666 E2.48285
G1 X56.902 Y94.844 F7800.000
G1 X57.033 Y95.500 E2.51842 F270.000
G1 X56.902 Y96.156 E2.55399
G1 X56.531 Y96.712 E2.58956
G1 X55.974 Y97.084 E2.62513
G1 X55.318 Y97.214 E2.66070
G1 X54.663 Y97.084 E2.69626
G1 X54.106 Y96.712 E2.73183
G1 X53.735 Y96.156 E2.76740
G1 X53.604 Y95.500 E2.80297
G1 X53.735 Y94.844 E2.83854
G1 X54.106 Y94.288 E2.87411
G1 X54.663 Y93.916 E2.90968
G1 X55.318 Y93.786 E2.94524
G1 X55.974 Y93.916 E2.98081
G1 X56.531 Y94.288 E3.01638
G1 X56.873 Y94.800 E3.04916
G1 X57.245 Y94.912 F7800.000
G1 E2.04916 F1800.00000
G92 E0
G1 X60.919 Y75.018 F7800.000
G1 E1.00000 F1800.00000
G1 X59.037 Y74.644 E1.10204 F270.000
G1 X57.442 Y73.578 E1.20408
G1 X56.376 Y71.982 E1.30611
G1 X56.002 Y70.101 E1.40815
G1 X56.376 Y68.219 E1.51019
G1 X57.442 Y66.623 E1.61223
G1 X59.037 Y65.557 E1.71427
G1 X60.919 Y65.183 E1.81630
G1 X62.801 Y65.557 E1.91834
G1 X64.396 Y66.623 E2.02038
G1 X65.462 Y68.219 E2.12242
G1 X65.836 Y70.101 E2.22446
G1 X65.462 Y71.982 E2.32649
G1 X64.396 Y73.578 E2.42853
G1 X62.801 Y74.644 E2.53057
G1 X60.970 Y75.008 E2.62982
G1 X60.919 Y74.666 F7800.000
G1 X59.172 Y74.319 E2.72456 F270.000
G1 X57.690 Y73.329 E2.81930
G1 X56.701 Y71.848 E2.91404
G1 X56.353 Y70.101 E3.00878
G1 X56.701 Y68.353 E3.10352
G1 X57.690 Y66.872 E3.19826
G1 X59.172 Y65.882 E3.29300
G1 X60.919 Y65.535 E3.38774
G1 X62.666 Y65.882 E3.48249
G1 X64.147 Y66.872 E3.57723
G1 X65.137 Y68.353 E3.67197
G1 X65.485 Y70.101 E3.76671
G1 X65.137 Y71.848 E3.86145
G1 X64.147 Y73.329 E3.95619
G1 X62.666 Y74.319 E4.05093
G1 X60.970 Y74.656 E4.14288
G1 X60.919 Y74.315 F7800.000
G1 X59.306 Y73.994 E4.23033 F270.000
G1 X57.939 Y73.080 E4.31777
G1 X57.026 Y71.713 E4.40522
G1 X56.705 Y70.101 E4.49266
G1 X57.026 Y68.488 E4.58010
G1 X57.939 Y67.121 E4.66755
G1 X59.306 Y66.207 E4.75499
G1 X60.919 Y65.886 E4.84244
G1 X62.532 Y66.207 E4.92988
G1 X63.899 Y67.121 E5.01733
G1 X64.812 Y68.488 E5.10477
G1 X65.133 Y70.101 E5.19221
G1 X64.812 Y71.713 E5.27966
G1 X63.899 Y73.080 E5.36710
G1 X62.532 Y73.994 E5.45455
G1 X60.970 Y74.304 E5.53920
G1 X60.725 Y74.606 F7800.000
G1 E4.53920 F1800.00000
G92 E0
G1 X56.244 Y66.733 F7800.000
G1 E1.00000 F1800.00000
G1 X55.318 Y66.917 E1.05016 F270.000
G1 X54.393 Y66.733 E1.10032
G1 X53.609 Y66.209 E1.15049
G1 X53.085 Y65.425 E1.20065
G1 X52.901 Y64.500 E1.25081
G1 X53.085 Y63.575 E1.30097
G1 X53.609 Y62.791 E1.35113
G1 X54.393 Y62.267 E1.40130
G1 X55.318 Y62.083 E1.45146
G1 X56.244 Y62.267 E1.50162
G1 X57.028 Y62.791 E1.55178
G1 X57.552 Y63.575 E1.60194
G1 X57.736 Y64.500 E1.65211
G1 X57.552 Y65.425 E1.70227
G1 X57.028 Y66.209 E1.75243
G1 X56.287 Y66.704 E1.79980
G1 X56.109 Y66.409 F7800.000
G1 X55.318 Y66.566 E1.84267 F270.000
G1 X54.528 Y66.409 E1.88553
G1 X53.858 Y65.961 E1.92840
G1 X53.410 Y65.291 E1.97126
G1 X53.253 Y64.500 E2.01413
G1 X53.410 Y63.709 E2.05699
G1 X53.858 Y63.039 E2.09986
G1 X54.528 Y62.591 E2.14272
G1 X55.318 Y62.434 E2.18559
G1 X56.109 Y62.591 E2.22845
G1 X56.779 Y63.039 E2.27132
G1 X57.227 Y63.709 E2.31418
G1 X57.384 Y64.500 E2.35705
G1 X57.227 Y65.291 E2.39991
G1 X56.779 Y65.961 E2.44278
G1 X56.153 Y66.379 E2.48285
G1 X55.974 Y66.084 F7800.000
G1 X55.318 Y66.214 E2.51842 F270.000
G1 X54.663 Y66.084 E2.55399
G1 X54.106 Y65.712 E2.58956
G1 X53.735 Y65.156 E2.62513
G1 X53.604 Y64.500 E2.66070
G1 X53.735 Y63.844 E2.69626
G1 X54.106 Y63.288 E2.73183
G1 X54.663 Y62.916 E2.76740
G1 X55.318 Y62.786 E2.80297
G1 X55.974 Y62.916 E2.83854
G1 X56.531 Y63.288 E2.87411
G1 X56.902 Y63.844 E2.90968
G1 X57.033 Y64.500 E2.94524
G1 X56.902 Y65.156 E2.98081
G1 X56.531 Y65.712 E3.01638
G1 X56.018 Y66.054 E3.04916
G1 X55.906 Y66.427 F7800.000
G1 E2.04916 F1800.00000
G92 E0
G1 X77.048 Y73.600 F7800.000
G1 E1.00000 F1800.00000
G1 X77.175 Y73.480 E1.00930 F540.000
G1 X76.175 Y71.982 E1.10506
G1 X75.801 Y70.101 E1.20710
G1 X76.175 Y68.219 E1.30914
G1 X77.241 Y66.623 E1.41118
G1 X78.836 Y65.557 E1.51321
G1 X80.718 Y65.183 E1.61525
G1 X82.600 Y65.557 E1.71729
G1 X84.195 Y66.623 E1.81933
G1 X85.261 Y68.219 E1.92137
G1 X85.635 Y70.101 E2.02340
G1 X85.261 Y71.982 E2.12544
G1 X84.195 Y73.578 E2.22748
G1 X82.600 Y74.644 E2.32952
G1 X80.718 Y75.018 E2.43155
G1 X78.836 Y74.644 E2.53359
G1 X77.609 Y73.824 E2.61208
G1 X77.489 Y73.940 E2.62095
G1 X79.225 Y76.743 E2.79632
G1 X79.834 Y80.000 E2.97252
G1 X79.225 Y83.257 E3.14872
G1 X77.489 Y86.060 E3.32409
G1 X77.609 Y86.176 E3.33296
G1 X78.836 Y85.356 E3.41144
G1 X80.718 Y84.982 E3.51348
G1 X82.600 Y85.356 E3.61552
G1 X84.195 Y86.422 E3.71756
G1 X85.261 Y88.018 E3.81959
G1 X85.635 Y89.899 E3.92163
G1 X85.261 Y91.781 E4.02367
G1 X84.195 Y93.377 E4.12571
G1 X82.600 Y94.443 E4.22775
G1 X80.718 Y94.817 E4.32978
G1 X78.836 Y94.443 E4.43182
G1 X77.241 Y93.377 E4.53386
G1 X76.175 Y91.781 E4.63590
G1 X75.801 Y89.899 E4.73794
G1 X76.175 Y88.018 E4.83997
G1 X77.175 Y86.520 E4.93574
G1 X77.048 Y86.400 E4.94504
G1 X74.837 Y88.070 E5.09239
G1 X71.650 Y88.977 E5.26859
G1 X68.351 Y88.671 E5.44479
G1 X65.385 Y87.194 E5.62098
G1 X63.153 Y84.746 E5.79718
G1 X61.957 Y81.657 E5.97338
G1 X61.957 Y78.343 E6.14958
G1 X63.153 Y75.254 E6.32577
G1 X65.385 Y72.806 E6.50197
G1 X68.351 Y71.329 E6.67817
G1 X71.650 Y71.023 E6.85436
G1 X74.837 Y71.930 E7.03056
G1 X77.006 Y73.568 E7.17512
G1 E6.17512 F1800.00000
G92 E0
G1 X78.971 Y85.681 F7800.000
G1 E1.00000 F1800.00000
G1 X80.718 Y85.334 E1.09474 F270.000
G1 X82.465 Y85.681 E1.18948
G1 X83.946 Y86.671 E1.28422
G1 X84.936 Y88.152 E1.37896
G1 X85.284 Y89.899 E1.47371
G1 X84.936 Y91.647 E1.56845
G1 X83.946 Y93.128 E1.66319
G1 X82.465 Y94.118 E1.75793
G1 X80.718 Y94.465 E1.85267
G1 X78.971 Y94.118 E1.94741
G1 X77.489 Y93.128 E2.04215
G1 X76.500 Y91.647 E2.13689
G1 X76.152 Y89.899 E2.23164
G1 X76.500 Y88.152 E2.32638
G1 X77.489 Y86.671 E2.42112
G1 X78.927 Y85.710 E2.51307
G1 X79.105 Y86.006 F7800.000
G1 X80.718 Y85.685 E2.60051 F270.000
G1 X82.331 Y86.006 E2.68796
G1 X83.698 Y86.920 E2.77540
G1 X84.611 Y88.287 E2.86284
G1 X84.932 Y89.899 E2.95029
G1 X84.611 Y91.512 E3.03773
G1 X83.698 Y92.879 E3.12518
G1 X82.331 Y93.793 E3.21262
G1 X80.718 Y94.114 E3.30007
G1 X79.105 Y93.793 E3.38751
G1 X77.738 Y92.879 E3.47496
G1 X76.825 Y91.512 E3.56240
G1 X76.504 Y89.899 E3.64984
G1 X76.825 Y88.287 E3.73729
G1 X77.738 Y86.920 E3.82473
G1 X79.062 Y86.035 E3.90938
G1 X79.174 Y85.663 F7800.000
G1 X77.222 Y85.837 F7800.000
G1 X74.681 Y87.756 E4.07872 F540.000
G1 X71.618 Y88.628 E4.24806
G1 X68.447 Y88.334 E4.41740
G1 X65.597 Y86.914 E4.58674
G1 X63.452 Y84.561 E4.75609
G1 X62.301 Y81.592 E4.92542
G1 X62.301 Y78.408 E5.09477
G1 X63.452 Y75.439 E5.26411
G1 X65.597 Y73.086 E5.43345
G1 X68.447 Y71.666 E5.60279
G1 X71.618 Y71.372 E5.77213
G1 X74.681 Y72.244 E5.94147
G1 X77.222 Y74.163 E6.11081
G1 X78.898 Y76.870 E6.28015
G1 X79.483 Y80.000 E6.44949
G1 X78.898 Y83.130 E6.61883
G1 X77.249 Y85.793 E6.78537
G1 X76.962 Y85.601 F7800.000
G1 X74.524 Y87.442 E6.94786 F324.000
G1 X71.586 Y88.278 E7.11034
G1 X68.543 Y87.996 E7.27282
G1 X65.808 Y86.634 E7.43530
G1 X63.750 Y84.377 E7.59779
G1 X62.646 Y81.528 E7.76027
G1 X62.646 Y78.472 E7.92275
G1 X63.750 Y75.623 E8.08524
G1 X65.808 Y73.366 E8.24772
G1 X68.543 Y72.004 E8.41020
G1 X71.586 Y71.722 E8.57268
G1 X74.524 Y72.558 E8.73517
G1 X76.962 Y74.399 E8.89765
G1 X78.571 Y76.997 E9.06013
G1 X79.132 Y80.000 E9.22262
G1 X78.571 Y83.003 E9.38510
G1 X76.990 Y85.556 E9.54479
G1 X77.048 Y85.940 F7800.000
G1 E8.54479 F1800.00000
G92 E0
G1 X78.971 Y74.319 F7800.000
G1 E1.00000 F1800.00000
G1 X77.489 Y73.329 E1.09474 F270.000
G1 X76.500 Y71.848 E1.18948
G1 X76.152 Y70.101 E1.28422
G1 X76.500 Y68.353 E1.37896
G1 X77.489 Y66.872 E1.47371
G1 X78.971 Y65.882 E1.56845
G1 X80.718 Y65.535 E1.66319
G1 X82.465 Y65.882 E1.75793
G1 X83.946 Y66.872 E1.85267
G1 X84.936 Y68.353 E1.94741
G1 X85.284 Y70.101 E2.04215
G1 X84.936 Y71.848 E2.13689
G1 X83.946 Y73.329 E2.23163
G1 X82.465 Y74.319 E2.32638
G1 X80.718 Y74.666 E2.42112
G1 X79.022 Y74.329 E2.51307
G1 X79.105 Y73.994 F7800.000
G1 X77.738 Y73.080 E2.60051 F270.000
G1 X76.825 Y71.713 E2.68796
G1 X76.504 Y70.101 E2.77540
G1 X76.825 Y68.488 E2.86284
G1 X77.738 Y67.121 E2.95029
G1 X79.105 Y66.207 E3.03773
G1 X80.718 Y65.886 E3.12518
G1 X82.331 Y66.207 E3.21262
G1 X83.698 Y67.121 E3.30007
G1 X84.611 Y68.488 E3.38751
G1 X84.932 Y70.101 E3.47495
G1 X84.611 Y71.713 E3.56240
G1 X83.698 Y73.080 E3.64984
G1 X82.331 Y73.994 E3.73729
G1 X80.718 Y74.315 E3.82473
G1 X79.157 Y74.004 E3.90938
G1 X78.814 Y74.188 F7800.000
G1 E2.90938 F1800.00000
G92 E0
G1 X84.609 Y66.209 F7800.000
G1 E1.00000 F1800.00000
G1 X84.085 Y65.425 E1.05016 F270.000
G1 X83.901 Y64.500 E1.10032
G1 X84.085 Y63.575 E1.15049
G1 X84.609 Y62.791 E1.20065
G1 X85.393 Y62.267 E1.25081
G1 X86.318 Y62.083 E1.30097
G1 X87.244 Y62.267 E1.35113
G1 X88.028 Y62.791 E1.40130
G1 X88.552 Y63.575 E1.45146
G1 X88.736 Y64.500 E1.50162
G1 X88.552 Y65.425 E1.55178
G1 X88.028 Y66.209 E1.60194
G1 X87.244 Y66.733 E1.65211
G1 X86.318 Y66.917 E1.70227
G1 X85.393 Y66.733 E1.75243
G1 X84.653 Y66.239 E1.79980
G1 X84.858 Y65.961 F7800.000
G1 X84.410 Y65.291 E1.84267 F270.000
G1 X84.253 Y64.500 E1.88553
G1 X84.410 Y63.709 E1.92840
G1 X84.858 Y63.039 E1.97126
G1 X85.528 Y62.591 E2.01413
G1 X86.318 Y62.434 E2.05699
G1 X87.109 Y62.591 E2.09986
G1 X87.779 Y63.039 E2.14272
G1 X88.227 Y63.709 E2.18559
G1 X88.384 Y64.500 E2.22845
G1 X88.227 Y65.291 E2.27132
G1 X87.779 Y65.961 E2.31418
G1 X87.109 Y66.409 E2.35705
G1 X86.318 Y66.566 E2.39991
G1 X85.528 Y66.409 E2.44278
G1 X84.901 Y65.990 E2.48285
G1 X85.106 Y65.712 F7800.000
G1 X84.735 Y65.156 E2.51842 F270.000
G1 X84.604 Y64.500 E2.55399
G1 X84.735 Y63.844 E2.58956
G1 X85.106 Y63.288 E2.62513
G1 X85.663 Y62.916 E2.66070
G1 X86.318 Y62.786 E2.69626
G1 X86.974 Y62.916 E2.73183
G1 X87.531 Y63.288 E2.76740
G1 X87.902 Y63.844 E2.80297
G1 X88.033 Y64.500 E2.83854
G1 X87.902 Y65.156 E2.87411
G1 X87.531 Y65.712 E2.90967
G1 X86.974 Y66.084 E2.94524
G1 X86.318 Y66.214 E2.98081
G1 X85.663 Y66.084 E3.01638
G1 X85.150 Y65.741 E3.04916
G1 X84.763 Y65.780 F7800.000
G1 E2.04916 F1800.00000
G92 E0
G1 X90.919 Y61.373 F7800.000
G1 E1.00000 F1800.00000
G1 X90.919 Y98.627 E2.98125 F540.000
G1 X89.446 Y100.100 E3.09203
G1 X52.191 Y100.100 E5.07329
G1 X50.718 Y98.627 E5.18406
G1 X50.718 Y61.373 E7.16532
G1 X52.191 Y59.900 E7.27610
G1 X89.446 Y59.900 E9.25735
G1 X90.882 Y61.336 E9.36534
G1 X91.264 Y61.230 F7800.000
G1 X91.264 Y98.770 E11.36178 F540.000
G1 X89.589 Y100.445 E11.48776
G1 X52.048 Y100.445 E13.48420
