; generated by Slic3r 1.2.9 on 2019-01-01 at 19:13:01

; external perimeters extrusion width = 0.35mm
; perimeters extrusion width = 0.39mm
; infill extrusion width = 0.39mm
; solid infill extrusion width = 0.39mm
; top infill extrusion width = 0.39mm

M107
M190 S90 ; set bed temperature
M104 S230 ; set temperature
G28 ; home all axes
G1 Z5 F5000 ; lift nozzle
M109 S230 ; wait for temperature to be reached
G21 ; set units to millimeters
G90 ; use absolute coordinates
M82 ; use absolute distances for extrusion
G92 E0
G1 E-1.00000 F1800.00000
G92 E0
G1 Z0.350 F7800.000
G1 X54.310 Y56.061 F7800.000
G1 E1.00000 F1800.00000
G1 X56.061 Y54.310 E1.13166 F1080.000
G1 X56.710 Y53.876 E1.17320
G1 X58.996 Y52.930 E1.30475
G1 X59.763 Y52.777 E1.34636
G1 X61.000 Y52.655 E1.41247
G1 X99.000 Y52.655 E3.43336
G1 X100.236 Y52.777 E3.49941
G1 X101.003 Y52.929 E3.54101
G1 X103.290 Y53.877 E3.67267
G1 X103.939 Y54.310 E3.71417
G1 X105.689 Y56.060 E3.84580
G1 X106.123 Y56.710 E3.88733
G1 X107.071 Y58.997 E4.01899
G1 X107.223 Y59.763 E4.06053
G1 X107.345 Y61.000 E4.12664
G1 X107.345 Y99.000 E6.14753
G1 X107.223 Y100.237 E6.21363
G1 X107.071 Y101.003 E6.25518
G1 X106.123 Y103.290 E6.38684
G1 X105.690 Y103.939 E6.42834
G1 X103.939 Y105.690 E6.56001
G1 X103.290 Y106.123 E6.60151
G1 X101.003 Y107.071 E6.73316
G1 X100.236 Y107.223 E6.77477
G1 X99.000 Y107.345 E6.84081
G1 X61.000 Y107.345 E8.86171
G1 X59.763 Y107.223 E8.92782
G1 X58.997 Y107.071 E8.96935
G1 X56.710 Y106.123 E9.10101
G1 X56.061 Y105.690 E9.14251
G1 X54.310 Y103.939 E9.27417
G1 X53.877 Y103.290 E9.31568
G1 X52.929 Y101.003 E9.44733
G1 X52.777 Y100.237 E9.48889
G1 X52.655 Y99.000 E9.55498
G1 X52.655 Y61.000 E11.57588
G1 X52.777 Y59.763 E11.64199
G1 X52.929 Y58.997 E11.68352
G1 X53.876 Y56.710 E11.81514
G1 X54.281 Y56.104 E11.85389
G1 E10.85389 F1800.00000
G92 E0
G1 X97.209 Y97.209 F7800.000
G1 E1.00000 F1800.00000
G1 X96.425 Y97.733 E1.05016 F270.000
G1 X95.500 Y97.917 E1.10032
G1 X94.575 Y97.733 E1.15049
G1 X93.791 Y97.209 E1.20065
G1 X93.267 Y96.425 E1.25081
G1 X93.083 Y95.500 E1.30097
G1 X93.267 Y94.575 E1.35113
G1 X93.791 Y93.791 E1.40130
G1 X94.575 Y93.267 E1.45146
G1 X95.500 Y93.083 E1.50162
G1 X96.425 Y93.267 E1.55178
G1 X97.209 Y93.791 E1.60194
G1 X97.733 Y94.575 E1.65211
G1 X97.917 Y95.500 E1.70227
G1 X97.733 Y96.425 E1.75243
G1 X97.239 Y97.166 E1.79980
G1 X96.961 Y96.961 F7800.000
G1 X96.291 Y97.409 E1.84267 F270.000
G1 X95.500 Y97.566 E1.88553
G1 X94.709 Y97.409 E1.92840
G1 X94.039 Y96.961 E1.97126
G1 X93.591 Y96.291 E2.01413
G1 X93.434 Y95.500 E2.05699
G1 X93.591 Y94.709 E2.09986
G1 X94.039 Y94.039 E2.14272
G1 X94.709 Y93.591 E2.18559
G1 X95.500 Y93.434 E2.22845
G1 X96.291 Y93.591 E2.27132
G1 X96.961 Y94.039 E2.31418
G1 X97.409 Y94.709 E2.35705
G1 X97.566 Y95.500 E2.39991
G1 X97.409 Y96.291 E2.44278
G1 X96.990 Y96.917 E2.48285
G1 X96.712 Y96.712 F7800.000
G1 X96.156 Y97.084 E2.51842 F270.000
G1 X95.500 Y97.214 E2.55399
G1 X94.844 Y97.084 E2.58956
G1 X94.288 Y96.712 E2.62513
G1 X93.916 Y96.156 E2.66070
G1 X93.786 Y95.500 E2.69626
G1 X93.916 Y94.844 E2.73183
G1 X94.288 Y94.288 E2.76740
G1 X94.844 Y93.916 E2.80297
G1 X95.500 Y93.786 E2.83854
G1 X96.156 Y93.916 E2.87411
G1 X96.712 Y94.288 E2.90968
G1 X97.084 Y94.844 E2.94524
G1 X97.214 Y95.500 E2.98081
G1 X97.084 Y96.156 E3.01638
G1 X96.741 Y96.668 E3.04916
G1 X96.780 Y97.055 F7800.000
G1 E2.04916 F1800.00000
G92 E0
G1 X85.237 Y89.499 F7800.000
G1 E1.00000 F1800.00000
G1 X84.856 Y89.774 E1.02499 F540.000
G1 X81.007 Y90.869 E1.23779
G1 X77.013 Y90.499 E1.45112
G1 X74.737 Y89.365 E1.58635
G1 X74.843 Y89.899 E1.61532
G1 X74.482 Y91.714 E1.71373
G1 X73.454 Y93.253 E1.81214
G1 X71.915 Y94.281 E1.91054
G1 X70.101 Y94.642 E2.00895
G1 X68.286 Y94.281 E2.10736
G1 X66.747 Y93.253 E2.20576
G1 X65.719 Y91.714 E2.30417
G1 X65.358 Y89.899 E2.40258
G1 X65.719 Y88.085 E2.50098
G1 X66.747 Y86.546 E2.59939
G1 X68.286 Y85.518 E2.69780
G1 X70.101 Y85.157 E2.79620
G1 X70.524 Y85.241 E2.81916
G1 X69.270 Y82.006 E3.00370
G1 X69.270 Y77.994 E3.21703
G1 X70.524 Y74.759 E3.40157
G1 X70.101 Y74.843 E3.42453
G1 X68.286 Y74.482 E3.52294
G1 X66.747 Y73.454 E3.62135
G1 X65.719 Y71.915 E3.71975
G1 X65.359 Y70.103 E3.81804
G1 X65.708 Y68.303 E3.91555
G1 X66.747 Y66.747 E4.01505
G1 X68.286 Y65.719 E4.11345
G1 X69.851 Y65.408 E4.19835
G1 X70.101 Y65.358 E4.21186
G1 X71.915 Y65.719 E4.31027
G1 X73.454 Y66.747 E4.40867
G1 X74.482 Y68.286 E4.50708
G1 X74.843 Y70.101 E4.60549
G1 X74.737 Y70.635 E4.63446
G1 X77.013 Y69.501 E4.76969
G1 X81.007 Y69.131 E4.98302
G1 X84.856 Y70.226 E5.19582
G1 X85.237 Y70.501 E5.22081
G1 X85.157 Y70.101 E5.24254
G1 X85.518 Y68.286 E5.34095
G1 X86.546 Y66.747 E5.43936
G1 X88.085 Y65.719 E5.53776
G1 X89.884 Y65.361 E5.63532
G1 X91.713 Y65.718 E5.73443
G1 X93.253 Y66.747 E5.83293
G1 X94.281 Y68.286 E5.93133
G1 X94.642 Y70.101 E6.02974
G1 X94.281 Y71.915 E6.12815
G1 X93.253 Y73.454 E6.22655
G1 X91.714 Y74.482 E6.32496
G1 X89.899 Y74.843 E6.42337
G1 X89.360 Y74.736 E6.45261
G1 X90.178 Y76.057 E6.53526
G1 X90.915 Y80.000 E6.74859
G1 X90.178 Y83.943 E6.96192
G1 X89.360 Y85.264 E7.04457
G1 X89.899 Y85.157 E7.07381
G1 X91.714 Y85.518 E7.17222
G1 X93.253 Y86.546 E7.27062
G1 X94.281 Y88.085 E7.36903
G1 X94.642 Y89.899 E7.46744
G1 X94.281 Y91.714 E7.56584
G1 X93.253 Y93.253 E7.66425
G1 X91.714 Y94.281 E7.76266
G1 X89.899 Y94.642 E7.86106
G1 X88.085 Y94.281 E7.95947
G1 X86.546 Y93.253 E8.05788
G1 X85.518 Y91.714 E8.15628
G1 X85.157 Y89.899 E8.25469
G1 X85.227 Y89.550 E8.27363
G1 X85.746 Y88.706 F7800.000
G1 X84.703 Y89.459 E8.34206 F540.000
G1 X80.975 Y90.519 E8.54820
G1 X77.109 Y90.161 E8.75468
G1 X74.261 Y88.743 E8.92385
G1 X74.491 Y89.899 E8.98655
G1 X74.157 Y91.580 E9.07766
G1 X73.205 Y93.004 E9.16877
G1 X71.781 Y93.956 E9.25988
G1 X70.101 Y94.290 E9.35099
G1 X68.420 Y93.956 E9.44210
G1 X66.996 Y93.004 E9.53321
G1 X66.044 Y91.580 E9.62432
G1 X65.710 Y89.899 E9.71543
G1 X66.044 Y88.219 E9.80654
G1 X66.996 Y86.795 E9.89765
G1 X68.420 Y85.843 E9.98876
G1 X70.101 Y85.509 E10.07987
G1 X71.072 Y85.702 E10.13256
G1 X69.615 Y81.941 E10.34705
G1 X69.615 Y78.059 E10.55352
G1 X71.072 Y74.298 E10.76801
G1 X70.101 Y74.491 E10.82071
G1 X68.420 Y74.157 E10.91182
G1 X66.996 Y73.205 E11.00293
G1 X66.044 Y71.781 E11.09404
G1 X65.710 Y70.102 E11.18508
G1 X66.033 Y68.437 E11.27529
G1 X66.996 Y66.996 E11.36744
G1 X68.420 Y66.044 E11.45855
G1 X69.919 Y65.746 E11.53980
G1 X70.101 Y65.710 E11.54966
G1 X71.781 Y66.044 E11.64077
G1 X73.205 Y66.996 E11.73188
G1 X74.157 Y68.420 E11.82299
G1 X74.491 Y70.101 E11.91410
G1 X74.261 Y71.257 E11.97680
G1 X77.109 Y69.839 E12.14597
G1 X80.975 Y69.481 E12.35245
G1 X84.703 Y70.541 E12.55859
G1 X85.746 Y71.294 E12.62702
G1 X85.509 Y70.101 E12.69176
G1 X85.843 Y68.420 E12.78287
G1 X86.795 Y66.996 E12.87398
G1 X88.219 Y66.044 E12.96509
G1 X89.884 Y65.713 E13.05538
G1 X91.579 Y66.043 E13.14720
G1 X93.004 Y66.996 E13.23836
G1 X93.956 Y68.420 E13.32947
G1 X94.290 Y70.101 E13.42058
G1 X93.956 Y71.781 E13.51169
G1 X93.004 Y73.205 E13.60280
G1 X91.580 Y74.157 E13.69391
G1 X89.899 Y74.491 E13.78502
G1 X88.649 Y74.243 E13.85281
G1 X89.851 Y76.184 E13.97423
G1 X90.564 Y80.000 E14.18070
G1 X89.851 Y83.816 E14.38718
G1 X88.649 Y85.757 E14.50859
G1 X89.899 Y85.509 E14.57639
G1 X91.580 Y85.843 E14.66750
G1 X93.004 Y86.795 E14.75861
G1 X93.956 Y88.219 E14.84972
G1 X94.290 Y89.899 E14.94083
G1 X93.956 Y91.580 E15.03194
G1 X93.004 Y93.004 E15.12305
G1 X91.580 Y93.956 E15.21416
G1 X89.899 Y94.290 E15.30527
G1 X88.219 Y93.956 E15.39638
G1 X86.795 Y93.004 E15.48749
G1 X85.843 Y91.580 E15.57860
G1 X85.509 Y89.899 E15.66971
G1 X85.736 Y88.757 E15.73166
G1 X86.260 Y87.909 F7800.000
G1 X84.550 Y89.144 E15.84382 F324.000
G1 X80.942 Y90.170 E16.04331
G1 X77.205 Y89.824 E16.24292
G1 X73.900 Y88.178 E16.43930
G1 X73.794 Y88.297 E16.44776
G1 X73.832 Y88.354 E16.45137
G1 X74.140 Y89.899 E16.53519
G1 X73.832 Y91.445 E16.61900
G1 X72.957 Y92.756 E16.70281
G1 X71.646 Y93.631 E16.78663
G1 X70.101 Y93.939 E16.87044
G1 X68.555 Y93.631 E16.95425
G1 X67.244 Y92.756 E17.03806
G1 X66.369 Y91.445 E17.12188
G1 X66.061 Y89.899 E17.20569
G1 X66.369 Y88.354 E17.28950
G1 X67.244 Y87.043 E17.37332
G1 X68.555 Y86.168 E17.45713
G1 X70.101 Y85.860 E17.54094
G1 X71.646 Y86.168 E17.62476
G1 X71.849 Y86.303 E17.63771
G1 X71.969 Y86.173 E17.64712
G1 X71.316 Y85.375 E17.70196
G1 X69.960 Y81.877 E17.90148
G1 X69.960 Y78.123 E18.10110
G1 X71.316 Y74.625 E18.30062
G1 X71.969 Y73.827 E18.35546
G1 X71.849 Y73.697 E18.36487
G1 X71.646 Y73.832 E18.37783
G1 X70.101 Y74.140 E18.46164
G1 X68.555 Y73.832 E18.54545
G1 X67.244 Y72.957 E18.62927
G1 X66.369 Y71.646 E18.71308
G1 X66.061 Y70.101 E18.79687
G1 X66.358 Y68.570 E18.87978
G1 X67.244 Y67.244 E18.96459
G1 X68.555 Y66.369 E19.04841
G1 X70.101 Y66.061 E19.13222
G1 X71.646 Y66.369 E19.21603
G1 X72.957 Y67.244 E19.29985
G1 X73.832 Y68.555 E19.38366
G1 X74.140 Y70.101 E19.46747
G1 X73.832 Y71.646 E19.55129
G1 X73.794 Y71.703 E19.55490
G1 X73.900 Y71.822 E19.56336
G1 X77.205 Y70.176 E19.75973
G1 X80.942 Y69.830 E19.95935
G1 X84.550 Y70.856 E20.15884
G1 X86.260 Y72.091 E20.27100
G1 X86.385 Y71.971 E20.28020
G1 X86.168 Y71.646 E20.30097
G1 X85.860 Y70.101 E20.38478
G1 X86.168 Y68.555 E20.46860
G1 X87.043 Y67.244 E20.55241
G1 X88.354 Y66.369 E20.63622
G1 X89.885 Y66.064 E20.71925
G1 X91.445 Y66.369 E20.80377
G1 X92.756 Y67.244 E20.88760
G1 X93.631 Y68.555 E20.97142
G1 X93.939 Y70.101 E21.05523
G1 X93.631 Y71.646 E21.13904
G1 X92.756 Y72.957 E21.22286
G1 X91.445 Y73.832 E21.30667
G1 X89.899 Y74.140 E21.39048
G1 X88.354 Y73.832 E21.47430
G1 X88.059 Y73.636 E21.49312
G1 X87.939 Y73.751 E21.50199
G1 X89.524 Y76.310 E21.66206
G1 X90.214 Y80.000 E21.86168
G1 X89.524 Y83.690 E22.06129
G1 X87.939 Y86.249 E22.22136
G1 X88.059 Y86.365 E22.23023
G1 X88.354 Y86.168 E22.24906
G1 X89.899 Y85.860 E22.33287
G1 X91.445 Y86.168 E22.41668
G1 X92.756 Y87.043 E22.50050
G1 X93.631 Y88.354 E22.58431
G1 X93.939 Y89.899 E22.66812
G1 X93.631 Y91.445 E22.75194
G1 X92.756 Y92.756 E22.83575
G1 X91.445 Y93.631 E22.91956
G1 X89.899 Y93.939 E23.00337
G1 X88.354 Y93.631 E23.08719
G1 X87.043 Y92.756 E23.17100
G1 X86.168 Y91.445 E23.25481
G1 X85.860 Y89.899 E23.33863
G1 X86.168 Y88.354 E23.42244
G1 X86.385 Y88.029 E23.44321
G1 X86.298 Y87.945 E23.44962
G1 X86.136 Y88.236 F7800.000
G1 E22.44962 F1800.00000
G92 E0
G1 X66.209 Y66.209 F7800.000
G1 E1.00000 F1800.00000
G1 X65.425 Y66.733 E1.05016 F270.000
G1 X64.500 Y66.917 E1.10032
G1 X63.575 Y66.733 E1.15049
G1 X62.791 Y66.209 E1.20065
G1 X62.267 Y65.425 E1.25081
G1 X62.083 Y64.500 E1.30097
G1 X62.267 Y63.575 E1.35113
G1 X62.791 Y62.791 E1.40130
G1 X63.575 Y62.267 E1.45146
G1 X64.500 Y62.083 E1.50162
G1 X65.425 Y62.267 E1.55178
G1 X66.209 Y62.791 E1.60194
G1 X66.733 Y63.575 E1.65211
G1 X66.917 Y64.500 E1.70227
G1 X66.733 Y65.425 E1.75243
G1 X66.239 Y66.166 E1.79980
G1 X65.961 Y65.961 F7800.000
G1 X65.291 Y66.409 E1.84267 F270.000
G1 X64.500 Y66.566 E1.88553
G1 X63.709 Y66.409 E1.92840
G1 X63.039 Y65.961 E1.97126
G1 X62.591 Y65.291 E2.01413
G1 X62.434 Y64.500 E2.05699
G1 X62.591 Y63.709 E2.09986
G1 X63.039 Y63.039 E2.14272
G1 X63.709 Y62.591 E2.18559
G1 X64.500 Y62.434 E2.22845
G1 X65.291 Y62.591 E2.27132
G1 X65.961 Y63.039 E2.31418
G1 X66.409 Y63.709 E2.35705
G1 X66.566 Y64.500 E2.39991
G1 X66.409 Y65.291 E2.44278
G1 X65.990 Y65.917 E2.48285
G1 X65.712 Y65.712 F7800.000
G1 X65.156 Y66.084 E2.51842 F270.000
G1 X64.500 Y66.214 E2.55399
G1 X63.844 Y66.084 E2.58956
G1 X63.288 Y65.712 E2.62513
G1 X62.916 Y65.156 E2.66070
G1 X62.786 Y64.500 E2.69626
G1 X62.916 Y63.844 E2.73183
G1 X63.288 Y63.288 E2.76740
G1 X63.844 Y62.916 E2.80297
G1 X64.500 Y62.786 E2.83854
G1 X65.156 Y62.916 E2.87411
G1 X65.712 Y63.288 E2.90967
G1 X66.084 Y63.844 E2.94524
G1 X66.214 Y64.500 E2.98081
G1 X66.084 Y65.156 E3.01638
G1 X65.741 Y65.668 E3.04916
G1 X65.780 Y66.055 F7800.000
G1 X64.500 Y93.083 F7800.000
G1 X65.425 Y93.267 E3.09932 F270.000
G1 X66.209 Y93.791 E3.14948
G1 X66.733 Y94.575 E3.19964
G1 X66.917 Y95.500 E3.24981
G1 X66.733 Y96.425 E3.29997
G1 X66.209 Y97.209 E3.35013
G1 X65.425 Y97.733 E3.40029
G1 X64.500 Y97.917 E3.45045
G1 X63.575 Y97.733 E3.50062
G1 X62.791 Y97.209 E3.55078
G1 X62.267 Y96.425 E3.60094
G1 X62.083 Y95.500 E3.65110
G1 X62.267 Y94.575 E3.70126
G1 X62.791 Y93.791 E3.75143
G1 X63.575 Y93.267 E3.80159
G1 X64.449 Y93.093 E3.84896
G1 X64.500 Y93.434 F7800.000
G1 X65.291 Y93.591 E3.89182 F270.000
G1 X65.961 Y94.039 E3.93469
G1 X66.409 Y94.709 E3.97755
G1 X66.566 Y95.500 E4.02042
G1 X66.409 Y96.291 E4.06328
G1 X65.961 Y96.961 E4.10615
G1 X65.291 Y97.409 E4.14901
G1 X64.500 Y97.566 E4.19188
G1 X63.709 Y97.409 E4.23475
G1 X63.039 Y96.961 E4.27761
G1 X62.591 Y96.291 E4.32048
G1 X62.434 Y95.500 E4.36334
G1 X62.591 Y94.709 E4.40621
G1 X63.039 Y94.039 E4.44907
G1 X63.709 Y93.591 E4.49194
G1 X64.449 Y93.444 E4.53201
G1 X64.500 Y93.786 F7800.000
G1 X65.156 Y93.916 E4.56758 F270.000
G1 X65.712 Y94.288 E4.60315
G1 X66.084 Y94.844 E4.63872
G1 X66.214 Y95.500 E4.67428
G1 X66.084 Y96.156 E4.70985
G1 X65.712 Y96.712 E4.74542
G1 X65.156 Y97.084 E4.78099
G1 X64.500 Y97.214 E4.81656
G1 X63.844 Y97.084 E4.85213
G1 X63.288 Y96.712 E4.88770
G1 X62.916 Y96.156 E4.92326
G1 X62.786 Y95.500 E4.95883
G1 X62.916 Y94.844 E4.99440
G1 X63.288 Y94.288 E5.02997
G1 X63.844 Y93.916 E5.06554
G1 X64.449 Y93.796 E5.09831
G1 X64.694 Y93.495 F7800.000
G1 E4.09831 F1800.00000
G92 E0
G1 X93.791 Y66.209 F7800.000
G1 E1.00000 F1800.00000
G1 X93.267 Y65.425 E1.05016 F270.000
G1 X93.083 Y64.500 E1.10032
G1 X93.267 Y63.575 E1.15049
G1 X93.791 Y62.791 E1.20065
G1 X94.575 Y62.267 E1.25081
G1 X95.500 Y62.083 E1.30097
G1 X96.425 Y62.267 E1.35113
G1 X97.209 Y62.791 E1.40130
G1 X97.733 Y63.575 E1.45146
G1 X97.917 Y64.500 E1.50162
G1 X97.733 Y65.425 E1.55178
G1 X97.209 Y66.209 E1.60195
G1 X96.425 Y66.733 E1.65211
G1 X95.500 Y66.917 E1.70227
G1 X94.575 Y66.733 E1.75243
G1 X93.834 Y66.239 E1.79980
G1 X94.039 Y65.961 F7800.000
G1 X93.591 Y65.291 E1.84267 F270.000
G1 X93.434 Y64.500 E1.88553
G1 X93.591 Y63.709 E1.92840
G1 X94.039 Y63.039 E1.97126
G1 X94.709 Y62.591 E2.01413
G1 X95.500 Y62.434 E2.05699
G1 X96.291 Y62.591 E2.09986
G1 X96.961 Y63.039 E2.14272
G1 X97.409 Y63.709 E2.18559
G1 X97.566 Y64.500 E2.22845
G1 X97.409 Y65.291 E2.27132
G1 X96.961 Y65.961 E2.31418
G1 X96.291 Y66.409 E2.35705
G1 X95.500 Y66.566 E2.39991
G1 X94.709 Y66.409 E2.44278
G1 X94.083 Y65.990 E2.48285
G1 X94.288 Y65.712 F7800.000
G1 X93.916 Y65.156 E2.51842 F270.000
G1 X93.786 Y64.500 E2.55399
G1 X93.916 Y63.844 E2.58956
G1 X94.288 Y63.288 E2.62513
G1 X94.844 Y62.916 E2.66070
G1 X95.500 Y62.786 E2.69626
G1 X96.156 Y62.916 E2.73183
G1 X96.712 Y63.288 E2.76740
G1 X97.084 Y63.844 E2.80297
G1 X97.214 Y64.500 E2.83854
G1 X97.084 Y65.156 E2.87411
G1 X96.712 Y65.712 E2.90968
G1 X96.156 Y66.084 E2.94524
G1 X95.500 Y66.214 E2.98081
G1 X94.844 Y66.084 E3.01638
G1 X94.332 Y65.741 E3.04916
G1 X93.945 Y65.780 F7800.000
G1 E2.04916 F1800.00000
G92 E0
G1 X100.100 Y61.089 F7800.000
G1 E1.00000 F1800.00000
G1 X100.100 Y98.911 E3.01147 F540.000
G1 X100.000 Y99.414 E3.03874
G1 X99.766 Y99.766 E3.06120
G1 X99.414 Y100.000 E3.08367
G1 X98.911 Y100.100 E3.11094
G1 X61.089 Y100.100 E5.12241
G1 X60.586 Y100.000 E5.14968
G1 X60.234 Y99.766 E5.17214
G1 X60.000 Y99.414 E5.19460
G1 X59.900 Y98.911 E5.22187
G1 X59.900 Y61.089 E7.23334
G1 X60.000 Y60.586 E7.26061
G1 X60.234 Y60.234 E7.28308
G1 X60.586 Y60.000 E7.30554
G1 X61.089 Y59.900 E7.33281
G1 X98.915 Y59.901 E9.34448
G1 X99.414 Y60.000 E9.37154
G1 X99.766 Y60.234 E9.39401
G1 X100.000 Y60.586 E9.41647
G1 X100.090 Y61.037 E9.44095
G1 X100.445 Y61.055 F7800.000
G1 X100.445 Y98.945 E11.45603 F540.000
G1 X100.325 Y99.549 E11.48876
G1 X100.014 Y100.014 E11.51852
G1 X99.549 Y100.325 E11.54828
G1 X98.945 Y100.445 E11.58100
G1 X61.055 Y100.445 E13.59609
G1 X60.451 Y100.325 E13.62881
G1 X59.986 Y100.014 E13.65857
G1 X59.675 Y99.549 E13.68833
G1 X59.555 Y98.945 E13.72106
G1 X59.555 Y61.055 E15.73614
G1 X59.675 Y60.451 E15.76886
G1 X59.986 Y59.986 E15.79862
G1 X60.451 Y59.675 E15.82839
G1 X61.055 Y59.555 E15.86111
G1 X98.949 Y59.556 E17.87639
G1 X99.549 Y59.675 E17.90891
