; generated by Slic3r 1.2.9 on 2018-09-01 at 11:05:26

; external perimeters extrusion width = 0.37mm
; perimeters extrusion width = 0.42mm
; infill extrusion width = 0.42mm
; solid infill extrusion width = 0.42mm
; top infill extrusion width = 0.42mm

M107
M190 S80 ; set bed temperature
M104 S230 ; set temperature
G28 ; home all axes
G1 Z5 F5000 ; lift nozzle
M109 S230 ; wait for temperature to be reached
G21 ; set units to millimeters
G90 ; use absolute coordinates
M82 ; use absolute distances for extrusion
G92 E0
G1 E-1.00000 F1800.00000
G92 E0
G1 Z0.300 F7800.000
G1 X65.242 Y65.878 F7800.000
G1 E1.00000 F1800.00000
G1 X66.982 Y64.475 E1.08734 F1080.000
G1 X70.000 Y63.704 E1.20904
G1 X90.000 Y63.704 E1.99048
G1 X92.200 Y64.101 E2.07782
G1 X94.122 Y65.242 E2.16516
G1 X95.525 Y66.982 E2.25250
G1 X96.296 Y70.000 E2.37420
G1 X96.296 Y90.000 E3.15564
G1 X95.899 Y92.200 E3.24298
G1 X94.758 Y94.122 E3.33032
G1 X93.018 Y95.525 E3.41765
G1 X90.000 Y96.296 E3.53936
G1 X70.000 Y96.296 E4.32080
G1 X67.800 Y95.899 E4.40814
G1 X65.878 Y94.758 E4.49547
G1 X64.475 Y93.018 E4.58281
G1 X63.704 Y90.000 E4.70452
G1 X63.704 Y70.000 E5.48596
G1 X64.101 Y67.800 E5.57329
G1 X65.213 Y65.925 E5.65846
G1 E4.65846 F1800.00000
G92 E0
G1 X89.229 Y89.229 F7800.000
G1 E1.00000 F1800.00000
G1 X70.771 Y89.229 E1.72117 F540.000
G1 X70.771 Y70.771 E2.44235
G1 X89.229 Y70.771 E3.16352
G1 X89.229 Y89.173 E3.88253
G1 X89.524 Y89.524 F7800.000
G1 X70.476 Y89.524 E4.62680 F540.000
G1 X70.476 Y70.476 E5.37108
G1 X89.524 Y70.476 E6.11535
G1 X89.524 Y89.469 E6.85746
G1 X89.820 Y89.820 F7800.000
G1 X70.180 Y89.820 E7.62483 F378.000
G1 X70.180 Y70.180 E8.39221
G1 X89.820 Y70.180 E9.15958
G1 X89.820 Y89.764 E9.92479
G1 X89.500 Y89.635 F7800.000
G1 X89.060 Y71.105 F7800.000
G1 X88.895 Y70.940 E9.93403 F540.000
G1 X88.472 Y70.940 E9.95071
G1 X89.060 Y71.528 E9.98354
G1 X89.060 Y71.950 E10.00022
G1 X88.050 Y70.940 E10.05663
G1 X87.627 Y70.940 E10.07331
G1 X89.060 Y72.373 E10.15332
G1 X89.060 Y72.795 E10.17000
G1 X87.205 Y70.940 E10.27360
G1 X86.782 Y70.940 E10.29028
G1 X89.060 Y73.218 E10.41747
G1 X89.060 Y73.640 E10.43415
G1 X86.360 Y70.940 E10.58492
G1 X85.937 Y70.940 E10.60160
G1 X89.060 Y74.063 E10.77597
G1 X89.060 Y74.485 E10.79265
G1 X85.515 Y70.940 E10.99061
G1 X85.093 Y70.940 E11.00729
G1 X89.060 Y74.907 E11.22884
G1 X89.060 Y75.330 E11.24552
G1 X84.670 Y70.940 E11.49066
G1 X84.248 Y70.940 E11.50734
G1 X89.060 Y75.752 E11.77606
G1 X89.060 Y76.175 E11.79274
G1 X83.825 Y70.940 E12.08506
G1 X83.403 Y70.940 E12.10174
G1 X89.060 Y76.597 E12.41765
G1 X89.060 Y77.020 E12.43433
G1 X82.980 Y70.940 E12.77383
G1 X82.558 Y70.940 E12.79051
G1 X89.060 Y77.442 E13.15359
G1 X89.060 Y77.865 E13.17027
G1 X82.135 Y70.940 E13.55695
G1 X81.713 Y70.940 E13.57363
G1 X89.060 Y78.287 E13.98390
G1 X89.060 Y78.710 E14.00058
G1 X81.290 Y70.940 E14.43444
G1 X80.868 Y70.940 E14.45112
G1 X89.060 Y79.132 E14.90857
G1 X89.060 Y79.555 E14.92525
G1 X80.445 Y70.940 E15.40628
G1 X80.023 Y70.940 E15.42296
G1 X89.060 Y79.977 E15.92759
G1 X89.060 Y80.400 E15.94427
G1 X79.600 Y70.940 E16.47249
G1 X79.178 Y70.940 E16.48917
G1 X89.060 Y80.822 E17.04098
G1 X89.060 Y81.245 E17.05766
G1 X78.755 Y70.940 E17.63306
G1 X78.333 Y70.940 E17.64974
G1 X89.060 Y81.667 E18.24872
G1 X89.060 Y82.089 E18.26540
G1 X77.911 Y70.940 E18.88798
G1 X77.488 Y70.940 E18.90466
G1 X89.060 Y82.512 E19.55083
G1 X89.060 Y82.934 E19.56751
G1 X77.066 Y70.940 E20.23727
G1 X76.643 Y70.940 E20.25395
G1 X89.060 Y83.357 E20.94730
G1 X89.060 Y83.779 E20.96398
G1 X76.221 Y70.940 E21.68091
G1 X75.798 Y70.940 E21.69760
G1 X89.060 Y84.202 E22.43812
G1 X89.060 Y84.624 E22.45480
G1 X75.376 Y70.940 E23.21892
G1 X74.953 Y70.940 E23.23560
G1 X89.060 Y85.047 E24.02331
G1 X89.060 Y85.469 E24.03999
G1 X74.531 Y70.940 E24.85129
G1 X74.108 Y70.940 E24.86797
G1 X89.060 Y85.892 E25.70286
G1 X89.060 Y86.314 E25.71954
G1 X73.686 Y70.940 E26.57801
G1 X73.263 Y70.940 E26.59469
G1 X89.060 Y86.737 E27.47676
G1 X89.060 Y87.159 E27.49344
G1 X72.841 Y70.940 E28.39910
G1 X72.418 Y70.940 E28.41578
G1 X89.060 Y87.582 E29.34503
G1 X89.060 Y88.004 E29.36171
G1 X71.996 Y70.940 E30.31455
G1 X71.573 Y70.940 E30.33123
G1 X89.060 Y88.427 E31.30766
G1 X89.060 Y88.849 E31.32434
G1 X71.151 Y70.940 E32.32435
G1 X70.940 Y71.151 E32.33615
G1 X88.849 Y89.060 E33.33616
G1 X88.426 Y89.060 E33.35285
G1 X70.940 Y71.574 E34.32927
G1 X70.940 Y71.996 E34.34595
G1 X88.004 Y89.060 E35.29879
G1 X87.582 Y89.060 E35.31547
G1 X70.940 Y72.418 E36.24471
G1 X70.940 Y72.841 E36.26139
G1 X87.159 Y89.060 E37.16705
G1 X86.737 Y89.060 E37.18373
G1 X70.940 Y73.263 E38.06579
G1 X70.940 Y73.686 E38.08247
G1 X86.314 Y89.060 E38.94095
G1 X85.892 Y89.060 E38.95763
G1 X70.940 Y74.108 E39.79251
G1 X70.940 Y74.531 E39.80919
G1 X85.469 Y89.060 E40.62049
G1 X85.047 Y89.060 E40.63717
G1 X70.940 Y74.953 E41.42487
G1 X70.940 Y75.376 E41.44155
G1 X84.624 Y89.060 E42.20567
G1 X84.202 Y89.060 E42.22235
G1 X70.940 Y75.798 E42.96287
G1 X70.940 Y76.221 E42.97955
G1 X83.779 Y89.060 E43.69649
G1 X83.357 Y89.060 E43.71317
G1 X70.940 Y76.643 E44.40651
G1 X70.940 Y77.066 E44.42319
G1 X82.934 Y89.060 E45.09295
G1 X82.512 Y89.060 E45.10963
G1 X70.940 Y77.488 E45.75579
G1 X70.940 Y77.911 E45.77247
G1 X82.089 Y89.060 E46.39505
G1 X81.667 Y89.060 E46.41173
G1 X70.940 Y78.333 E47.01071
G1 X70.940 Y78.756 E47.02739
G1 X81.244 Y89.060 E47.60279
G1 X80.822 Y89.060 E47.61947
G1 X70.940 Y79.178 E48.17127
G1 X70.940 Y79.600 E48.18795
G1 X80.400 Y89.060 E48.71617
G1 X79.977 Y89.060 E48.73285
G1 X70.940 Y80.023 E49.23747
G1 X70.940 Y80.445 E49.25415
G1 X79.555 Y89.060 E49.73519
G1 X79.132 Y89.060 E49.75187
G1 X70.940 Y80.868 E50.20931
G1 X70.940 Y81.290 E50.22599
G1 X78.710 Y89.060 E50.65985
G1 X78.287 Y89.060 E50.67653
G1 X70.940 Y81.713 E51.08679
G1 X70.940 Y82.135 E51.10347
G1 X77.865 Y89.060 E51.49015
G1 X77.442 Y89.060 E51.50683
G1 X70.940 Y82.558 E51.86991
G1 X70.940 Y82.980 E51.88659
G1 X77.020 Y89.060 E52.22609
G1 X76.597 Y89.060 E52.24277
G1 X70.940 Y83.403 E52.55867
G1 X70.940 Y83.825 E52.57535
G1 X76.175 Y89.060 E52.86766
G1 X75.752 Y89.060 E52.88435
G1 X70.940 Y84.248 E53.15307
G1 X70.940 Y84.670 E53.16975
G1 X75.330 Y89.060 E53.41488
G1 X74.907 Y89.060 E53.43156
G1 X70.940 Y85.093 E53.65311
G1 X70.940 Y85.515 E53.66979
G1 X74.485 Y89.060 E53.86774
G1 X74.062 Y89.060 E53.88442
G1 X70.940 Y85.938 E54.05879
G1 X70.940 Y86.360 E54.07547
G1 X73.640 Y89.060 E54.22624
G1 X73.218 Y89.060 E54.24292
G1 X70.940 Y86.782 E54.37011
G1 X70.940 Y87.205 E54.38679
G1 X72.795 Y89.060 E54.49038
G1 X72.373 Y89.060 E54.50706
G1 X70.940 Y87.627 E54.58707
G1 X70.940 Y88.050 E54.60375
G1 X71.950 Y89.060 E54.66016
G1 X71.528 Y89.060 E54.67684
G1 X70.940 Y88.472 E54.70966
G1 X70.940 Y88.895 E54.72634
G1 X71.105 Y89.060 E54.73558
M104 S225 ; set temperature
M140 S90 ; wait for bed temperature to be reached
G1 E53.73558 F1800.00000
G92 E0
G1 Z0.600 F7800.000
G1 X89.125 Y89.125 F7800.000
G1 E1.00000 F1800.00000
G1 X70.875 Y89.125 E1.86447 F1800.000
G1 X70.875 Y70.875 E2.72894
G1 X89.125 Y70.875 E3.59340
G1 X89.125 Y89.069 E4.45524
G1 X89.483 Y89.483 F7800.000
G1 X70.517 Y89.483 E5.35366 F1800.000
G1 X70.517 Y70.517 E6.25209
G1 X89.483 Y70.517 E7.15051
G1 X89.483 Y89.427 E8.04630
G1 X89.815 Y89.815 F7800.000
G1 X70.185 Y89.815 E8.83923 F1260.000
G1 X70.185 Y70.185 E9.63217
G1 X89.815 Y70.185 E10.42510
G1 X89.815 Y89.760 E11.21578
G1 X89.495 Y89.630 F7800.000
G1 X88.724 Y88.916 F7800.000
G1 X88.916 Y88.724 E11.22876 F1800.000
G1 X88.916 Y88.213 E11.25320
G1 X88.213 Y88.916 E11.30073
G1 X87.701 Y88.916 E11.32516
G1 X88.916 Y87.701 E11.40725
G1 X88.916 Y87.190 E11.43168
G1 X87.190 Y88.916 E11.54832
G1 X86.679 Y88.916 E11.57275
G1 X88.916 Y86.679 E11.72394
G1 X88.916 Y86.167 E11.74838
G1 X86.167 Y88.916 E11.93412
G1 X85.656 Y88.916 E11.95856
G1 X88.916 Y85.656 E12.17885
G1 X88.916 Y85.145 E12.20329
G1 X85.145 Y88.916 E12.45814
G1 X84.634 Y88.916 E12.48257
G1 X88.916 Y84.634 E12.77198
G1 X88.916 Y84.122 E12.79641
G1 X84.122 Y88.916 E13.12037
G1 X83.611 Y88.916 E13.14480
G1 X88.916 Y83.611 E13.50332
G1 X88.916 Y83.100 E13.52775
G1 X83.100 Y88.916 E13.92081
G1 X82.588 Y88.916 E13.94525
G1 X88.916 Y82.588 E14.37287
G1 X88.916 Y82.077 E14.39730
G1 X82.077 Y88.916 E14.85947
G1 X81.566 Y88.916 E14.88390
G1 X88.916 Y81.566 E15.38063
G1 X88.916 Y81.054 E15.40506
G1 X81.054 Y88.916 E15.93634
G1 X80.543 Y88.916 E15.96077
G1 X88.916 Y80.543 E16.52661
G1 X88.916 Y80.032 E16.55104
G1 X80.032 Y88.916 E17.15142
G1 X79.520 Y88.916 E17.17586
G1 X88.916 Y79.520 E17.81080
G1 X88.916 Y79.009 E17.83523
G1 X79.009 Y88.916 E18.50472
G1 X78.498 Y88.916 E18.52915
G1 X88.916 Y78.498 E19.23320
G1 X88.916 Y77.987 E19.25763
G1 X77.987 Y88.916 E19.99623
G1 X77.475 Y88.916 E20.02066
G1 X88.916 Y77.475 E20.79382
G1 X88.916 Y76.964 E20.81825
G1 X76.964 Y88.916 E21.62595
G1 X76.453 Y88.916 E21.65039
G1 X88.916 Y76.453 E22.49264
G1 X88.916 Y75.941 E22.51708
G1 X75.941 Y88.916 E23.39389
G1 X75.430 Y88.916 E23.41832
G1 X88.916 Y75.430 E24.32969
G1 X88.916 Y74.919 E24.35412
G1 X74.919 Y88.916 E25.30004
G1 X74.407 Y88.916 E25.32447
G1 X88.916 Y74.407 E26.30494
G1 X88.916 Y73.896 E26.32938
G1 X73.896 Y88.916 E27.34440
G1 X73.385 Y88.916 E27.36883
G1 X88.916 Y73.385 E28.41841
G1 X88.916 Y72.874 E28.44285
G1 X72.874 Y88.916 E29.52698
G1 X72.362 Y88.916 E29.55141
G1 X88.916 Y72.362 E30.67010
G1 X88.916 Y71.851 E30.69453
G1 X71.851 Y88.916 E31.84777
G1 X71.340 Y88.916 E31.87220
G1 X88.916 Y71.340 E33.05999
G1 X88.660 Y71.084 E33.07727
G1 X71.084 Y88.660 E34.26506
G1 X71.084 Y88.149 E34.28949
G1 X88.149 Y71.084 E35.44273
G1 X87.638 Y71.084 E35.46716
G1 X71.084 Y87.638 E36.58584
G1 X71.084 Y87.126 E36.61027
G1 X87.126 Y71.084 E37.69440
G1 X86.615 Y71.084 E37.71884
G1 X71.084 Y86.615 E38.76841
G1 X71.084 Y86.104 E38.79285
G1 X86.104 Y71.084 E39.80787
G1 X85.593 Y71.084 E39.83230
G1 X71.084 Y85.593 E40.81277
G1 X71.084 Y85.081 E40.83720
G1 X85.081 Y71.084 E41.78312
G1 X84.570 Y71.084 E41.80755
G1 X71.084 Y84.570 E42.71892
G1 X71.084 Y84.059 E42.74335
G1 X84.059 Y71.084 E43.62016
G1 X83.547 Y71.084 E43.64459
G1 X71.084 Y83.547 E44.48685
G1 X71.084 Y83.036 E44.51128
G1 X83.036 Y71.084 E45.31898
G1 X82.525 Y71.084 E45.34342
G1 X71.084 Y82.525 E46.11657
G1 X71.084 Y82.013 E46.14100
G1 X82.013 Y71.084 E46.87960
G1 X81.502 Y71.084 E46.90403
G1 X71.084 Y81.502 E47.60807
G1 X71.084 Y80.991 E47.63250
G1 X80.991 Y71.084 E48.30199
G1 X80.479 Y71.084 E48.32643
G1 X71.084 Y80.479 E48.96136
G1 X71.084 Y79.968 E48.98580
G1 X79.968 Y71.084 E49.58618
G1 X79.457 Y71.084 E49.61061
G1 X71.084 Y79.457 E50.17644
G1 X71.084 Y78.946 E50.20088
G1 X78.946 Y71.084 E50.73215
G1 X78.434 Y71.084 E50.75658
G1 X71.084 Y78.434 E51.25331
G1 X71.084 Y77.923 E51.27774
G1 X77.923 Y71.084 E51.73991
G1 X77.412 Y71.084 E51.76434
G1 X71.084 Y77.412 E52.19196
G1 X71.084 Y76.900 E52.21639
G1 X76.900 Y71.084 E52.60946
G1 X76.389 Y71.084 E52.63389
G1 X71.084 Y76.389 E52.99240
G1 X71.084 Y75.878 E53.01683
G1 X75.878 Y71.084 E53.34079
G1 X75.366 Y71.084 E53.36522
G1 X71.084 Y75.366 E53.65462
G1 X71.084 Y74.855 E53.67906
G1 X74.855 Y71.084 E53.93391
G1 X74.344 Y71.084 E53.95834
G1 X71.084 Y74.344 E54.17864
G1 X71.084 Y73.833 E54.20307
G1 X73.833 Y71.084 E54.38881
G1 X73.321 Y71.084 E54.41325
G1 X71.084 Y73.321 E54.56444
G1 X71.084 Y72.810 E54.58887
G1 X72.810 Y71.084 E54.70551
G1 X72.299 Y71.084 E54.72994
G1 X71.084 Y72.299 E54.81202
G1 X71.084 Y71.787 E54.83645
G1 X71.787 Y71.084 E54.88398
G1 X71.276 Y71.084 E54.90842
G1 X71.084 Y71.276 E54.92139
G1 E53.92139 F1800.00000
G92 E0
G1 Z0.900 F7800.000
G1 X89.125 Y89.125 F7800.000
G1 E1.00000 F1800.00000
G1 X70.875 Y89.125 E1.86447 F1800.000
G1 X70.875 Y70.875 E2.72894
G1 X89.125 Y70.875 E3.59340
G1 X89.125 Y89.069 E4.45524
G1 X89.483 Y89.483 F7800.000
G1 X70.517 Y89.483 E5.35366 F1800.000
G1 X70.517 Y70.517 E6.25209
G1 X89.483 Y70.517 E7.15051
G1 X89.483 Y89.427 E8.04630
G1 X89.815 Y89.815 F7800.000
G1 X70.185 Y89.815 E8.83923 F1260.000
G1 X70.185 Y70.185 E9.63217
G1 X89.815 Y70.185 E10.42510
G1 X89.815 Y89.760 E11.21578
G1 X89.495 Y89.630 F7800.000
G1 X88.916 Y71.276 F7800.000
G1 X88.724 Y71.084 E11.22876 F1800.000
G1 X88.213 Y71.084 E11.25320
G1 X88.916 Y71.787 E11.30073
G1 X88.916 Y72.299 E11.32516
G1 X87.701 Y71.084 E11.40725
G1 X87.190 Y71.084 E11.43168
G1 X88.916 Y72.810 E11.54832
G1 X88.916 Y73.321 E11.57275
G1 X86.679 Y71.084 E11.72394
G1 X86.167 Y71.084 E11.74838
G1 X88.916 Y73.833 E11.93412
G1 X88.916 Y74.344 E11.95856
G1 X85.656 Y71.084 E12.17885
G1 X85.145 Y71.084 E12.20329
G1 X88.916 Y74.855 E12.45814
G1 X88.916 Y75.366 E12.48257
G1 X84.634 Y71.084 E12.77198
G1 X84.122 Y71.084 E12.79641
G1 X88.916 Y75.878 E13.12037
G1 X88.916 Y76.389 E13.14480
G1 X83.611 Y71.084 E13.50332
G1 X83.100 Y71.084 E13.52775
G1 X88.916 Y76.900 E13.92081
G1 X88.916 Y77.412 E13.94525
G1 X82.588 Y71.084 E14.37287
G1 X82.077 Y71.084 E14.39730
G1 X88.916 Y77.923 E14.85947
G1 X88.916 Y78.434 E14.88390
G1 X81.566 Y71.084 E15.38063
G1 X81.054 Y71.084 E15.40506
G1 X88.916 Y78.946 E15.93634
G1 X88.916 Y79.457 E15.96077
G1 X80.543 Y71.084 E16.52661
G1 X80.032 Y71.084 E16.55104
G1 X88.916 Y79.968 E17.15142
G1 X88.916 Y80.480 E17.17586
G1 X79.520 Y71.084 E17.81080
G1 X79.009 Y71.084 E17.83523
G1 X88.916 Y80.991 E18.50472
G1 X88.916 Y81.502 E18.52915
G1 X78.498 Y71.084 E19.23320
G1 X77.987 Y71.084 E19.25763
G1 X88.916 Y82.013 E19.99623
G1 X88.916 Y82.525 E20.02066
G1 X77.475 Y71.084 E20.79381
G1 X76.964 Y71.084 E20.81825
G1 X88.916 Y83.036 E21.62595
G1 X88.916 Y83.547 E21.65039
G1 X76.453 Y71.084 E22.49264
G1 X75.941 Y71.084 E22.51708
G1 X88.916 Y84.059 E23.39389
G1 X88.916 Y84.570 E23.41832
G1 X75.430 Y71.084 E24.32969
G1 X74.919 Y71.084 E24.35412
G1 X88.916 Y85.081 E25.30004
G1 X88.916 Y85.593 E25.32447
G1 X74.407 Y71.084 E26.30494
G1 X73.896 Y71.084 E26.32938
G1 X88.916 Y86.104 E27.34440
G1 X88.916 Y86.615 E27.36883
G1 X73.385 Y71.084 E28.41841
G1 X72.874 Y71.084 E28.44285
G1 X88.916 Y87.126 E29.52698
G1 X88.916 Y87.638 E29.55141
G1 X72.362 Y71.084 E30.67010
G1 X71.851 Y71.084 E30.69453
G1 X88.916 Y88.149 E31.84777
G1 X88.916 Y88.660 E31.87220
G1 X71.340 Y71.084 E33.05999
G1 X71.084 Y71.340 E33.07727
G1 X88.660 Y88.916 E34.26506
G1 X88.149 Y88.916 E34.28949
G1 X71.084 Y71.851 E35.44273
G1 X71.084 Y72.362 E35.46716
G1 X87.638 Y88.916 E36.58584
G1 X87.126 Y88.916 E36.61027
G1 X71.084 Y72.874 E37.69440
G1 X71.084 Y73.385 E37.71884
G1 X86.615 Y88.916 E38.76841
G1 X86.104 Y88.916 E38.79285
G1 X71.084 Y73.896 E39.80787
G1 X71.084 Y74.407 E39.83230
G1 X85.593 Y88.916 E40.81277
G1 X85.081 Y88.916 E40.83720
G1 X71.084 Y74.919 E41.78312
G1 X71.084 Y75.430 E41.80755
G1 X84.570 Y88.916 E42.71892
G1 X84.059 Y88.916 E42.74335
G1 X71.084 Y75.941 E43.62016
G1 X71.084 Y76.453 E43.64459
G1 X83.547 Y88.916 E44.48685
G1 X83.036 Y88.916 E44.51128
G1 X71.084 Y76.964 E45.31898
G1 X71.084 Y77.475 E45.34342
G1 X82.525 Y88.916 E46.11657
G1 X82.013 Y88.916 E46.14100
G1 X71.084 Y77.987 E46.87960
G1 X71.084 Y78.498 E46.90403
G1 X81.502 Y88.916 E47.60807
G1 X80.991 Y88.916 E47.63250
G1 X71.084 Y79.009 E48.30199
G1 X71.084 Y79.521 E48.32643
G1 X80.479 Y88.916 E48.96136
G1 X79.968 Y88.916 E48.98580
G1 X71.084 Y80.032 E49.58618
G1 X71.084 Y80.543 E49.61061
G1 X79.457 Y88.916 E50.17644
G1 X78.946 Y88.916 E50.20087
G1 X71.084 Y81.054 E50.73215
G1 X71.084 Y81.566 E50.75658
G1 X78.434 Y88.916 E51.25331
G1 X77.923 Y88.916 E51.27774
G1 X71.084 Y82.077 E51.73991
G1 X71.084 Y82.588 E51.76434
G1 X77.412 Y88.916 E52.19196
G1 X76.900 Y88.916 E52.21639
G1 X71.084 Y83.100 E52.60945
G1 X71.084 Y83.611 E52.63389
G1 X76.389 Y88.916 E52.99240
G1 X75.878 Y88.916 E53.01683
G1 X71.084 Y84.122 E53.34079
G1 X71.084 Y84.634 E53.36522
G1 X75.366 Y88.916 E53.65462
G1 X74.855 Y88.916 E53.67906
G1 X71.084 Y85.145 E53.93391
G1 X71.084 Y85.656 E53.95834
G1 X74.344 Y88.916 E54.17864
G1 X73.833 Y88.916 E54.20307
G1 X71.084 Y86.167 E54.38881
G1 X71.084 Y86.679 E54.41324
G1 X73.321 Y88.916 E54.56443
G1 X72.810 Y88.916 E54.58887
G1 X71.084 Y87.190 E54.70550
G1 X71.084 Y87.701 E54.72994
G1 X72.299 Y88.916 E54.81202
G1 X71.787 Y88.916 E54.83645
