; generated by Slic3r 1.2.9 on 2018-06-07 at 17:07:08

; external perimeters extrusion width = 0.40mm
; perimeters extrusion width = 0.48mm
; infill extrusion width = 0.48mm
; solid infill extrusion width = 0.48mm
; top infill extrusion width = 0.48mm

M107
M190 S60 ; set bed temperature
M104 S185 ; set temperature
G28 ; home all axes
G1 Z5 F5000 ; lift nozzle
M109 S185 ; wait for temperature to be reached
G21 ; set units to millimeters
G90 ; use absolute coordinates
M82 ; use absolute distances for extrusion
G92 E0
G1 E-1.00000 F1800.00000
G92 E0
G1 Z0.400 F7800.000
G1 X64.827 Y65.720 F7800.000
G1 E1.00000 F1800.00000
G1 X66.583 Y64.220 E1.29059 F1080.000
G1 X68.743 Y63.405 E1.58119
G1 X70.000 Y63.286 E1.74010
G1 X90.000 Y63.286 E4.25719
G1 X92.275 Y63.683 E4.54778
G1 X94.280 Y64.827 E4.83837
G1 X95.780 Y66.583 E5.12896
G1 X96.595 Y68.743 E5.41956
G1 X96.714 Y70.000 E5.57848
G1 X96.714 Y90.000 E8.09556
G1 X96.317 Y92.275 E8.38615
G1 X95.173 Y94.280 E8.67674
G1 X93.417 Y95.780 E8.96734
G1 X91.257 Y96.595 E9.25793
G1 X90.000 Y96.714 E9.41685
G1 X70.000 Y96.714 E11.93393
G1 X67.725 Y96.317 E12.22452
G1 X65.720 Y95.173 E12.51511
G1 X64.220 Y93.417 E12.80571
G1 X63.405 Y91.257 E13.09630
G1 X63.286 Y90.000 E13.25522
G1 X63.286 Y70.000 E15.77230
G1 X63.683 Y67.725 E16.06289
G1 X64.797 Y65.772 E16.34593
G1 E15.34593 F1800.00000
G92 E0
G1 X88.172 Y88.172 F7800.000
G1 E1.00000 F1800.00000
G1 X71.828 Y88.172 E3.05688 F540.000
G1 X71.828 Y71.828 E5.11376
G1 X88.172 Y71.828 E7.17064
G1 X88.172 Y88.112 E9.21997
G1 X88.886 Y88.886 F7800.000
G1 X71.114 Y88.886 E11.45661 F540.000
G1 X71.114 Y71.114 E13.69324
G1 X88.886 Y71.114 E15.92988
G1 X88.886 Y88.826 E18.15897
G1 X89.600 Y89.600 F7800.000
G1 X70.400 Y89.600 E20.57537 F378.000
G1 X70.400 Y70.400 E22.99177
G1 X89.600 Y70.400 E25.40817
G1 X89.600 Y89.540 E27.81702
G1 X89.254 Y89.400 F7800.000
G1 X87.736 Y72.607 F7800.000
G1 X87.393 Y72.264 E27.88008 F1080.000
G1 X86.350 Y72.264 E28.01575
G1 X87.736 Y73.650 E28.27067
G1 X87.736 Y74.694 E28.40633
G1 X85.306 Y72.264 E28.85311
G1 X84.263 Y72.264 E28.98878
G1 X87.736 Y75.737 E29.62741
G1 X87.736 Y76.780 E29.76308
G1 X83.220 Y72.264 E30.59357
G1 X82.176 Y72.264 E30.72923
G1 X87.736 Y77.824 E31.75158
G1 X87.736 Y78.867 E31.88725
G1 X81.133 Y72.264 E33.10145
G1 X80.089 Y72.264 E33.23712
G1 X87.736 Y79.911 E34.64318
G1 X87.736 Y80.954 E34.77884
G1 X79.046 Y72.264 E36.37676
G1 X78.003 Y72.264 E36.51242
G1 X87.736 Y81.997 E38.30220
G1 X87.736 Y83.041 E38.43786
G1 X76.959 Y72.264 E40.41949
G1 X75.916 Y72.264 E40.55516
G1 X87.736 Y84.084 E42.72864
G1 X87.736 Y85.128 E42.86431
G1 X74.872 Y72.264 E45.22965
G1 X73.829 Y72.264 E45.36532
G1 X87.736 Y86.171 E47.92252
G1 X87.736 Y87.214 E48.05818
G1 X72.786 Y72.264 E50.80724
G1 X72.264 Y72.786 E50.90316
G1 X87.214 Y87.736 E53.65222
G1 X86.171 Y87.736 E53.78788
G1 X72.264 Y73.829 E56.34508
G1 X72.264 Y74.872 E56.48074
G1 X85.128 Y87.736 E58.84609
G1 X84.084 Y87.736 E58.98175
G1 X72.264 Y75.916 E61.15524
G1 X72.264 Y76.959 E61.29090
G1 X83.041 Y87.736 E63.27253
G1 X81.997 Y87.736 E63.40819
G1 X72.264 Y78.003 E65.19797
G1 X72.264 Y79.046 E65.33363
G1 X80.954 Y87.736 E66.93154
G1 X79.911 Y87.736 E67.06721
G1 X72.264 Y80.089 E68.47327
G1 X72.264 Y81.133 E68.60893
G1 X78.867 Y87.736 E69.82314
G1 X77.824 Y87.736 E69.95880
G1 X72.264 Y82.176 E70.98115
G1 X72.264 Y83.220 E71.11681
G1 X76.780 Y87.736 E71.94730
G1 X75.737 Y87.736 E72.08296
G1 X72.264 Y84.263 E72.72160
G1 X72.264 Y85.306 E72.85726
G1 X74.694 Y87.736 E73.30404
G1 X73.650 Y87.736 E73.43970
G1 X72.264 Y86.350 E73.69463
G1 X72.264 Y87.393 E73.83029
G1 X72.607 Y87.736 E73.89335
M106 S153
G1 E72.89335 F1800.00000
G92 E0
G1 Z0.700 F7800.000
G1 X89.004 Y89.004 F7800.000
G1 E1.00000 F1800.00000
G1 X70.996 Y89.004 E1.99697 F1280.410
G1 X70.996 Y70.996 E2.99394
G1 X89.004 Y70.996 E3.99091
G1 X89.004 Y88.944 E4.98455
G1 X89.423 Y89.423 F7800.000
G1 X70.577 Y89.423 E6.02790 F1280.410
G1 X70.577 Y70.577 E7.07125
G1 X89.423 Y70.577 E8.11460
G1 X89.423 Y89.363 E9.15463
G1 X89.800 Y89.800 F7800.000
G1 X70.200 Y89.800 E10.02406 F896.287
G1 X70.200 Y70.200 E10.89350
G1 X89.800 Y70.200 E11.76293
G1 X89.800 Y89.740 E12.62970
G1 X89.454 Y89.600 F7800.000
G1 X88.539 Y88.757 F7800.000
G1 X88.757 Y88.539 E12.64687 F2560.820
G1 X88.757 Y87.943 E12.68011
G1 X87.943 Y88.757 E12.74428
G1 X87.346 Y88.757 E12.77753
G1 X88.757 Y87.346 E12.88871
G1 X88.757 Y86.750 E12.92196
G1 X86.750 Y88.757 E13.08015
G1 X86.153 Y88.757 E13.11340
G1 X88.757 Y86.153 E13.31861
G1 X88.757 Y85.557 E13.35185
G1 X85.557 Y88.757 E13.60408
G1 X84.961 Y88.757 E13.63732
G1 X88.757 Y84.961 E13.93656
G1 X88.757 Y84.364 E13.96980
G1 X84.364 Y88.757 E14.31605
G1 X83.768 Y88.757 E14.34929
G1 X88.757 Y83.768 E14.74255
G1 X88.757 Y83.171 E14.77580
G1 X83.171 Y88.757 E15.21607
G1 X82.575 Y88.757 E15.24931
G1 X88.757 Y82.575 E15.73660
G1 X88.757 Y81.979 E15.76984
G1 X81.979 Y88.757 E16.30414
G1 X81.382 Y88.757 E16.33739
G1 X88.757 Y81.382 E16.91870
G1 X88.757 Y80.786 E16.95194
G1 X80.786 Y88.757 E17.58026
G1 X80.189 Y88.757 E17.61351
G1 X88.757 Y80.189 E18.28884
G1 X88.757 Y79.593 E18.32209
G1 X79.593 Y88.757 E19.04444
G1 X78.997 Y88.757 E19.07768
G1 X88.757 Y78.997 E19.84704
G1 X88.757 Y78.400 E19.88028
G1 X78.400 Y88.757 E20.69666
G1 X77.804 Y88.757 E20.72990
G1 X88.757 Y77.804 E21.59329
G1 X88.757 Y77.207 E21.62653
G1 X77.207 Y88.757 E22.53693
G1 X76.611 Y88.757 E22.57017
G1 X88.757 Y76.611 E23.52758
G1 X88.757 Y76.015 E23.56083
G1 X76.015 Y88.757 E24.56525
G1 X75.418 Y88.757 E24.59849
G1 X88.757 Y75.418 E25.64993
G1 X88.757 Y74.822 E25.68317
G1 X74.822 Y88.757 E26.78162
G1 X74.225 Y88.757 E26.81487
G1 X88.757 Y74.225 E27.96033
G1 X88.757 Y73.629 E27.99357
G1 X73.629 Y88.757 E29.18605
G1 X73.033 Y88.757 E29.21929
G1 X88.757 Y73.033 E30.45878
G1 X88.757 Y72.436 E30.49202
G1 X72.436 Y88.757 E31.77852
G1 X71.840 Y88.757 E31.81176
G1 X88.757 Y71.840 E33.14527
G1 X88.737 Y71.263 E33.17742
G1 X71.263 Y88.737 E34.55479
G1 X71.243 Y88.160 E34.58694
G1 X88.160 Y71.243 E35.92045
G1 X87.564 Y71.243 E35.95369
G1 X71.243 Y87.564 E37.24019
G1 X71.243 Y86.967 E37.27343
G1 X86.967 Y71.243 E38.51292
G1 X86.371 Y71.243 E38.54616
G1 X71.243 Y86.371 E39.73864
G1 X71.243 Y85.775 E39.77188
G1 X85.775 Y71.243 E40.91734
G1 X85.178 Y71.243 E40.95059
G1 X71.243 Y85.178 E42.04903
G1 X71.243 Y84.582 E42.08228
G1 X84.582 Y71.243 E43.13371
G1 X83.985 Y71.243 E43.16696
G1 X71.243 Y83.985 E44.17138
G1 X71.243 Y83.389 E44.20462
G1 X83.389 Y71.243 E45.16204
G1 X82.793 Y71.243 E45.19528
G1 X71.243 Y82.793 E46.10568
G1 X71.243 Y82.196 E46.13892
G1 X82.196 Y71.243 E47.00231
G1 X81.600 Y71.243 E47.03555
G1 X71.243 Y81.600 E47.85192
G1 X71.243 Y81.003 E47.88517
G1 X81.003 Y71.243 E48.65453
G1 X80.407 Y71.243 E48.68777
G1 X71.243 Y80.407 E49.41012
G1 X71.243 Y79.811 E49.44336
G1 X79.811 Y71.243 E50.11870
G1 X79.214 Y71.243 E50.15194
G1 X71.243 Y79.214 E50.78027
G1 X71.243 Y78.618 E50.81351
G1 X78.618 Y71.243 E51.39482
G1 X78.021 Y71.243 E51.42806
G1 X71.243 Y78.021 E51.96236
G1 X71.243 Y77.425 E51.99561
G1 X77.425 Y71.243 E52.48289
G1 X76.829 Y71.243 E52.51614
G1 X71.243 Y76.829 E52.95641
G1 X71.243 Y76.232 E52.98965
G1 X76.232 Y71.243 E53.38291
G1 X75.636 Y71.243 E53.41616
G1 X71.243 Y75.636 E53.76241
G1 X71.243 Y75.039 E53.79565
G1 X75.039 Y71.243 E54.09488
G1 X74.443 Y71.243 E54.12813
G1 X71.243 Y74.443 E54.38035
G1 X71.243 Y73.847 E54.41359
G1 X73.847 Y71.243 E54.61881
G1 X73.250 Y71.243 E54.65205
G1 X71.243 Y73.250 E54.81025
G1 X71.243 Y72.654 E54.84349
G1 X72.654 Y71.243 E54.95468
G1 X72.057 Y71.243 E54.98792
G1 X71.243 Y72.057 E55.05209
G1 X71.243 Y71.461 E55.08534
G1 X71.461 Y71.243 E55.10250
G1 E54.10250 F1800.00000
G92 E0
G1 Z1.000 F7800.000
G1 X89.004 Y89.004 F7800.000
G1 E1.00000 F1800.00000
G1 X70.996 Y89.004 E1.99697 F1280.410
G1 X70.996 Y70.996 E2.99394
G1 X89.004 Y70.996 E3.99091
G1 X89.004 Y88.944 E4.98455
G1 X89.423 Y89.423 F7800.000
G1 X70.577 Y89.423 E6.02790 F1280.410
G1 X70.577 Y70.577 E7.07125
G1 X89.423 Y70.577 E8.11460
G1 X89.423 Y89.363 E9.15463
G1 X89.800 Y89.800 F7800.000
G1 X70.200 Y89.800 E10.02406 F896.287
G1 X70.200 Y70.200 E10.89350
G1 X89.800 Y70.200 E11.76293
G1 X89.800 Y89.740 E12.62970
G1 X89.454 Y89.600 F7800.000
G1 X88.757 Y71.461 F7800.000
G1 X88.539 Y71.243 E12.64687 F2560.820
G1 X87.943 Y71.243 E12.68011
G1 X88.757 Y72.057 E12.74428
G1 X88.757 Y72.654 E12.77753
G1 X87.346 Y71.243 E12.88871
G1 X86.750 Y71.243 E12.92196
G1 X88.757 Y73.250 E13.08016
G1 X88.757 Y73.847 E13.11340
G1 X86.153 Y71.243 E13.31861
G1 X85.557 Y71.243 E13.35185
G1 X88.757 Y74.443 E13.60408
G1 X88.757 Y75.039 E13.63732
G1 X84.961 Y71.243 E13.93656
G1 X84.364 Y71.243 E13.96980
G1 X88.757 Y75.636 E14.31605
G1 X88.757 Y76.232 E14.34929
G1 X83.768 Y71.243 E14.74255
G1 X83.171 Y71.243 E14.77580
G1 X88.757 Y76.829 E15.21607
G1 X88.757 Y77.425 E15.24931
G1 X82.575 Y71.243 E15.73660
G1 X81.979 Y71.243 E15.76984
G1 X88.757 Y78.021 E16.30414
G1 X88.757 Y78.618 E16.33739
G1 X81.382 Y71.243 E16.91870
G1 X80.786 Y71.243 E16.95194
G1 X88.757 Y79.214 E17.58026
G1 X88.757 Y79.811 E17.61351
G1 X80.189 Y71.243 E18.28884
G1 X79.593 Y71.243 E18.32209
G1 X88.757 Y80.407 E19.04444
G1 X88.757 Y81.003 E19.07768
G1 X78.997 Y71.243 E19.84704
G1 X78.400 Y71.243 E19.88028
G1 X88.757 Y81.600 E20.69666
G1 X88.757 Y82.196 E20.72990
G1 X77.804 Y71.243 E21.59329
G1 X77.207 Y71.243 E21.62653
G1 X88.757 Y82.793 E22.53693
G1 X88.757 Y83.389 E22.57017
G1 X76.611 Y71.243 E23.52758
G1 X76.015 Y71.243 E23.56083
G1 X88.757 Y83.985 E24.56525
G1 X88.757 Y84.582 E24.59849
G1 X75.418 Y71.243 E25.64993
G1 X74.822 Y71.243 E25.68317
G1 X88.757 Y85.178 E26.78162
G1 X88.757 Y85.775 E26.81487
G1 X74.225 Y71.243 E27.96033
G1 X73.629 Y71.243 E27.99357
G1 X88.757 Y86.371 E29.18605
G1 X88.757 Y86.967 E29.21929
G1 X73.033 Y71.243 E30.45878
G1 X72.436 Y71.243 E30.49202
G1 X88.757 Y87.564 E31.77852
G1 X88.757 Y88.160 E31.81176
G1 X71.840 Y71.243 E33.14527
G1 X71.263 Y71.263 E33.17742
G1 X88.737 Y88.737 E34.55479
G1 X88.160 Y88.757 E34.58694
G1 X71.243 Y71.840 E35.92045
G1 X71.243 Y72.436 E35.95369
G1 X87.564 Y88.757 E37.24019
G1 X86.967 Y88.757 E37.27343
G1 X71.243 Y73.033 E38.51292
G1 X71.243 Y73.629 E38.54616
G1 X86.371 Y88.757 E39.73864
G1 X85.775 Y88.757 E39.77188
G1 X71.243 Y74.225 E40.91734
G1 X71.243 Y74.822 E40.95059
G1 X85.178 Y88.757 E42.04903
G1 X84.582 Y88.757 E42.08228
G1 X71.243 Y75.418 E43.13371
G1 X71.243 Y76.015 E43.16696
G1 X83.985 Y88.757 E44.17138
G1 X83.389 Y88.757 E44.20462
G1 X71.243 Y76.611 E45.16204
G1 X71.243 Y77.207 E45.19528
G1 X82.793 Y88.757 E46.10568
G1 X82.196 Y88.757 E46.13892
G1 X71.243 Y77.804 E47.00231
G1 X71.243 Y78.400 E47.03555
G1 X81.600 Y88.757 E47.85192
G1 X81.003 Y88.757 E47.88517
G1 X71.243 Y78.997 E48.65453
G1 X71.243 Y79.593 E48.68777
G1 X80.407 Y88.757 E49.41012
G1 X79.811 Y88.757 E49.44336
G1 X71.243 Y80.189 E50.11870
G1 X71.243 Y80.786 E50.15194
G1 X79.214 Y88.757 E50.78027
G1 X78.618 Y88.757 E50.81351
G1 X71.243 Y81.382 E51.39482
G1 X71.243 Y81.979 E51.42806
G1 X78.021 Y88.757 E51.96236
G1 X77.425 Y88.757 E51.99561
G1 X71.243 Y82.575 E52.48289
G1 X71.243 Y83.171 E52.51613
G1 X76.829 Y88.757 E52.95641
G1 X76.232 Y88.757 E52.98965
G1 X71.243 Y83.768 E53.38291
G1 X71.243 Y84.364 E53.41616
G1 X75.636 Y88.757 E53.76240
G1 X75.039 Y88.757 E53.79565
G1 X71.243 Y84.961 E54.09488
G1 X71.243 Y85.557 E54.12813
G1 X74.443 Y88.757 E54.38035
G1 X73.847 Y88.757 E54.41359
G1 X71.243 Y86.153 E54.61881
G1 X71.243 Y86.750 E54.65205
G1 X73.250 Y88.757 E54.81025
G1 X72.654 Y88.757 E54.84349
G1 X71.243 Y87.346 E54.95468
G1 X71.243 Y87.943 E54.98792
G1 X72.057 Y88.757 E55.05209
G1 X71.461 Y88.757 E55.08534
G1 X71.243 Y88.539 E55.10250
G1 E54.10250 F1800.00000
G92 E0
G1 Z1.300 F7800.000
G1 X89.004 Y89.004 F7800.000
G1 E1.00000 F1800.00000
G1 X70.996 Y89.004 E1.99697 F897.735
G1 X70.996 Y70.996 E2.99394
G1 X89.004 Y70.996 E3.99091
G1 X89.004 Y88.944 E4.98455
G1 X89.423 Y89.423 F7800.000
G1 X70.577 Y89.423 E6.02790 F897.735
G1 X70.577 Y70.577 E7.07125
G1 X89.423 Y70.577 E8.11460
G1 X89.423 Y89.363 E9.15463
G1 X89.800 Y89.800 F7800.000
G1 X70.200 Y89.800 E10.02406 F628.415
G1 X70.200 Y70.200 E10.89350
G1 X89.800 Y70.200 E11.76293
G1 X89.800 Y89.740 E12.62970
G1 X89.454 Y89.600 F7800.000
G1 X88.648 Y88.648 F7800.000
G1 X88.648 Y87.967 E12.66741 F1795.471
G1 X87.967 Y88.648 E12.72072
G1 X88.648 Y88.648 E12.75842
G1 X88.648 Y86.486 F7800.000
G1 X88.648 Y85.894 E12.79122 F1795.471
G1 X87.959 Y86.582 E12.84514
G1 X87.258 Y86.394 E12.88530
G1 X86.232 Y87.420 E12.96564
G1 X86.420 Y88.121 E13.00581
G1 X85.894 Y88.648 E13.04704
G1 X86.486 Y88.648 E13.07983
G1 X86.716 Y88.417 E13.09788
G1 X87.417 Y88.605 E13.13804
G1 X88.443 Y87.579 E13.21838
G1 X88.255 Y86.878 E13.25855
G1 X88.648 Y86.486 E13.28927
G1 X88.648 Y82.430 F7800.000
G1 X88.343 Y82.348 E13.30677 F1795.471
G1 X87.317 Y83.374 E13.38710
G1 X87.504 Y84.075 E13.42727
G1 X86.478 Y85.101 E13.50761
G1 X85.777 Y84.913 E13.54777
G1 X84.751 Y85.939 E13.62811
G1 X84.939 Y86.640 E13.66827
G1 X83.913 Y87.666 E13.74861
G1 X83.212 Y87.478 E13.78878
G1 X82.186 Y88.505 E13.86911
G1 X82.225 Y88.648 E13.87732
G1 X84.393 Y88.648 E13.99737
G1 X84.209 Y87.962 E14.03665
G1 X85.235 Y86.936 E14.11698
G1 X85.936 Y87.124 E14.15715
G1 X86.962 Y86.098 E14.23749
G1 X86.774 Y85.397 E14.27765
G1 X87.800 Y84.371 E14.35799
G1 X88.501 Y84.559 E14.39815
G1 X88.648 Y84.413 E14.40963
G1 X88.648 Y82.430 E14.51938
G1 X88.648 Y80.562 F7800.000
G1 X88.648 Y79.081 E14.60137 F1795.471
G1 X88.401 Y79.328 E14.62073
G1 X88.588 Y80.029 E14.66090
G1 X87.562 Y81.055 E14.74123
G1 X86.862 Y80.867 E14.78140
G1 X85.836 Y81.893 E14.86173
G1 X86.023 Y82.594 E14.90190
G1 X84.997 Y83.620 E14.98223
G1 X84.296 Y83.432 E15.02240
G1 X83.270 Y84.458 E15.10273
G1 X83.458 Y85.159 E15.14290
G1 X82.432 Y86.185 E15.22324
G1 X81.731 Y85.998 E15.26340
G1 X80.705 Y87.024 E15.34374
G1 X80.893 Y87.724 E15.38390
G1 X79.970 Y88.648 E15.45621
G1 X80.562 Y88.648 E15.48900
G1 X81.189 Y88.021 E15.53812
G1 X81.890 Y88.208 E15.57828
G1 X82.916 Y87.182 E15.65862
G1 X82.728 Y86.482 E15.69878
G1 X83.754 Y85.455 E15.77912
G1 X84.455 Y85.643 E15.81929
G1 X85.481 Y84.617 E15.89962
G1 X85.293 Y83.916 E15.93979
G1 X86.320 Y82.890 E16.02012
G1 X87.020 Y83.078 E16.06029
G1 X88.046 Y82.052 E16.14062
G1 X87.859 Y81.351 E16.18079
G1 X88.648 Y80.562 E16.24259
G1 X88.647 Y77.009 F7800.000
G1 X87.946 Y76.821 E16.28275 F1795.471
G1 X86.920 Y77.847 E16.36309
G1 X87.107 Y78.548 E16.40325
G1 X86.081 Y79.574 E16.48359
G1 X85.381 Y79.386 E16.52376
G1 X84.355 Y80.412 E16.60409
G1 X84.542 Y81.113 E16.64426
G1 X83.516 Y82.139 E16.72459
G1 X82.816 Y81.951 E16.76476
G1 X81.789 Y82.978 E16.84509
G1 X81.977 Y83.678 E16.88526
G1 X80.951 Y84.704 E16.96560
G1 X80.250 Y84.517 E17.00576
G1 X79.224 Y85.543 E17.08610
G1 X79.412 Y86.243 E17.12626
G1 X78.386 Y87.269 E17.20660
G1 X77.685 Y87.082 E17.24677
G1 X76.659 Y88.108 E17.32710
G1 X76.804 Y88.648 E17.35806
G1 X78.489 Y88.648 E17.45133
G1 X78.870 Y88.266 E17.48119
G1 X78.682 Y87.566 E17.52136
G1 X79.708 Y86.540 E17.60169
G1 X80.409 Y86.727 E17.64186
G1 X81.435 Y85.701 E17.72219
G1 X81.247 Y85.001 E17.76236
G1 X82.273 Y83.975 E17.84269
G1 X82.974 Y84.162 E17.88286
G1 X84.000 Y83.136 E17.96319
G1 X83.813 Y82.435 E18.00336
G1 X84.839 Y81.409 E18.08370
G1 X85.539 Y81.597 E18.12386
G1 X86.565 Y80.571 E18.20420
G1 X86.378 Y79.870 E18.24437
G1 X87.404 Y78.844 E18.32470
G1 X88.104 Y79.032 E18.36487
G1 X88.648 Y78.489 E18.40741
G1 X88.647 Y77.009 E18.48933
G1 X88.648 Y74.841 F7800.000
G1 X88.648 Y73.157 E18.58256 F1795.471
G1 X88.004 Y73.801 E18.63298
G1 X88.192 Y74.502 E18.67315
G1 X87.166 Y75.528 E18.75348
G1 X86.465 Y75.340 E18.79365
G1 X85.439 Y76.366 E18.87398
G1 X85.627 Y77.067 E18.91415
G1 X84.600 Y78.093 E18.99448
G1 X83.900 Y77.905 E19.03465
G1 X82.874 Y78.931 E19.11498
G1 X83.061 Y79.632 E19.15515
G1 X82.035 Y80.658 E19.23549
G1 X81.335 Y80.471 E19.27565
G1 X80.309 Y81.497 E19.35599
G1 X80.496 Y82.197 E19.39615
G1 X79.470 Y83.223 E19.47649
G1 X78.769 Y83.036 E19.51666
G1 X77.743 Y84.062 E19.59699
G1 X77.931 Y84.762 E19.63716
G1 X76.905 Y85.788 E19.71749
