; generated by Slic3r 1.2.9 on 2018-09-11 at 07:19:25

; external perimeters extrusion width = 0.37mm
; perimeters extrusion width = 0.63mm
; infill extrusion width = 0.75mm
; solid infill extrusion width = 0.63mm
; top infill extrusion width = 0.63mm

M107
M190 S80 ; set bed temperature
M104 S230 ; set temperature
G28 ; home all axes
G1 Z5 F5000 ; lift nozzle
M109 S230 ; wait for temperature to be reached
G21 ; set units to millimeters
G90 ; use absolute coordinates
M82 ; use absolute distances for extrusion
G92 E0
G1 E-1.00000 F1800.00000
G92 E0
G1 Z0.300 F7800.000
G1 X61.201 Y58.428 F7800.000
G1 E1.00000 F1800.00000
G1 X62.533 Y57.363 E1.06663 F1080.000
G1 X62.980 Y57.097 E1.08696
G1 X64.762 Y56.077 E1.16719
G1 X66.350 Y55.456 E1.23381
G1 X68.839 Y54.888 E1.33358
G1 X70.577 Y54.763 E1.40164
G1 X71.104 Y54.799 E1.42230
G1 X73.061 Y54.950 E1.49898
G1 X73.527 Y55.007 E1.51733
G1 X94.528 Y58.375 E2.34837
G1 X95.684 Y58.675 E2.39503
G1 X97.153 Y59.209 E2.45611
G1 X99.047 Y60.303 E2.54154
G1 X100.244 Y61.307 E2.60261
G1 X101.649 Y62.982 E2.68804
G1 X102.431 Y64.336 E2.74911
G1 X103.179 Y66.390 E2.83453
G1 X103.450 Y67.929 E2.89559
G1 X103.546 Y69.022 E2.93847
G1 X103.546 Y90.978 E3.79631
G1 X103.450 Y92.071 E3.83919
G1 X103.179 Y93.610 E3.90025
G1 X102.431 Y95.664 E3.98567
G1 X101.649 Y97.018 E4.04674
G1 X100.244 Y98.693 E4.13216
G1 X99.047 Y99.697 E4.19323
G1 X97.153 Y100.791 E4.27866
G1 X95.685 Y101.325 E4.33973
G1 X94.528 Y101.625 E4.38641
G1 X73.527 Y104.993 E5.21745
G1 X73.061 Y105.050 E5.23580
G1 X71.104 Y105.201 E5.31247
G1 X70.577 Y105.237 E5.33314
G1 X68.839 Y105.112 E5.40120
G1 X66.350 Y104.544 E5.50096
G1 X64.762 Y103.923 E5.56759
G1 X64.307 Y103.669 E5.58792
G1 X62.533 Y102.637 E5.66815
G1 X61.201 Y101.572 E5.73478
G1 X59.464 Y99.700 E5.83454
G1 X58.488 Y98.257 E5.90259
G1 X57.407 Y96.013 E5.99993
G1 X56.880 Y94.274 E6.07093
G1 X56.525 Y91.916 E6.16410
G1 X56.454 Y90.978 E6.20087
G1 X56.454 Y69.022 E7.05870
G1 X56.525 Y68.084 E7.09546
G1 X56.880 Y65.726 E7.18864
G1 X57.407 Y63.987 E7.25963
G1 X58.255 Y62.218 E7.33631
G1 X58.488 Y61.743 E7.35698
G1 X59.464 Y60.300 E7.42503
G1 X61.163 Y58.468 E7.52263
G1 E6.52263 F1800.00000
G92 E0
G1 X86.470 Y85.252 F7800.000
G1 E1.00000 F1800.00000
G1 X88.202 Y83.799 E1.08835 F1080.000
G1 X88.807 Y83.450 E1.11563
G1 X89.155 Y83.323 E1.13011
G1 X90.932 Y82.676 E1.20399
G1 X91.620 Y82.555 E1.23127
G1 X93.880 Y82.555 E1.31961
G1 X94.568 Y82.676 E1.34689
G1 X96.693 Y83.450 E1.43524
G1 X97.298 Y83.799 E1.46253
G1 X99.030 Y85.252 E1.55088
G1 X99.479 Y85.787 E1.57816
G1 X100.609 Y87.746 E1.66651
G1 X100.848 Y88.402 E1.69380
G1 X101.241 Y90.628 E1.78213
G1 X101.241 Y91.327 E1.80942
G1 X100.848 Y93.554 E1.89777
G1 X100.609 Y94.210 E1.92506
G1 X99.479 Y96.168 E2.01340
G1 X99.030 Y96.703 E2.04069
G1 X97.298 Y98.156 E2.12903
G1 X96.693 Y98.506 E2.15632
G1 X94.568 Y99.279 E2.24467
G1 X93.881 Y99.400 E2.27195
G1 X91.619 Y99.400 E2.36030
G1 X90.932 Y99.279 E2.38759
G1 X89.155 Y98.632 E2.46146
G1 X88.807 Y98.505 E2.47593
G1 X88.202 Y98.156 E2.50322
G1 X86.470 Y96.703 E2.59156
G1 X86.021 Y96.168 E2.61885
G1 X84.891 Y94.210 E2.70720
G1 X84.652 Y93.554 E2.73447
G1 X84.259 Y91.327 E2.82282
G1 X84.259 Y90.629 E2.85011
G1 X84.652 Y88.402 E2.93846
G1 X84.891 Y87.746 E2.96574
G1 X86.021 Y85.787 E3.05409
G1 X86.434 Y85.295 E3.07921
G1 X86.680 Y85.462 F7800.000
G1 X88.372 Y84.042 E3.16553 F1080.000
G1 X88.932 Y83.719 E3.19079
G1 X89.256 Y83.601 E3.20426
G1 X91.009 Y82.963 E3.27713
G1 X91.645 Y82.851 E3.30239
G1 X93.855 Y82.851 E3.38871
G1 X94.491 Y82.963 E3.41397
G1 X96.568 Y83.719 E3.50030
G1 X97.128 Y84.042 E3.52557
G1 X98.820 Y85.462 E3.61190
G1 X99.236 Y85.958 E3.63716
G1 X100.340 Y87.871 E3.72349
G1 X100.562 Y88.479 E3.74875
G1 X100.945 Y90.654 E3.83507
G1 X100.945 Y91.301 E3.86033
G1 X100.562 Y93.477 E3.94666
G1 X100.340 Y94.084 E3.97192
G1 X99.236 Y95.998 E4.05825
G1 X98.820 Y96.493 E4.08351
G1 X97.128 Y97.913 E4.16984
G1 X96.568 Y98.237 E4.19510
G1 X94.491 Y98.992 E4.28143
G1 X93.855 Y99.104 E4.30669
G1 X91.645 Y99.104 E4.39302
G1 X91.008 Y98.992 E4.41829
G1 X89.256 Y98.354 E4.49115
G1 X88.932 Y98.237 E4.50461
G1 X88.372 Y97.913 E4.52988
G1 X86.680 Y96.493 E4.61620
G1 X86.264 Y95.998 E4.64147
G1 X85.160 Y94.084 E4.72779
G1 X84.938 Y93.477 E4.75305
G1 X84.555 Y91.301 E4.83938
G1 X84.555 Y90.654 E4.86464
G1 X84.938 Y88.479 E4.95097
G1 X85.160 Y87.871 E4.97623
G1 X86.264 Y85.958 E5.06256
G1 X86.644 Y85.505 E5.08565
G1 X86.890 Y85.672 F7800.000
G1 X88.543 Y84.285 E5.16996 F1080.000
G1 X89.058 Y83.988 E5.19320
G1 X89.357 Y83.879 E5.20565
G1 X91.085 Y83.250 E5.27751
G1 X91.671 Y83.146 E5.30075
G1 X93.829 Y83.146 E5.38505
G1 X94.414 Y83.250 E5.40829
G1 X96.442 Y83.988 E5.49260
G1 X96.957 Y84.285 E5.51585
G1 X98.610 Y85.672 E5.60015
G1 X98.993 Y86.128 E5.62339
G1 X100.072 Y87.996 E5.70770
G1 X100.275 Y88.555 E5.73094
G1 X100.650 Y90.680 E5.81524
G1 X100.650 Y91.275 E5.83849
G1 X100.275 Y93.400 E5.92279
G1 X100.071 Y93.959 E5.94603
G1 X98.993 Y95.828 E6.03034
G1 X98.610 Y96.283 E6.05358
G1 X96.957 Y97.670 E6.13789
G1 X96.442 Y97.968 E6.16113
G1 X94.415 Y98.706 E6.24544
G1 X93.829 Y98.809 E6.26868
G1 X91.671 Y98.809 E6.35298
G1 X91.085 Y98.706 E6.37623
G1 X89.357 Y98.077 E6.44808
G1 X89.058 Y97.968 E6.46053
G1 X88.543 Y97.670 E6.48378
G1 X86.890 Y96.283 E6.56808
G1 X86.507 Y95.828 E6.59132
G1 X85.429 Y93.959 E6.67563
G1 X85.225 Y93.400 E6.69886
G1 X84.850 Y91.275 E6.78317
G1 X84.850 Y90.680 E6.80641
G1 X85.225 Y88.555 E6.89072
G1 X85.428 Y87.996 E6.91396
G1 X86.507 Y86.128 E6.99827
G1 X86.854 Y85.715 E7.01934
G1 X87.100 Y85.882 F7800.000
G1 X88.713 Y84.528 E7.10163 F1080.000
G1 X89.183 Y84.257 E7.12284
G1 X89.458 Y84.156 E7.13429
G1 X91.162 Y83.536 E7.20514
G1 X91.697 Y83.442 E7.22636
G1 X93.803 Y83.442 E7.30863
G1 X94.338 Y83.536 E7.32985
G1 X96.317 Y84.257 E7.41214
G1 X96.787 Y84.528 E7.43337
G1 X98.400 Y85.882 E7.51565
G1 X98.750 Y86.298 E7.53687
G1 X99.803 Y88.122 E7.61916
G1 X99.988 Y88.632 E7.64038
G1 X100.354 Y90.706 E7.72266
G1 X100.354 Y91.249 E7.74388
G1 X99.988 Y93.323 E7.82617
G1 X99.803 Y93.834 E7.84739
G1 X98.750 Y95.657 E7.92967
G1 X98.400 Y96.073 E7.95089
G1 X96.787 Y97.427 E8.03317
G1 X96.317 Y97.699 E8.05440
G1 X94.338 Y98.419 E8.13668
G1 X93.803 Y98.513 E8.15790
G1 X91.697 Y98.513 E8.24019
G1 X91.162 Y98.419 E8.26141
G1 X89.458 Y97.799 E8.33225
G1 X89.183 Y97.699 E8.34369
G1 X88.713 Y97.427 E8.36492
G1 X87.100 Y96.073 E8.44720
G1 X86.750 Y95.657 E8.46842
G1 X85.697 Y93.833 E8.55071
G1 X85.512 Y93.323 E8.57192
G1 X85.146 Y91.249 E8.65421
G1 X85.146 Y90.706 E8.67543
G1 X85.512 Y88.632 E8.75771
G1 X85.697 Y88.122 E8.77893
G1 X86.750 Y86.298 E8.86122
G1 X87.064 Y85.924 E8.88027
G1 X87.309 Y86.092 F7800.000
G1 X88.883 Y84.771 E8.96054 F1080.000
G1 X89.309 Y84.526 E8.97973
G1 X89.559 Y84.434 E8.99017
G1 X91.239 Y83.823 E9.06001
G1 X91.723 Y83.738 E9.07920
G1 X93.777 Y83.738 E9.15946
G1 X94.261 Y83.823 E9.17866
G1 X96.191 Y84.526 E9.25893
G1 X96.617 Y84.771 E9.27813
G1 X98.191 Y86.092 E9.35839
G1 X98.506 Y86.468 E9.37759
G1 X99.534 Y88.247 E9.45786
G1 X99.702 Y88.709 E9.47706
G1 X100.058 Y90.732 E9.55731
G1 X100.058 Y91.223 E9.57652
G1 X99.702 Y93.246 E9.65678
G1 X99.534 Y93.708 E9.67598
G1 X98.506 Y95.487 E9.75624
G1 X98.191 Y95.864 E9.77544
G1 X96.617 Y97.184 E9.85571
G1 X96.191 Y97.430 E9.87491
G1 X94.261 Y98.132 E9.95517
G1 X93.777 Y98.218 E9.97437
G1 X91.723 Y98.218 E10.05463
G1 X91.239 Y98.132 E10.07384
G1 X89.560 Y97.521 E10.14366
G1 X89.309 Y97.430 E10.15410
G1 X88.883 Y97.184 E10.17330
G1 X87.309 Y95.864 E10.25356
G1 X86.993 Y95.487 E10.27276
G1 X85.966 Y93.708 E10.35303
G1 X85.798 Y93.246 E10.37222
G1 X85.442 Y91.223 E10.45249
G1 X85.442 Y90.732 E10.47168
G1 X85.798 Y88.709 E10.55195
G1 X85.966 Y88.247 E10.57115
G1 X86.993 Y86.468 E10.65141
G1 X87.274 Y86.134 E10.66844
G1 X87.519 Y86.302 F7800.000
G1 X89.053 Y85.014 E10.74669 F1080.000
G1 X89.434 Y84.795 E10.76386
G1 X89.661 Y84.712 E10.77328
G1 X91.316 Y84.110 E10.84211
G1 X91.749 Y84.033 E10.85929
G1 X93.751 Y84.033 E10.93753
G1 X94.184 Y84.110 E10.95470
G1 X96.066 Y84.794 E11.03295
G1 X96.447 Y85.014 E11.05013
G1 X97.981 Y86.302 E11.12837
G1 X98.263 Y86.638 E11.14555
G1 X99.265 Y88.373 E11.22380
G1 X99.415 Y88.786 E11.24097
G1 X99.763 Y90.758 E11.31921
G1 X99.763 Y91.197 E11.33639
G1 X99.415 Y93.170 E11.41464
G1 X99.265 Y93.583 E11.43181
G1 X98.263 Y95.317 E11.51006
G1 X97.981 Y95.654 E11.52723
G1 X96.447 Y96.941 E11.60548
G1 X96.066 Y97.161 E11.62266
G1 X94.184 Y97.846 E11.70090
G1 X93.751 Y97.922 E11.71808
G1 X91.749 Y97.922 E11.79632
G1 X91.316 Y97.846 E11.81350
G1 X89.661 Y97.243 E11.88232
G1 X89.434 Y97.161 E11.89174
G1 X89.053 Y96.941 E11.90892
G1 X87.519 Y95.654 E11.98716
G1 X87.237 Y95.317 E12.00434
G1 X86.235 Y93.583 E12.08259
G1 X86.085 Y93.170 E12.09976
G1 X85.737 Y91.197 E12.17800
G1 X85.737 Y90.758 E12.19518
G1 X86.085 Y88.786 E12.27342
G1 X86.235 Y88.373 E12.29060
G1 X87.237 Y86.638 E12.36885
G1 X87.484 Y86.344 E12.38386
G1 X87.729 Y86.511 F7800.000
G1 X89.223 Y85.257 E12.46008 F1080.000
G1 X89.559 Y85.063 E12.47523
G1 X89.762 Y84.990 E12.48365
G1 X91.393 Y84.396 E12.55146
G1 X91.775 Y84.329 E12.56662
G1 X93.725 Y84.329 E12.64284
G1 X94.107 Y84.396 E12.65799
G1 X95.941 Y85.063 E12.73422
G1 X96.277 Y85.257 E12.74938
G1 X97.771 Y86.511 E12.82560
G1 X98.020 Y86.809 E12.84075
G1 X98.996 Y88.498 E12.91698
G1 X99.128 Y88.863 E12.93214
G1 X99.467 Y90.784 E13.00835
G1 X99.467 Y91.172 E13.02351
G1 X99.128 Y93.093 E13.09973
G1 X98.996 Y93.457 E13.11489
G1 X98.020 Y95.147 E13.19111
G1 X97.771 Y95.444 E13.20627
G1 X96.277 Y96.698 E13.28249
G1 X95.941 Y96.892 E13.29765
G1 X94.107 Y97.559 E13.37387
G1 X93.725 Y97.626 E13.38903
G1 X91.775 Y97.626 E13.46525
G1 X91.393 Y97.559 E13.48041
G1 X89.762 Y96.965 E13.54822
G1 X89.559 Y96.892 E13.55663
G1 X89.223 Y96.698 E13.57179
G1 X87.729 Y95.444 E13.64801
G1 X87.480 Y95.147 E13.66317
G1 X86.504 Y93.457 E13.73939
G1 X86.372 Y93.093 E13.75454
G1 X86.033 Y91.172 E13.83077
G1 X86.033 Y90.784 E13.84592
G1 X86.372 Y88.863 E13.92214
G1 X86.504 Y88.498 E13.93730
G1 X87.480 Y86.809 E14.01352
G1 X87.693 Y86.554 E14.02651
G1 X87.939 Y86.721 F7800.000
G1 X89.394 Y85.500 E14.10071 F1080.000
G1 X89.685 Y85.332 E14.11385
G1 X89.863 Y85.268 E14.12125
G1 X91.469 Y84.683 E14.18805
G1 X91.801 Y84.624 E14.20119
G1 X93.699 Y84.624 E14.27539
G1 X94.031 Y84.683 E14.28852
G1 X95.815 Y85.332 E14.36272
G1 X96.106 Y85.500 E14.37586
G1 X97.561 Y86.721 E14.45006
G1 X97.777 Y86.979 E14.46320
G1 X98.727 Y88.623 E14.53740
G1 X98.842 Y88.939 E14.55054
G1 X99.172 Y90.809 E14.62473
G1 X99.172 Y91.146 E14.63787
G1 X98.842 Y93.016 E14.71207
G1 X98.727 Y93.332 E14.72521
G1 X97.777 Y94.977 E14.79941
G1 X97.561 Y95.234 E14.81255
G1 X96.106 Y96.455 E14.88675
G1 X95.815 Y96.623 E14.89988
G1 X94.031 Y97.272 E14.97408
G1 X93.700 Y97.331 E14.98722
G1 X91.800 Y97.331 E15.06142
G1 X91.469 Y97.272 E15.07456
G1 X89.863 Y96.688 E15.14136
G1 X89.685 Y96.623 E15.14876
G1 X89.394 Y96.455 E15.16190
G1 X87.939 Y95.234 E15.23610
G1 X87.723 Y94.976 E15.24923
G1 X86.773 Y93.332 E15.32343
G1 X86.658 Y93.016 E15.33657
G1 X86.328 Y91.146 E15.41077
G1 X86.328 Y90.810 E15.42390
G1 X86.658 Y88.939 E15.49810
G1 X86.773 Y88.623 E15.51124
G1 X87.723 Y86.979 E15.58544
G1 X87.903 Y86.764 E15.59641
G1 X88.149 Y86.931 F7800.000
G1 X89.564 Y85.744 E15.66859 F1080.000
G1 X89.810 Y85.601 E15.67970
G1 X89.964 Y85.545 E15.68609
G1 X91.546 Y84.969 E15.75189
G1 X91.826 Y84.920 E15.76300
G1 X93.674 Y84.920 E15.83518
G1 X93.954 Y84.969 E15.84629
G1 X95.690 Y85.601 E15.91847
G1 X95.936 Y85.744 E15.92959
G1 X97.351 Y86.931 E16.00177
G1 X97.534 Y87.149 E16.01289
G1 X98.458 Y88.749 E16.08507
G1 X98.555 Y89.016 E16.09618
G1 X98.876 Y90.835 E16.16836
G1 X98.876 Y91.120 E16.17947
G1 X98.555 Y92.939 E16.25165
G1 X98.458 Y93.206 E16.26277
G1 X97.534 Y94.806 E16.33495
G1 X97.351 Y95.024 E16.34606
G1 X95.936 Y96.212 E16.41824
G1 X95.690 Y96.354 E16.42936
G1 X93.954 Y96.986 E16.50154
G1 X93.674 Y97.035 E16.51265
G1 X91.826 Y97.035 E16.58483
G1 X91.546 Y96.986 E16.59595
G1 X89.964 Y96.410 E16.66174
G1 X89.810 Y96.354 E16.66813
G1 X89.564 Y96.212 E16.67925
G1 X88.149 Y95.024 E16.75142
G1 X87.966 Y94.806 E16.76254
G1 X87.042 Y93.206 E16.83472
G1 X86.945 Y92.939 E16.84583
G1 X86.624 Y91.120 E16.91801
G1 X86.624 Y90.835 E16.92913
G1 X86.945 Y89.016 E17.00131
G1 X87.042 Y88.749 E17.01242
G1 X87.966 Y87.149 E17.08460
G1 X88.113 Y86.974 E17.09355
G1 X88.359 Y87.141 F7800.000
G1 X89.734 Y85.987 E17.16371 F1080.000
G1 X89.936 Y85.870 E17.17280
G1 X90.065 Y85.823 E17.17818
G1 X91.623 Y85.256 E17.24296
G1 X91.852 Y85.216 E17.25206
G1 X93.648 Y85.216 E17.32221
G1 X93.877 Y85.256 E17.33130
G1 X95.564 Y85.870 E17.40146
G1 X95.766 Y85.987 E17.41056
G1 X97.141 Y87.141 E17.48072
G1 X97.291 Y87.319 E17.48981
G1 X98.189 Y88.874 E17.55997
G1 X98.268 Y89.093 E17.56907
G1 X98.580 Y90.861 E17.63922
G1 X98.580 Y91.094 E17.64832
G1 X98.268 Y92.862 E17.71848
G1 X98.189 Y93.081 E17.72757
G1 X97.291 Y94.636 E17.79773
G1 X97.141 Y94.814 E17.80682
G1 X95.766 Y95.969 E17.87698
G1 X95.564 Y96.085 E17.88608
G1 X93.877 Y96.699 E17.95623
G1 X93.648 Y96.740 E17.96533
G1 X91.852 Y96.740 E18.03549
G1 X91.623 Y96.699 E18.04458
G1 X90.065 Y96.132 E18.10936
G1 X89.936 Y96.085 E18.11474
G1 X89.734 Y95.969 E18.12384
G1 X88.359 Y94.814 E18.19399
G1 X88.209 Y94.636 E18.20309
G1 X87.311 Y93.081 E18.27325
G1 X87.232 Y92.862 E18.28234
G1 X86.920 Y91.094 E18.35250
G1 X86.920 Y90.861 E18.36159
G1 X87.232 Y89.093 E18.43175
G1 X87.311 Y88.874 E18.44084
G1 X88.209 Y87.319 E18.51100
G1 X88.323 Y87.183 E18.51793
G1 X88.568 Y87.351 F7800.000
G1 X89.904 Y86.230 E18.58607 F1080.000
G1 X90.166 Y86.101 E18.59747
G1 X91.700 Y85.543 E18.66124
G1 X91.878 Y85.511 E18.66831
G1 X93.622 Y85.511 E18.73644
G1 X93.800 Y85.543 E18.74352
G1 X95.439 Y86.139 E18.81166
G1 X95.596 Y86.230 E18.81873
G1 X96.932 Y87.351 E18.88687
G1 X97.048 Y87.489 E18.89394
G1 X97.920 Y89.000 E18.96208
G1 X97.982 Y89.170 E18.96915
G1 X98.285 Y90.887 E19.03729
G1 X98.285 Y91.068 E19.04436
G1 X97.982 Y92.786 E19.11250
G1 X97.920 Y92.956 E19.11957
G1 X97.048 Y94.466 E19.18771
G1 X96.932 Y94.605 E19.19478
G1 X95.596 Y95.726 E19.26292
G1 X95.439 Y95.816 E19.26999
G1 X93.800 Y96.412 E19.33813
G1 X93.622 Y96.444 E19.34521
G1 X91.878 Y96.444 E19.41334
G1 X91.700 Y96.412 E19.42042
G1 X90.166 Y95.854 E19.48418
G1 X89.904 Y95.726 E19.49559
G1 X88.568 Y94.605 E19.56372
G1 X88.452 Y94.466 E19.57080
G1 X87.580 Y92.956 E19.63893
G1 X87.518 Y92.786 E19.64600
G1 X87.215 Y91.068 E19.71414
G1 X87.215 Y90.887 E19.72122
G1 X87.518 Y89.170 E19.78935
G1 X87.580 Y89.000 E19.79643
G1 X88.452 Y87.489 E19.86456
G1 X88.533 Y87.393 E19.86947
G1 X88.778 Y87.561 F7800.000
G1 X90.074 Y86.473 E19.93558 F1080.000
G1 X90.267 Y86.379 E19.94396
G1 X91.777 Y85.829 E20.00672
G1 X91.904 Y85.807 E20.01178
G1 X93.596 Y85.807 E20.07789
G1 X93.723 Y85.829 E20.08294
G1 X95.314 Y86.408 E20.14906
G1 X95.426 Y86.473 E20.15411
G1 X96.722 Y87.561 E20.22023
G1 X96.805 Y87.660 E20.22528
G1 X97.651 Y89.125 E20.29140
G1 X97.695 Y89.247 E20.29645
G1 X97.989 Y90.913 E20.36256
G1 X97.989 Y91.042 E20.36762
G1 X97.695 Y92.709 E20.43373
G1 X97.651 Y92.830 E20.43879
G1 X96.805 Y94.296 E20.50490
G1 X96.722 Y94.395 E20.50995
G1 X95.426 Y95.482 E20.57607
G1 X95.314 Y95.547 E20.58112
G1 X93.723 Y96.126 E20.64724
G1 X93.596 Y96.148 E20.65229
G1 X91.904 Y96.148 E20.71841
G1 X91.777 Y96.126 E20.72346
G1 X90.267 Y95.577 E20.78622
G1 X90.074 Y95.482 E20.79460
G1 X88.778 Y94.395 E20.86071
G1 X88.695 Y94.296 E20.86577
G1 X87.849 Y92.830 E20.93188
G1 X87.805 Y92.709 E20.93693
G1 X87.511 Y91.042 E21.00305
G1 X87.511 Y90.913 E21.00810
G1 X87.805 Y89.247 E21.07422
G1 X87.849 Y89.125 E21.07927
G1 X88.743 Y87.603 E21.14823
G1 X88.988 Y87.770 F7800.000
G1 X90.245 Y86.716 E21.21232 F1080.000
G1 X90.368 Y86.657 E21.21768
G1 X91.853 Y86.116 E21.27943
G1 X91.930 Y86.103 E21.28246
G1 X93.570 Y86.103 E21.34655
G1 X93.647 Y86.116 E21.34959
G1 X95.188 Y86.677 E21.41368
G1 X95.255 Y86.716 E21.41671
G1 X96.512 Y87.770 E21.48081
G1 X96.562 Y87.830 E21.48384
G1 X97.382 Y89.250 E21.54793
G1 X97.409 Y89.323 E21.55097
