; generated by Slic3r 1.2.9 on 2018-09-11 at 18:31:08

; external perimeters extrusion width = 0.37mm
; perimeters extrusion width = 0.58mm
; infill extrusion width = 0.58mm
; solid infill extrusion width = 0.58mm
; top infill extrusion width = 0.58mm
; support material extrusion width = 0.37mm

M107
M190 S80 ; set bed temperature
M104 S230 ; set temperature
G28 ; home all axes
G1 Z5 F5000 ; lift nozzle
M109 S230 ; wait for temperature to be reached
G21 ; set units to millimeters
G90 ; use absolute coordinates
M82 ; use absolute distances for extrusion
G92 E0
G1 E-1.00000 F1800.00000
G92 E0
G1 Z0.300 F7800.000
G1 X42.587 Y56.867 F7800.000
G1 E1.00000 F1800.00000
G1 X43.622 Y56.123 E1.04979 F1080.000
G1 X44.778 Y55.340 E1.10437
G1 X45.731 Y54.811 E1.14696
G1 X46.583 Y54.431 E1.18341
G1 X47.650 Y54.065 E1.22748
G1 X49.912 Y53.511 E1.31847
G1 X50.733 Y53.319 E1.35141
G1 X51.734 Y53.170 E1.39095
G1 X91.420 Y50.479 E2.94513
G1 X91.920 Y50.465 E2.96465
G1 X105.069 Y50.618 E3.47848
G1 X106.604 Y50.827 E3.53899
G1 X107.657 Y51.125 E3.58174
G1 X122.289 Y56.238 E4.18735
G1 X123.267 Y56.676 E4.22922
G1 X123.784 Y56.964 E4.25234
G1 X124.227 Y57.234 E4.27261
G1 X125.713 Y58.227 E4.34245
G1 X126.862 Y59.214 E4.40164
G1 X127.290 Y59.681 E4.42637
G1 X127.878 Y60.431 E4.46362
G1 X129.011 Y62.128 E4.54335
G1 X129.911 Y64.210 E4.63197
G1 X130.119 Y65.114 E4.66821
G1 X130.348 Y66.245 E4.71330
G1 X130.468 Y67.428 E4.75975
G1 X130.478 Y68.729 E4.81057
G1 X129.811 Y71.595 E4.92557
G1 X120.734 Y89.706 E5.71709
G1 X119.557 Y91.336 E5.79565
G1 X110.276 Y100.618 E6.30851
G1 X108.936 Y101.938 E6.38200
G1 X108.577 Y102.265 E6.40098
G1 X107.431 Y103.231 E6.45953
G1 X106.499 Y103.883 E6.50397
G1 X104.645 Y104.944 E6.58746
G1 X104.139 Y105.204 E6.60966
G1 X103.281 Y105.597 E6.64655
G1 X102.729 Y105.819 E6.66978
G1 X101.928 Y106.098 E6.70293
G1 X100.986 Y106.346 E6.74098
G1 X100.009 Y106.518 E6.77974
G1 X97.874 Y106.819 E6.86398
G1 X97.437 Y106.865 E6.88117
G1 X61.814 Y109.367 E8.27646
G1 X61.373 Y109.382 E8.29370
G1 X48.113 Y109.378 E8.81181
G1 X47.599 Y109.354 E8.83189
G1 X45.698 Y109.188 E8.90644
G1 X44.812 Y109.046 E8.94152
G1 X44.220 Y108.908 E8.96527
G1 X42.162 Y108.317 E9.04891
G1 X41.250 Y108.004 E9.08659
G1 X40.579 Y107.720 E9.11509
G1 X39.518 Y107.197 E9.16129
G1 X39.014 Y106.919 E9.18379
G1 X38.508 Y106.609 E9.20698
G1 X37.964 Y106.235 E9.23276
G1 X35.826 Y104.586 E9.33827
G1 X35.361 Y104.193 E9.36203
G1 X34.748 Y103.601 E9.39534
G1 X34.080 Y102.844 E9.43479
G1 X33.673 Y102.336 E9.46022
G1 X33.207 Y101.669 E9.49201
G1 X31.758 Y99.281 E9.60113
G1 X31.294 Y98.457 E9.63811
G1 X30.803 Y97.330 E9.68612
G1 X30.543 Y96.529 E9.71904
G1 X30.333 Y95.682 E9.75312
G1 X29.816 Y92.754 E9.86931
G1 X29.637 Y91.533 E9.91752
G1 X29.688 Y89.437 E9.99944
G1 X30.547 Y85.067 E10.17344
G1 X30.699 Y84.460 E10.19789
G1 X35.828 Y67.630 E10.88534
G1 X36.222 Y66.644 E10.92682
G1 X39.530 Y60.044 E11.21527
G1 X41.219 Y57.954 E11.32025
G1 X42.543 Y56.901 E11.38637
G1 E10.38637 F1800.00000
G92 E0
G1 X74.221 Y93.454 F7800.000
G1 E1.00000 F1800.00000
G1 X73.366 Y93.624 E1.03405 F270.000
G1 X72.512 Y93.454 E1.06810
G1 X71.787 Y92.970 E1.10215
G1 X71.303 Y92.245 E1.13620
G1 X71.133 Y91.390 E1.17025
G1 X71.303 Y90.536 E1.20430
G1 X71.787 Y89.811 E1.23835
G1 X72.512 Y89.327 E1.27240
G1 X73.366 Y89.157 E1.30645
G1 X74.221 Y89.327 E1.34050
G1 X74.946 Y89.811 E1.37456
G1 X75.430 Y90.536 E1.40861
G1 X75.600 Y91.390 E1.44266
G1 X75.430 Y92.245 E1.47671
G1 X74.946 Y92.970 E1.51076
G1 X74.267 Y93.423 E1.54264
G1 X74.149 Y93.817 F7800.000
G1 E0.54264 F1800.00000
G92 E0
G1 X59.201 Y84.550 F7800.000
G1 E1.00000 F1800.00000
G1 X58.478 Y85.632 E1.05086 F270.000
G1 X57.395 Y86.355 E1.10173
G1 X56.119 Y86.609 E1.15259
G1 X54.842 Y86.355 E1.20345
G1 X53.760 Y85.632 E1.25432
G1 X53.036 Y84.550 E1.30518
G1 X52.782 Y83.273 E1.35604
G1 X53.036 Y81.996 E1.40691
G1 X53.760 Y80.914 E1.45777
G1 X54.842 Y80.191 E1.50863
G1 X56.119 Y79.937 E1.55950
G1 X57.395 Y80.191 E1.61036
G1 X58.478 Y80.914 E1.66122
G1 X59.201 Y81.996 E1.71209
G1 X59.455 Y83.273 E1.76295
G1 X59.212 Y84.495 E1.81164
G1 X58.923 Y84.434 F7800.000
G1 X58.265 Y85.419 E1.85791 F270.000
G1 X57.280 Y86.077 E1.90418
G1 X56.119 Y86.308 E1.95045
G1 X54.957 Y86.077 E1.99672
G1 X53.973 Y85.419 E2.04298
G1 X53.315 Y84.434 E2.08925
G1 X53.084 Y83.273 E2.13552
G1 X53.315 Y82.112 E2.18179
G1 X53.973 Y81.127 E2.22806
G1 X54.957 Y80.469 E2.27433
G1 X56.119 Y80.238 E2.32060
G1 X57.280 Y80.469 E2.36686
G1 X58.265 Y81.127 E2.41313
G1 X58.923 Y82.112 E2.45940
G1 X59.154 Y83.273 E2.50567
G1 X58.934 Y84.380 E2.54977
G1 X58.644 Y84.319 F7800.000
G1 X58.052 Y85.206 E2.59144 F270.000
G1 X57.165 Y85.798 E2.63311
G1 X56.119 Y86.006 E2.67479
G1 X55.073 Y85.798 E2.71646
G1 X54.186 Y85.206 E2.75813
G1 X53.593 Y84.319 E2.79981
G1 X53.385 Y83.273 E2.84148
G1 X53.593 Y82.227 E2.88315
G1 X54.186 Y81.340 E2.92483
G1 X55.073 Y80.747 E2.96650
G1 X56.119 Y80.539 E3.00817
G1 X57.165 Y80.747 E3.04984
G1 X58.052 Y81.340 E3.09152
G1 X58.644 Y82.227 E3.13319
G1 X58.852 Y83.273 E3.17486
G1 X58.655 Y84.265 E3.21437
G1 X58.850 Y84.627 F7800.000
G1 X53.488 Y93.228 F7800.000
G1 X53.641 Y92.961 E3.22642 F540.000
G1 X54.077 Y90.773 E3.31357
G1 X53.636 Y88.559 E3.40179
G1 X52.382 Y86.681 E3.49000
G1 X50.505 Y85.427 E3.57821
G1 X48.289 Y84.986 E3.66646
G1 X47.403 Y85.147 E3.70167
G1 X50.249 Y75.580 E4.09168
G1 X51.021 Y76.051 E4.12700
G1 X53.219 Y76.488 E4.21457
G1 X55.433 Y76.048 E4.30279
G1 X57.311 Y74.793 E4.39100
G1 X58.135 Y73.560 E4.44897
G1 X73.169 Y88.593 E5.27966
G1 X72.281 Y88.770 E5.31502
G1 X71.361 Y89.385 E5.35826
G1 X70.746 Y90.305 E5.40150
G1 X70.530 Y91.390 E5.44474
G1 X70.746 Y92.476 E5.48799
G1 X71.249 Y93.228 E5.52334
G1 X53.543 Y93.228 E6.21512
G1 X52.977 Y93.524 F7800.000
G1 X53.361 Y92.856 E6.24523 F540.000
G1 X53.775 Y90.773 E6.32819
G1 X53.358 Y88.674 E6.41181
G1 X52.169 Y86.894 E6.49543
G1 X50.389 Y85.706 E6.57905
G1 X48.287 Y85.287 E6.66280
G1 X46.982 Y85.524 E6.71461
G1 X50.076 Y75.127 E7.13842
G1 X51.130 Y75.771 E7.18669
G1 X53.219 Y76.187 E7.26992
G1 X55.318 Y75.769 E7.35354
G1 X57.098 Y74.580 E7.43716
G1 X58.089 Y73.096 E7.50690
G1 X73.808 Y88.815 E8.37547
G1 X73.746 Y88.931 E8.38061
G1 X73.366 Y88.855 E8.39574
G1 X72.396 Y89.048 E8.43438
G1 X71.574 Y89.598 E8.47303
G1 X71.024 Y90.420 E8.51167
G1 X70.831 Y91.390 E8.55032
G1 X71.024 Y92.360 E8.58896
G1 X71.574 Y93.183 E8.62761
G1 X71.896 Y93.398 E8.64274
G1 X71.858 Y93.524 E8.64788
G1 X53.033 Y93.524 E9.38340
G1 E8.38340 F1800.00000
G92 E0
G1 X75.392 Y93.091 F7800.000
G1 E1.00000 F1800.00000
G1 X75.289 Y92.988 E1.00569 F270.000
G1 X75.708 Y92.360 E1.03519
G1 X75.856 Y91.620 E1.06470
G1 X76.001 Y91.620 E1.07039
G1 X76.032 Y91.773 E1.07650
G1 X75.899 Y92.439 E1.10305
G1 X75.522 Y93.004 E1.12960
G1 X75.438 Y93.060 E1.13353
G1 E0.13353 F1800.00000
G92 E0
G1 X52.467 Y93.819 F7800.000
G1 E1.00000 F1800.00000
G1 X53.080 Y92.750 E1.04816 F378.000
G1 X53.474 Y90.773 E1.12693
G1 X53.079 Y88.789 E1.20596
G1 X51.956 Y87.108 E1.28498
G1 X50.274 Y85.984 E1.36401
G1 X48.284 Y85.588 E1.44326
G1 X46.562 Y85.901 E1.51167
G1 X49.902 Y74.675 E1.96928
G1 X51.239 Y75.492 E2.03051
G1 X53.219 Y75.885 E2.10938
G1 X55.203 Y75.491 E2.18841
G1 X56.885 Y74.367 E2.26743
G1 X58.044 Y72.632 E2.34896
G1 X75.725 Y90.313 E3.32595
G1 X76.178 Y90.991 E3.35780
G1 X76.333 Y91.773 E3.38894
G1 X76.178 Y92.555 E3.42009
G1 X75.735 Y93.217 E3.45123
G1 X75.072 Y93.660 E3.48237
G1 X74.273 Y93.819 E3.51423
G1 X52.522 Y93.819 E4.36405
G1 X52.750 Y93.581 F7800.000
G1 X53.815 Y92.897 F7800.000
G1 X53.977 Y93.060 E4.37314 F540.000
G1 X54.401 Y93.060 E4.38992
G1 X53.885 Y92.544 E4.41880
G1 X53.955 Y92.190 E4.43307
G1 X54.824 Y93.060 E4.48174
G1 X55.248 Y93.060 E4.49852
G1 X54.026 Y91.837 E4.56698
G1 X54.096 Y91.484 E4.58124
G1 X55.672 Y93.060 E4.66949
G1 X56.095 Y93.060 E4.68627
G1 X54.166 Y91.130 E4.79431
G1 X54.236 Y90.777 E4.80858
G1 X56.519 Y93.060 E4.93640
G1 X56.943 Y93.060 E4.95318
G1 X54.164 Y90.281 E5.10877
G1 X54.059 Y89.752 E5.13012
G1 X57.367 Y93.060 E5.31533
G1 X57.790 Y93.060 E5.33211
G1 X53.954 Y89.223 E5.54693
G1 X53.849 Y88.694 E5.56828
G1 X58.214 Y93.060 E5.81272
G1 X58.638 Y93.060 E5.82950
G1 X53.404 Y87.826 E6.12257
G1 X54.513 Y86.393 F7800.000
G1 X61.180 Y93.060 E6.49590 F540.000
G1 X61.603 Y93.060 E6.51268
G1 X55.145 Y86.601 E6.87433
G1 X55.674 Y86.706 E6.89569
G1 X62.027 Y93.060 E7.25145
G1 X62.451 Y93.060 E7.26823
G1 X56.154 Y86.763 E7.62083
G1 X56.507 Y86.693 E7.63509
G1 X62.874 Y93.060 E7.99163
G1 X63.298 Y93.060 E8.00841
G1 X56.861 Y86.622 E8.36888
G1 X57.214 Y86.552 E8.38315
G1 X63.722 Y93.060 E8.74756
G1 X64.145 Y93.060 E8.76433
G1 X57.527 Y86.441 E9.13495
G1 X57.781 Y86.271 E9.14705
G1 X64.569 Y93.060 E9.52717
G1 X64.993 Y93.060 E9.54395
G1 X58.035 Y86.102 E9.93358
G1 X58.289 Y85.932 E9.94567
G1 X65.416 Y93.060 E10.34480
G1 X65.840 Y93.060 E10.36158
G1 X58.543 Y85.762 E10.77021
G1 X58.726 Y85.521 E10.78219
G1 X66.264 Y93.060 E11.20431
G1 X66.687 Y93.060 E11.22109
G1 X58.895 Y85.267 E11.65744
G1 X59.065 Y85.013 E11.66954
G1 X67.111 Y93.060 E12.12011
G1 X67.535 Y93.060 E12.13689
G1 X59.235 Y84.759 E12.60168
G1 X59.376 Y84.477 E12.61418
G1 X67.959 Y93.060 E13.09477
G1 X68.382 Y93.060 E13.11155
G1 X59.446 Y84.124 E13.61193
G1 X59.517 Y83.770 E13.62620
G1 X68.806 Y93.060 E14.14637
G1 X69.230 Y93.060 E14.16314
G1 X59.587 Y83.417 E14.70310
G1 X59.585 Y82.991 E14.71998
G1 X69.653 Y93.060 E15.28380
G1 X70.077 Y93.060 E15.30058
G1 X59.479 Y82.462 E15.89402
G1 X59.374 Y81.933 E15.91537
G1 X70.501 Y93.060 E16.53843
G1 X70.787 Y92.922 E16.55101
G1 X54.299 Y76.434 E17.47432
G1 X54.652 Y76.364 E17.48859
G1 X70.510 Y92.221 E18.37658
G1 X70.405 Y91.692 E18.39793
G1 X55.006 Y76.293 E19.26024
G1 X55.359 Y76.223 E19.27451
G1 X70.395 Y91.260 E20.11652
G1 X70.466 Y90.906 E20.13079
G1 X55.642 Y76.082 E20.96090
G1 X55.896 Y75.912 E20.97300
G1 X70.536 Y90.553 E21.79283
G1 X70.628 Y90.221 E21.80645
G1 X56.150 Y75.743 E22.61722
G1 X56.404 Y75.573 E22.62932
G1 X70.798 Y89.967 E23.43537
G1 X70.968 Y89.713 E23.44746
G1 X56.658 Y75.403 E24.24879
G1 X56.912 Y75.234 E24.26089
G1 X71.137 Y89.459 E25.05750
G1 X71.332 Y89.230 E25.06940
G1 X57.166 Y75.064 E25.86269
G1 X57.418 Y74.893 E25.87477
G1 X71.586 Y89.061 E26.66814
G1 X71.840 Y88.891 E26.68024
G1 X57.588 Y74.639 E27.47833
G1 X57.757 Y74.385 E27.49043
G1 X72.094 Y88.721 E28.29324
G1 X72.385 Y88.589 E28.30590
G1 X57.927 Y74.131 E29.11551
G1 X58.097 Y73.877 E29.12760
G1 X72.738 Y88.518 E29.94749
G1 X59.061 Y93.060 F7800.000
G1 X48.385 Y82.383 E30.54534 F540.000
G1 X48.288 Y82.710 E30.55883
G1 X51.237 Y85.659 E30.72399
G1 X50.369 Y85.214 F7800.000
G1 X48.191 Y83.036 E30.84596 F540.000
G1 X48.094 Y83.363 E30.85945
G1 X49.840 Y85.109 E30.95725
G1 X49.311 Y85.004 E30.97860
G1 X47.996 Y83.689 E31.05222
G1 X47.899 Y84.016 E31.06571
G1 X48.782 Y84.899 E31.11515
G1 X48.286 Y84.826 E31.13502
G1 X47.802 Y84.342 E31.16211
G1 X47.705 Y84.669 E31.17559
G1 X47.927 Y84.891 E31.18804
G1 X48.482 Y82.057 F7800.000
G1 X59.485 Y93.060 E31.80417 F540.000
G1 X59.909 Y93.060 E31.82095
G1 X48.579 Y81.730 E32.45536
G1 X48.676 Y81.404 E32.46885
G1 X60.332 Y93.060 E33.12155
G1 X60.756 Y93.060 E33.13833
G1 X48.774 Y81.077 E33.80931
G1 X48.871 Y80.751 E33.82280
G1 X52.999 Y84.879 E34.05397
G1 X52.791 Y84.247 F7800.000
G1 X48.968 Y80.424 E34.26803 F540.000
G1 X49.065 Y80.098 E34.28152
G1 X52.685 Y83.718 E34.48425
G1 X52.629 Y83.238 E34.50339
G1 X49.162 Y79.771 E34.69751
G1 X49.259 Y79.445 E34.71100
G1 X52.699 Y82.884 E34.90362
G1 X52.769 Y82.531 E34.91789
G1 X49.357 Y79.118 E35.10900
G1 X49.454 Y78.792 E35.12249
G1 X52.840 Y82.178 E35.31209
G1 X52.951 Y81.865 E35.32523
G1 X49.551 Y78.465 E35.51561
G1 X49.648 Y78.139 E35.52910
G1 X53.120 Y81.611 E35.72354
G1 X53.290 Y81.357 E35.73563
G1 X49.745 Y77.812 E35.93414
G1 X49.842 Y77.485 E35.94763
G1 X53.460 Y81.103 E36.15019
G1 X53.629 Y80.849 E36.16229
G1 X49.940 Y77.159 E36.36892
G1 X50.037 Y76.832 E36.38241
G1 X53.870 Y80.666 E36.59709
G1 X54.124 Y80.497 E36.60919
G1 X50.134 Y76.506 E36.83265
G1 X50.231 Y76.179 E36.84614
G1 X54.378 Y80.327 E37.07839
G1 X54.632 Y80.157 E37.09048
G1 X50.384 Y75.908 E37.32840
G1 X51.164 Y76.265 F7800.000
G1 X54.914 Y80.016 E37.53842 F540.000
G1 X55.268 Y79.945 E37.55269
G1 X51.693 Y76.370 E37.75289
G1 X52.222 Y76.475 E37.77424
G1 X55.621 Y79.875 E37.96461
G1 X55.975 Y79.805 E37.97888
G1 X52.751 Y76.581 E38.15942
G1 X53.239 Y76.645 E38.17891
G1 X56.401 Y79.807 E38.35599
G1 X56.930 Y79.912 E38.37735
G1 X53.592 Y76.575 E38.56425
G1 X53.945 Y76.504 E38.57852
G1 X57.459 Y80.018 E38.77525
G1 E37.77525 F1800.00000
G92 E0
G1 X75.409 Y90.220 F7800.000
G1 E1.00000 F1800.00000
G1 X75.599 Y90.458 E1.01191 F360.000
G1 X75.702 Y90.702 E1.02229
G1 X75.702 Y90.702 F7800.000
G1 X75.874 Y91.117 E1.06116 F360.000
G1 X75.945 Y91.472 E1.09251
G1 X75.247 Y93.156 F7800.000
G1 X74.946 Y93.357 E1.12387 F360.000
G1 X74.532 Y93.528 E1.16274
G1 X74.286 Y93.629 E1.17313 F360.000
G1 X73.983 Y93.662 E1.18504
G1 E0.18504 F1800.00000
G92 E0
G1 Z0.300 F7800.000
G1 X77.416 Y92.335 F7800.000
G1 E1.00000 F1800.00000
G1 X78.767 Y89.640 E1.12177 F1080.000
G1 X78.571 Y89.347 E1.13604
G1 X77.455 Y91.572 E1.23658
G1 X77.358 Y91.081 E1.25678
G1 X78.374 Y89.053 E1.34843
G1 X78.178 Y88.759 E1.36269
G1 X77.257 Y90.597 E1.44573
G1 X77.061 Y90.303 E1.46000
G1 X77.982 Y88.466 E1.54303
G1 X77.768 Y88.206 E1.55661
G1 X76.864 Y90.010 E1.63810
G1 X76.668 Y89.716 E1.65237
G1 X77.540 Y87.977 E1.73093
G1 X77.311 Y87.748 E1.74400
G1 X76.455 Y89.456 E1.82117
G1 X76.226 Y89.228 E1.83424
G1 X77.082 Y87.520 E1.91142
G1 X76.853 Y87.291 E1.92448
G1 X75.997 Y88.999 E2.00166
G1 X75.768 Y88.770 E2.01473
G1 X76.625 Y87.062 E2.09190
G1 X76.396 Y86.833 E2.10497
G1 X75.540 Y88.541 E2.18215
G1 X75.311 Y88.313 E2.19522
G1 X76.167 Y86.605 E2.27239
G1 X75.938 Y86.376 E2.28546
G1 X75.082 Y88.084 E2.36263
G1 X74.853 Y87.855 E2.37570
G1 X75.709 Y86.147 E2.45288
G1 X75.481 Y85.918 E2.46595
G1 X74.625 Y87.626 E2.54312
G1 X74.396 Y87.397 E2.55619
G1 X75.252 Y85.689 E2.63337
G1 X75.023 Y85.461 E2.64644
G1 X74.167 Y87.169 E2.72361
G1 X73.938 Y86.940 E2.73668
G1 X74.794 Y85.232 E2.81385
G1 X74.566 Y85.003 E2.82692
G1 X73.709 Y86.711 E2.90410
G1 X73.481 Y86.482 E2.91717
G1 X74.337 Y84.774 E2.99434
G1 X74.108 Y84.545 E3.00741
G1 X73.252 Y86.254 E3.08459
G1 X73.023 Y86.025 E3.09766
G1 X73.879 Y84.317 E3.17483
G1 X73.650 Y84.088 E3.18790
G1 X72.794 Y85.796 E3.26507
G1 X72.566 Y85.567 E3.27814
G1 X73.422 Y83.859 E3.35532
G1 X73.193 Y83.630 E3.36839
G1 X72.337 Y85.338 E3.44556
G1 X72.108 Y85.110 E3.45863
G1 X72.964 Y83.402 E3.53581
G1 X72.735 Y83.173 E3.54887
G1 X71.879 Y84.881 E3.62605
G1 X71.650 Y84.652 E3.63912
G1 X72.506 Y82.944 E3.71629
G1 X72.278 Y82.715 E3.72936
G1 X71.422 Y84.423 E3.80654
G1 X71.193 Y84.194 E3.81961
G1 X72.049 Y82.486 E3.89678
G1 X71.820 Y82.258 E3.90985
G1 X70.964 Y83.966 E3.98703
G1 X70.735 Y83.737 E4.00009
G1 X71.591 Y82.029 E4.07727
G1 X71.363 Y81.800 E4.09034
G1 X70.506 Y83.508 E4.16751
G1 X70.278 Y83.279 E4.18058
G1 X71.134 Y81.571 E4.25776
G1 X70.905 Y81.343 E4.27083
G1 X70.049 Y83.051 E4.34800
G1 X69.820 Y82.822 E4.36107
G1 X70.676 Y81.114 E4.43824
G1 X70.447 Y80.885 E4.45131
G1 X69.591 Y82.593 E4.52849
G1 X69.363 Y82.364 E4.54156
G1 X70.219 Y80.656 E4.61873
G1 X69.990 Y80.427 E4.63180
G1 X69.134 Y82.135 E4.70898
G1 X68.905 Y81.907 E4.72205
G1 X69.761 Y80.199 E4.79922
G1 X69.532 Y79.970 E4.81229
G1 X68.676 Y81.678 E4.88946
G1 X68.447 Y81.449 E4.90253
G1 X69.304 Y79.741 E4.97971
G1 X69.075 Y79.512 E4.99278
G1 X68.219 Y81.220 E5.06995
G1 X67.990 Y80.992 E5.08302
G1 X68.846 Y79.284 E5.16020
G1 X68.617 Y79.055 E5.17327
G1 X67.761 Y80.763 E5.25044
G1 X67.532 Y80.534 E5.26351
G1 X68.388 Y78.826 E5.34068
G1 X68.160 Y78.597 E5.35375
G1 X67.304 Y80.305 E5.43093
G1 X67.075 Y80.076 E5.44400
G1 X67.931 Y78.368 E5.52117
G1 X67.702 Y78.140 E5.53424
G1 X66.846 Y79.848 E5.61141
G1 X66.617 Y79.619 E5.62448
G1 X67.473 Y77.911 E5.70166
G1 X67.244 Y77.682 E5.71473
G1 X66.388 Y79.390 E5.79190
G1 X66.160 Y79.161 E5.80497
G1 X67.016 Y77.453 E5.88214
G1 X66.787 Y77.224 E5.89521
G1 X65.931 Y78.932 E5.97239
