; generated by Slic3r 1.2.9 on 2020-06-01 at 08:20:45

; external perimeters extrusion width = 0.35mm
; perimeters extrusion width = 0.44mm
; infill extrusion width = 0.44mm
; solid infill extrusion width = 0.44mm
; top infill extrusion width = 0.44mm

M107
M190 S90 ; set bed temperature
M104 S240 ; set temperature
G28 ; home all axes
G1 Z5 F5000 ; lift nozzle
M109 S240 ; wait for temperature to be reached
G21 ; set units to millimeters
G90 ; use absolute coordinates
M82 ; use absolute distances for extrusion
G92 E0
G1 E-1.00000 F1800.00000
G92 E0
G1 Z0.300 F7800.000
G1 X41.828 Y49.168 F7800.000
G1 E1.00000 F1800.00000
G1 X43.000 Y48.456 E1.05814 F1080.000
G1 X117.000 Y48.456 E4.19482
G1 X118.172 Y49.168 E4.25296
G1 X120.322 Y53.310 E4.45079
G1 X120.471 Y53.919 E4.47733
G1 X120.471 Y78.919 E5.53702
G1 X118.318 Y110.457 E6.87697
G1 X117.870 Y111.360 E6.91970
G1 X117.000 Y111.688 E6.95911
G1 X43.000 Y111.688 E10.09578
G1 X42.068 Y111.303 E10.13852
G1 X41.682 Y110.457 E10.17792
G1 X39.529 Y78.919 E11.51787
G1 X39.529 Y53.919 E12.57756
G1 X39.678 Y53.310 E12.60411
G1 X41.804 Y49.214 E12.79971
G1 E11.79971 F1800.00000
G92 E0
G1 X104.299 Y75.120 F7800.000
G1 E1.00000 F1800.00000
G1 X98.701 Y75.120 E1.23727 F900.000
G1 X98.701 Y78.120 E1.36444
G1 X84.649 Y78.120 E1.96008
G1 X84.649 Y54.717 E2.95204
G1 X86.799 Y54.717 E3.04318
G1 X86.799 Y50.575 E3.21876
G1 X98.701 Y50.575 E3.72327
G1 X98.701 Y74.717 E4.74660
G1 X104.299 Y74.717 E4.98388
G1 X104.299 Y50.575 E6.00721
G1 X116.201 Y50.575 E6.51172
G1 X116.201 Y54.717 E6.68730
G1 X118.351 Y54.717 E6.77843
G1 X118.351 Y78.120 E7.77040
G1 X104.299 Y78.120 E8.36604
G1 X104.299 Y75.172 E8.49098
G1 X103.978 Y75.440 F7800.000
G1 X99.022 Y75.440 E8.70106 F900.000
G1 X99.022 Y78.440 E8.82823
G1 X84.328 Y78.440 E9.45105
G1 X84.328 Y54.397 E10.47021
G1 X86.478 Y54.397 E10.56134
G1 X86.478 Y50.254 E10.73692
G1 X99.022 Y50.254 E11.26862
G1 X99.022 Y74.397 E12.29195
G1 X103.978 Y74.397 E12.50204
G1 X103.978 Y50.254 E13.52537
G1 X116.522 Y50.254 E14.05707
G1 X116.522 Y54.397 E14.23265
G1 X118.672 Y54.397 E14.32379
G1 X118.672 Y78.440 E15.34294
G1 X103.978 Y78.440 E15.96577
G1 X103.978 Y75.493 E16.09070
G1 X103.675 Y75.744 F7800.000
G1 X99.325 Y75.744 E16.25492 F540.000
G1 X99.325 Y78.744 E16.36817
G1 X84.025 Y78.744 E16.94575
G1 X84.025 Y54.094 E17.87630
G1 X86.175 Y54.094 E17.95746
G1 X86.175 Y49.951 E18.11384
G1 X99.325 Y49.951 E18.61025
G1 X99.325 Y74.094 E19.52164
G1 X103.675 Y74.094 E19.68585
G1 X103.675 Y49.951 E20.59723
G1 X116.825 Y49.951 E21.09365
G1 X116.825 Y54.094 E21.25002
G1 X118.975 Y54.094 E21.33119
G1 X118.975 Y78.744 E22.26173
G1 X103.675 Y78.744 E22.83931
G1 X103.675 Y75.796 E22.95058
G1 X103.675 Y75.394 F7800.000
G1 X104.459 Y74.919 F7800.000
G1 X98.541 Y74.919 E23.20145 F360.000
G1 E22.20145 F1800.00000
G92 E0
G1 X104.483 Y77.759 F7800.000
G1 E1.00000 F1800.00000
G1 X104.659 Y77.935 E1.01062 F360.000
G1 X105.116 Y77.935 E1.03011
G1 X104.483 Y77.302 E1.06829
G1 X104.483 Y76.846 E1.08778
G1 X105.573 Y77.935 E1.15352
G1 X106.029 Y77.935 E1.17301
G1 X104.483 Y76.389 E1.26631
G1 X104.483 Y75.933 E1.28579
G1 X106.486 Y77.935 E1.40665
G1 X106.943 Y77.935 E1.42614
G1 X104.483 Y75.476 E1.57456
G1 X104.644 Y75.180 E1.58893
G1 X107.399 Y77.935 E1.75523
G1 X107.856 Y77.935 E1.77472
G1 X104.644 Y74.723 E1.96857
G1 X104.483 Y74.106 E1.99578
G1 X108.312 Y77.935 E2.22687
G1 X108.769 Y77.935 E2.24636
G1 X104.483 Y73.649 E2.50501
G1 X104.483 Y73.193 E2.52449
G1 X109.226 Y77.935 E2.81070
G1 X109.682 Y77.935 E2.83019
G1 X104.483 Y72.736 E3.14396
G1 X104.483 Y72.280 E3.16344
G1 X110.139 Y77.935 E3.50477
G1 X110.596 Y77.935 E3.52426
G1 X104.483 Y71.823 E3.89314
G1 X104.483 Y71.366 E3.91263
G1 X111.052 Y77.935 E4.30907
G1 X111.509 Y77.935 E4.32856
G1 X104.483 Y70.910 E4.75256
G1 X104.483 Y70.453 E4.77204
G1 X111.965 Y77.935 E5.22360
G1 X112.422 Y77.935 E5.24309
G1 X104.483 Y69.996 E5.72221
G1 X104.483 Y69.540 E5.74170
G1 X112.879 Y77.935 E6.24837
G1 X113.335 Y77.935 E6.26786
G1 X104.483 Y69.083 E6.80209
G1 X104.483 Y68.627 E6.82158
G1 X113.792 Y77.935 E7.38337
G1 X114.249 Y77.935 E7.40286
G1 X104.483 Y68.170 E7.99221
G1 X104.483 Y67.713 E8.01170
G1 X114.705 Y77.935 E8.62861
G1 X115.162 Y77.935 E8.64810
G1 X104.483 Y67.257 E9.29256
G1 X104.483 Y66.800 E9.31205
G1 X115.618 Y77.935 E9.98408
G1 X116.075 Y77.935 E10.00357
G1 X104.483 Y66.343 E10.70315
G1 X104.483 Y65.887 E10.72264
G1 X116.532 Y77.935 E11.44978
G1 X116.988 Y77.935 E11.46927
G1 X104.483 Y65.430 E12.22397
G1 X104.483 Y64.974 E12.24346
G1 X117.445 Y77.935 E13.02572
G1 X117.902 Y77.935 E13.04521
G1 X104.483 Y64.517 E13.85503
G1 X104.483 Y64.060 E13.87451
G1 X118.167 Y77.743 E14.70032
G1 X118.167 Y77.287 E14.71981
G1 X104.483 Y63.604 E15.54562
G1 X104.483 Y63.147 E15.56511
G1 X118.167 Y76.830 E16.39092
G1 X118.167 Y76.374 E16.41041
G1 X104.483 Y62.690 E17.23622
G1 X104.483 Y62.234 E17.25571
G1 X118.167 Y75.917 E18.08152
G1 X118.167 Y75.460 E18.10101
G1 X104.483 Y61.777 E18.92682
G1 X104.483 Y61.321 E18.94630
G1 X118.167 Y75.004 E19.77212
G1 X118.167 Y74.547 E19.79160
G1 X104.483 Y60.864 E20.61742
G1 X104.483 Y60.407 E20.63690
G1 X118.167 Y74.090 E21.46271
G1 X118.167 Y73.634 E21.48220
G1 X104.483 Y59.951 E22.30801
G1 X104.483 Y59.494 E22.32750
G1 X118.167 Y73.177 E23.15331
G1 X118.167 Y72.721 E23.17280
G1 X104.483 Y59.037 E23.99861
G1 X104.483 Y58.581 E24.01810
G1 X118.167 Y72.264 E24.84391
G1 X118.167 Y71.807 E24.86340
G1 X104.483 Y58.124 E25.68921
G1 X104.483 Y57.668 E25.70869
G1 X118.167 Y71.351 E26.53451
G1 X118.167 Y70.894 E26.55399
G1 X104.483 Y57.211 E27.37981
G1 X104.483 Y56.754 E27.39929
G1 X118.167 Y70.437 E28.22510
G1 X118.167 Y69.981 E28.24459
G1 X104.483 Y56.298 E29.07040
G1 X104.483 Y55.841 E29.08989
G1 X118.167 Y69.524 E29.91570
G1 X118.167 Y69.068 E29.93519
G1 X104.483 Y55.384 E30.76100
G1 X104.483 Y54.928 E30.78049
G1 X118.167 Y68.611 E31.60630
G1 X118.167 Y68.154 E31.62579
G1 X104.483 Y54.471 E32.45160
G1 X104.483 Y54.015 E32.47108
G1 X118.167 Y67.698 E33.29690
G1 X118.167 Y67.241 E33.31638
G1 X104.483 Y53.558 E34.14219
G1 X104.483 Y53.101 E34.16168
G1 X118.167 Y66.784 E34.98749
G1 X118.167 Y66.328 E35.00698
G1 X104.483 Y52.645 E35.83279
G1 X104.483 Y52.188 E35.85228
G1 X118.167 Y65.871 E36.67809
G1 X118.167 Y65.415 E36.69758
G1 X104.483 Y51.731 E37.52339
G1 X104.483 Y51.275 E37.54288
G1 X118.167 Y64.958 E38.36869
G1 X118.167 Y64.501 E38.38818
G1 X104.483 Y50.818 E39.21399
G1 X104.881 Y50.760 E39.23116
G1 X118.167 Y64.045 E40.03294
G1 X118.167 Y63.588 E40.05243
G1 X105.338 Y50.760 E40.82666
G1 X105.795 Y50.760 E40.84615
G1 X118.167 Y63.131 E41.59282
G1 X118.167 Y62.675 E41.61230
G1 X106.251 Y50.760 E42.33141
G1 X106.708 Y50.760 E42.35090
G1 X118.167 Y62.218 E43.04245
G1 X118.167 Y61.762 E43.06194
G1 X107.165 Y50.760 E43.72593
G1 X107.621 Y50.760 E43.74542
G1 X118.167 Y61.305 E44.38186
G1 X118.167 Y60.848 E44.40134
G1 X108.078 Y50.760 E45.01022
G1 X108.535 Y50.760 E45.02971
G1 X118.167 Y60.392 E45.61102
G1 X118.167 Y59.935 E45.63051
G1 X108.991 Y50.760 E46.18427
G1 X109.448 Y50.760 E46.20376
G1 X118.167 Y59.478 E46.72996
G1 X118.167 Y59.022 E46.74945
G1 X109.904 Y50.760 E47.24809
G1 X110.361 Y50.760 E47.26758
G1 X118.167 Y58.565 E47.73866
G1 X118.167 Y58.109 E47.75815
G1 X110.818 Y50.760 E48.20168
G1 X111.274 Y50.760 E48.22116
G1 X118.167 Y57.652 E48.63713
G1 X118.167 Y55.369 F7800.000
G1 X117.700 Y54.902 E48.66531 F360.000
G1 X117.243 Y54.902 E48.68479
G1 X118.167 Y55.825 E48.74053
G1 X118.167 Y56.282 E48.76001
G1 X116.786 Y54.902 E48.84331
G1 X116.330 Y54.902 E48.86279
G1 X118.167 Y56.739 E48.97365
G1 X118.167 Y57.195 E48.99313
G1 X111.731 Y50.760 E49.38154
G1 X112.188 Y50.760 E49.40103
G1 X116.017 Y54.589 E49.63212
G1 X116.017 Y54.132 E49.65161
G1 X112.644 Y50.760 E49.85514
G1 X113.101 Y50.760 E49.87463
G1 X116.017 Y53.675 E50.05061
G1 X116.017 Y53.219 E50.07009
G1 X113.557 Y50.760 E50.21851
G1 X114.014 Y50.760 E50.23800
G1 X116.017 Y52.762 E50.35886
G1 X116.017 Y52.306 E50.37835
G1 X114.471 Y50.760 E50.47165
G1 X114.927 Y50.760 E50.49113
G1 X116.017 Y51.849 E50.55688
G1 X116.017 Y51.392 E50.57636
G1 X115.384 Y50.760 E50.61455
G1 X115.841 Y50.760 E50.63403
G1 X116.017 Y50.936 E50.64466
G1 E49.64466 F1800.00000
G92 E0
G1 X98.517 Y50.936 F7800.000
G1 E1.00000 F1800.00000
G1 X98.341 Y50.760 E1.01059 F360.000
G1 X97.885 Y50.760 E1.02995
G1 X98.517 Y51.391 E1.06792
G1 X98.517 Y51.846 E1.08728
G1 X97.430 Y50.760 E1.15263
G1 X96.975 Y50.760 E1.17199
G1 X98.517 Y52.301 E1.26471
G1 X98.517 Y52.756 E1.28407
G1 X96.520 Y50.760 E1.40417
G1 X96.065 Y50.760 E1.42353
G1 X98.517 Y53.211 E1.57102
G1 X98.517 Y53.666 E1.59038
G1 X95.610 Y50.760 E1.76524
G1 X95.155 Y50.760 E1.78459
G1 X98.517 Y54.122 E1.98683
G1 X98.517 Y54.577 E2.00619
G1 X94.699 Y50.760 E2.23581
G1 X94.244 Y50.760 E2.25517
G1 X98.517 Y55.032 E2.51216
G1 X98.517 Y55.487 E2.53152
G1 X93.789 Y50.760 E2.81590
G1 X93.334 Y50.760 E2.83525
G1 X98.517 Y55.942 E3.14701
G1 X98.517 Y56.397 E3.16637
G1 X92.879 Y50.760 E3.50549
G1 X92.424 Y50.760 E3.52485
G1 X98.517 Y56.852 E3.89136
G1 X98.517 Y57.308 E3.91072
G1 X91.969 Y50.760 E4.30461
G1 X91.514 Y50.760 E4.32397
G1 X98.517 Y57.763 E4.74523
G1 X98.517 Y58.218 E4.76459
G1 X91.058 Y50.760 E5.21323
G1 X90.603 Y50.760 E5.23259
G1 X98.517 Y58.673 E5.70861
G1 X98.517 Y59.128 E5.72797
G1 X90.148 Y50.760 E6.23137
G1 X89.693 Y50.760 E6.25073
G1 X98.517 Y59.583 E6.78150
G1 X98.517 Y60.038 E6.80086
G1 X89.238 Y50.760 E7.35902
G1 X88.783 Y50.760 E7.37838
G1 X98.517 Y60.493 E7.96391
G1 X98.517 Y60.949 E7.98327
G1 X88.328 Y50.760 E8.59618
G1 X87.873 Y50.760 E8.61554
G1 X98.517 Y61.404 E9.25583
G1 X98.517 Y61.859 E9.27519
G1 X87.417 Y50.760 E9.94286
G1 X86.993 Y50.790 E9.96096
G1 X98.517 Y62.314 E10.65417
G1 X98.517 Y62.769 E10.67353
G1 X86.983 Y51.236 E11.36730
G1 X86.983 Y51.691 E11.38666
G1 X98.517 Y63.224 E12.08044
G1 X98.517 Y63.679 E12.09980
G1 X86.983 Y52.146 E12.79357
G1 X86.983 Y52.601 E12.81293
G1 X98.517 Y64.134 E13.50670
G1 X98.517 Y64.590 E13.52606
G1 X86.983 Y53.056 E14.21984
G1 X86.983 Y53.512 E14.23920
G1 X98.517 Y65.045 E14.93297
G1 X98.517 Y65.500 E14.95233
G1 X86.983 Y53.967 E15.64610
G1 X86.983 Y54.422 E15.66546
G1 X98.517 Y65.955 E16.35924
G1 X98.517 Y66.410 E16.37860
G1 X86.983 Y54.877 E17.07237
G1 X86.553 Y54.902 E17.09070
G1 X98.517 Y66.865 E17.81034
G1 X98.517 Y67.320 E17.82970
G1 X86.098 Y54.902 E18.57673
G1 X85.643 Y54.902 E18.59609
G1 X98.517 Y67.775 E19.37049
G1 X98.517 Y68.231 E19.38985
G1 X85.188 Y54.902 E20.19163
G1 X84.833 Y55.003 E20.20731
G1 X98.517 Y68.686 E21.03041
G1 X98.517 Y69.141 E21.04977
G1 X84.833 Y55.458 E21.87288
G1 X84.833 Y55.913 E21.89224
G1 X98.517 Y69.596 E22.71535
G1 X98.517 Y70.051 E22.73471
G1 X84.833 Y56.368 E23.55781
G1 X84.833 Y56.823 E23.57717
G1 X98.517 Y70.506 E24.40028
G1 X98.517 Y70.961 E24.41964
G1 X84.833 Y57.278 E25.24274
G1 X84.833 Y57.733 E25.26210
G1 X98.517 Y71.417 E26.08521
G1 X98.517 Y71.872 E26.10457
G1 X84.833 Y58.188 E26.92768
G1 X84.833 Y58.644 E26.94704
G1 X98.517 Y72.327 E27.77014
G1 X98.517 Y72.782 E27.78950
G1 X84.833 Y59.099 E28.61261
G1 X84.833 Y59.554 E28.63197
G1 X98.517 Y73.237 E29.45507
G1 X98.517 Y73.692 E29.47443
G1 X84.833 Y60.009 E30.29754
G1 X84.833 Y60.464 E30.31690
G1 X98.517 Y74.147 E31.14001
G1 X98.456 Y74.541 E31.15697
G1 X84.833 Y60.919 E31.97641
G1 X84.833 Y61.374 E31.99577
G1 X98.356 Y74.897 E32.80923
G1 X98.300 Y75.296 E32.82634
G1 X98.517 Y75.513 E32.83940
G1 X84.833 Y61.830 E33.66251
G1 X84.833 Y62.285 E33.68187
G1 X98.517 Y75.968 E34.50498
G1 X98.517 Y76.423 E34.52433
G1 X84.833 Y62.740 E35.34744
G1 X84.833 Y63.195 E35.36680
G1 X98.517 Y76.878 E36.18991
G1 X98.517 Y77.333 E36.20927
G1 X84.833 Y63.650 E37.03237
G1 X84.833 Y64.105 E37.05173
G1 X98.517 Y77.788 E37.87484
G1 X98.208 Y77.935 E37.88937
G1 X84.833 Y64.560 E38.69392
G1 X84.833 Y65.015 E38.71328
G1 X97.753 Y77.935 E39.49046
G1 X97.298 Y77.935 E39.50982
G1 X84.833 Y65.471 E40.25962
G1 X84.833 Y65.926 E40.27898
G1 X96.843 Y77.935 E41.00140
G1 X96.388 Y77.935 E41.02076
G1 X84.833 Y66.381 E41.71581
G1 X84.833 Y66.836 E41.73516
G1 X95.933 Y77.935 E42.40283
G1 X95.477 Y77.935 E42.42219
G1 X84.833 Y67.291 E43.06248
G1 X84.833 Y67.746 E43.08184
G1 X95.022 Y77.935 E43.69475
G1 X94.567 Y77.935 E43.71411
G1 X84.833 Y68.201 E44.29964
G1 X84.833 Y68.656 E44.31900
G1 X94.112 Y77.935 E44.87715
G1 X93.657 Y77.935 E44.89651
G1 X84.833 Y69.112 E45.42728
G1 X84.833 Y69.567 E45.44664
G1 X93.202 Y77.935 E45.95004
G1 X92.747 Y77.935 E45.96940
G1 X84.833 Y70.022 E46.44542
G1 X84.833 Y70.477 E46.46478
G1 X92.292 Y77.935 E46.91342
G1 X91.836 Y77.935 E46.93278
G1 X84.833 Y70.932 E47.35404
G1 X84.833 Y71.387 E47.37340
G1 X91.381 Y77.935 E47.76728
G1 X90.926 Y77.935 E47.78664
G1 X84.833 Y71.842 E48.15315
G1 X84.833 Y72.298 E48.17251
G1 X90.471 Y77.935 E48.51164
G1 X90.016 Y77.935 E48.53099
G1 X84.833 Y72.753 E48.84274
G1 X84.833 Y73.208 E48.86210
G1 X89.561 Y77.935 E49.14647
G1 X89.106 Y77.935 E49.16583
G1 X84.833 Y73.663 E49.42283
G1 X84.833 Y74.118 E49.44219
G1 X88.650 Y77.935 E49.67180
G1 X88.195 Y77.935 E49.69116
G1 X84.833 Y74.573 E49.89340
G1 X84.833 Y75.028 E49.91276
G1 X87.740 Y77.935 E50.08761
G1 X87.285 Y77.935 E50.10697
G1 X84.833 Y75.483 E50.25445
G1 X84.833 Y75.939 E50.27381
G1 X86.830 Y77.935 E50.39392
G1 X86.375 Y77.935 E50.41328
G1 X84.833 Y76.394 E50.50600
G1 X84.833 Y76.849 E50.52536
G1 X85.920 Y77.935 E50.59070
G1 X85.465 Y77.935 E50.61006
G1 X84.833 Y77.304 E50.64803
G1 X84.833 Y77.759 E50.66739
G1 X85.009 Y77.935 E50.67798
G1 E49.67798 F1800.00000
G92 E0
G1 X61.299 Y75.120 F7800.000
G1 E1.00000 F1800.00000
G1 X55.701 Y75.120 E1.23727 F900.000
G1 X55.701 Y78.120 E1.36444
G1 X41.649 Y78.120 E1.96008
G1 X41.649 Y54.717 E2.95204
G1 X43.799 Y54.717 E3.04318
G1 X43.799 Y50.575 E3.21876
G1 X55.701 Y50.575 E3.72327
G1 X55.701 Y74.717 E4.74660
G1 X61.299 Y74.717 E4.98388
G1 X61.299 Y50.575 E6.00721
G1 X73.201 Y50.575 E6.51172
G1 X73.201 Y54.717 E6.68730
G1 X75.351 Y54.717 E6.77843
G1 X75.351 Y78.120 E7.77040
G1 X61.299 Y78.120 E8.36604
G1 X61.299 Y75.172 E8.49098
G1 X60.978 Y75.440 F7800.000
G1 X56.022 Y75.440 E8.70106 F900.000
G1 X56.022 Y78.440 E8.82823
G1 X41.328 Y78.440 E9.45105
G1 X41.328 Y54.397 E10.47021
G1 X43.478 Y54.397 E10.56134
G1 X43.478 Y50.254 E10.73692
G1 X56.022 Y50.254 E11.26862
G1 X56.022 Y74.397 E12.29195
G1 X60.978 Y74.397 E12.50204
G1 X60.978 Y50.254 E13.52537
G1 X73.522 Y50.254 E14.05707
G1 X73.522 Y54.397 E14.23265
G1 X75.672 Y54.397 E14.32379
G1 X75.672 Y78.440 E15.34294
G1 X60.978 Y78.440 E15.96577
G1 X60.978 Y75.493 E16.09070
G1 X60.675 Y75.744 F7800.000
G1 X56.325 Y75.744 E16.25492 F540.000
G1 X56.325 Y78.744 E16.36817
G1 X41.025 Y78.744 E16.94575
G1 X41.025 Y54.094 E17.87630
G1 X43.175 Y54.094 E17.95746
G1 X43.175 Y49.951 E18.11384
G1 X56.325 Y49.951 E18.61025
G1 X56.325 Y74.094 E19.52164
G1 X60.675 Y74.094 E19.68585
G1 X60.675 Y49.951 E20.59723
G1 X73.825 Y49.951 E21.09365
G1 X73.825 Y54.094 E21.25002
G1 X75.975 Y54.094 E21.33119
G1 X75.975 Y78.744 E22.26173
G1 X60.675 Y78.744 E22.83931
G1 X60.675 Y75.796 E22.95058
G1 X60.675 Y75.394 F7800.000
G1 X61.459 Y74.919 F7800.000
G1 X55.541 Y74.919 E23.20145 F360.000
G1 E22.20145 F1800.00000
G92 E0
G1 X61.483 Y77.759 F7800.000
G1 E1.00000 F1800.00000
G1 X61.659 Y77.935 E1.01062 F360.000
G1 X62.116 Y77.935 E1.03011
G1 X61.483 Y77.302 E1.06829
G1 X61.483 Y76.846 E1.08778
G1 X62.573 Y77.935 E1.15352
G1 X63.029 Y77.935 E1.17301
G1 X61.483 Y76.389 E1.26631
G1 X61.483 Y75.933 E1.28579
G1 X63.486 Y77.935 E1.40665
G1 X63.943 Y77.935 E1.42614
G1 X61.483 Y75.476 E1.57456
G1 X61.644 Y75.180 E1.58893
G1 X64.399 Y77.935 E1.75523
G1 X64.856 Y77.935 E1.77472
G1 X61.644 Y74.723 E1.96857
G1 X61.483 Y74.106 E1.99578
G1 X65.312 Y77.935 E2.22687
G1 X65.769 Y77.935 E2.24636
G1 X61.483 Y73.649 E2.50501
G1 X61.483 Y73.193 E2.52449
G1 X66.226 Y77.935 E2.81070
G1 X66.682 Y77.935 E2.83019
G1 X61.483 Y72.736 E3.14396
G1 X61.483 Y72.280 E3.16344
G1 X67.139 Y77.935 E3.50477
G1 X67.596 Y77.935 E3.52426
G1 X61.483 Y71.823 E3.89314
G1 X61.483 Y71.366 E3.91263
G1 X68.052 Y77.935 E4.30907
G1 X68.509 Y77.935 E4.32856
