; generated by Slic3r 1.2.9 on 2018-08-06 at 19:42:16

; external perimeters extrusion width = 0.31mm
; perimeters extrusion width = 0.31mm
; infill extrusion width = 0.37mm
; solid infill extrusion width = 0.37mm
; top infill extrusion width = 0.37mm

M107
M190 S55 ; set bed temperature
M104 S185 ; set temperature
G28 ; home all axes
G1 Z5 F5000 ; lift nozzle
M109 S185 ; wait for temperature to be reached
G21 ; set units to millimeters
G90 ; use absolute coordinates
M82 ; use absolute distances for extrusion
G92 E0
G1 E-1.00000 F1800.00000
G92 E0
G1 Z0.300 F7800.000
G1 X51.041 Y68.608 F7800.000
G1 E1.00000 F1800.00000
G1 X51.573 Y68.245 E1.02513 F1080.000
G1 X52.012 Y67.990 E1.04497
G1 X52.592 Y67.707 E1.07020
G1 X53.010 Y67.537 E1.08783
G1 X53.532 Y67.363 E1.10934
G1 X54.063 Y67.224 E1.13079
G1 X54.697 Y67.108 E1.15597
G1 X55.366 Y67.039 E1.18224
G1 X78.779 Y65.608 E2.09873
G1 X79.586 Y65.575 E2.13031
G1 X80.416 Y65.572 E2.16275
G1 X81.139 Y65.597 E2.19099
G1 X81.918 Y65.651 E2.22149
G1 X82.714 Y65.736 E2.25278
G1 X83.542 Y65.858 E2.28548
G1 X84.307 Y66.000 E2.31587
G1 X85.154 Y66.191 E2.34980
G1 X85.888 Y66.387 E2.37950
G1 X86.629 Y66.613 E2.40976
G1 X87.424 Y66.889 E2.44266
G1 X88.201 Y67.193 E2.47523
G1 X88.905 Y67.501 E2.50527
G1 X89.669 Y67.870 E2.53842
G1 X90.341 Y68.226 E2.56815
G1 X91.049 Y68.636 E2.60010
G1 X91.625 Y68.997 E2.62666
G1 X92.217 Y69.395 E2.65454
G1 X92.917 Y69.905 E2.68838
G1 X93.472 Y70.342 E2.71597
G1 X94.083 Y70.859 E2.74722
G1 X94.663 Y71.388 E2.77792
G1 X95.198 Y71.913 E2.80719
G1 X95.812 Y72.565 E2.84220
G1 X96.311 Y73.136 E2.87184
G1 X96.819 Y73.762 E2.90332
G1 X97.292 Y74.394 E2.93417
G1 X98.072 Y75.556 E2.98884
G1 X98.439 Y76.166 E3.01665
G1 X98.674 Y76.603 E3.03605
G1 X98.882 Y77.059 E3.05562
G1 X99.104 Y77.655 E3.08048
G1 X99.257 Y78.195 E3.10241
G1 X99.376 Y78.779 E3.12569
G1 X99.458 Y79.474 E3.15305
G1 X99.475 Y79.963 E3.17216
G1 X99.451 Y80.606 E3.19729
G1 X99.388 Y81.151 E3.21875
G1 X99.286 Y81.681 E3.23980
G1 X99.186 Y82.074 E3.25567
G1 X98.908 Y82.879 E3.28894
G1 X98.532 Y83.669 E3.32311
G1 X97.840 Y84.809 E3.37524
G1 X97.052 Y85.932 E3.42884
G1 X96.251 Y86.936 E3.47904
G1 X95.412 Y87.865 E3.52791
G1 X94.440 Y88.820 E3.58117
G1 X93.513 Y89.625 E3.62915
G1 X92.607 Y90.326 E3.67390
G1 X91.592 Y91.025 E3.72206
G1 X90.527 Y91.669 E3.77069
G1 X89.401 Y92.264 E3.82043
G1 X88.341 Y92.748 E3.86597
G1 X87.116 Y93.223 E3.91729
G1 X86.019 Y93.576 E3.96234
G1 X84.821 Y93.888 E4.01070
G1 X83.436 Y94.159 E4.06584
G1 X82.097 Y94.333 E4.11861
G1 X81.343 Y94.392 E4.14816
G1 X80.619 Y94.423 E4.17647
G1 X79.238 Y94.415 E4.23044
G1 X55.365 Y92.961 E5.16490
G1 X54.551 Y92.870 E5.19693
G1 X54.069 Y92.777 E5.21609
G1 X53.634 Y92.667 E5.23362
G1 X53.060 Y92.481 E5.25723
G1 X52.463 Y92.235 E5.28245
G1 X51.981 Y91.993 E5.30352
G1 X51.494 Y91.704 E5.32565
G1 X50.972 Y91.340 E5.35050
G1 X50.545 Y90.992 E5.37203
G1 X50.094 Y90.564 E5.39634
G1 X49.676 Y90.100 E5.42074
G1 X49.234 Y89.518 E5.44929
G1 X48.973 Y89.112 E5.46814
G1 X48.716 Y88.652 E5.48871
G1 X48.471 Y88.131 E5.51123
G1 X48.161 Y87.276 E5.54675
G1 X48.027 Y86.776 E5.56699
G1 X47.920 Y86.234 E5.58857
G1 X47.852 Y85.722 E5.60874
G1 X47.808 Y84.874 E5.64192
G1 X47.808 Y75.114 E6.02327
G1 X47.834 Y74.474 E6.04828
G1 X47.920 Y73.763 E6.07628
G1 X48.016 Y73.271 E6.09585
G1 X48.126 Y72.844 E6.11309
G1 X48.284 Y72.347 E6.13347
G1 X48.553 Y71.684 E6.16143
G1 X48.926 Y70.967 E6.19301
G1 X49.373 Y70.287 E6.22479
G1 X49.880 Y69.664 E6.25618
G1 X50.336 Y69.198 E6.28166
G1 X50.999 Y68.639 E6.31554
G1 E5.31554 F1800.00000
G92 E0
G1 X82.498 Y85.731 F7800.000
G1 E1.00000 F1800.00000
G1 X82.288 Y85.558 E1.01063 F540.000
G1 X82.147 Y85.292 E1.02239
G1 X82.102 Y85.003 E1.03379
G1 X82.163 Y84.766 E1.04338
G1 X82.269 Y84.644 E1.04970
G1 X82.404 Y84.561 E1.05587
G1 X82.877 Y84.424 E1.07511
G1 X83.041 Y84.352 E1.08214
G1 X83.259 Y84.166 E1.09333
G1 X83.400 Y83.931 E1.10402
G1 X83.619 Y83.358 E1.12800
G1 X83.805 Y82.969 E1.14483
G1 X83.869 Y82.728 E1.15458
G1 X83.823 Y82.494 E1.16388
G1 X83.550 Y81.869 E1.19054
G1 X82.956 Y80.265 E1.25739
G1 X82.622 Y79.437 E1.29225
G1 X82.567 Y79.223 E1.30089
G1 X82.535 Y78.956 E1.31142
G1 X82.543 Y78.793 E1.31777
G1 X82.590 Y78.607 E1.32530
G1 X82.662 Y78.485 E1.33081
G1 X82.801 Y78.368 E1.33790
G1 X82.983 Y78.311 E1.34535
G1 X83.130 Y78.302 E1.35111
G1 X83.283 Y78.322 E1.35713
G1 X83.467 Y78.383 E1.36471
G1 X83.602 Y78.463 E1.37086
G1 X83.750 Y78.609 E1.37897
G1 X83.875 Y78.865 E1.39010
G1 X84.061 Y79.514 E1.41648
G1 X84.503 Y80.635 E1.46355
G1 X84.629 Y80.630 E1.46848
G1 X84.783 Y80.120 E1.48932
G1 X85.115 Y79.158 E1.52907
G1 X85.242 Y78.853 E1.54198
G1 X85.340 Y78.679 E1.54978
G1 X85.490 Y78.487 E1.55929
G1 X85.652 Y78.359 E1.56735
G1 X85.846 Y78.301 E1.57528
G1 X85.999 Y78.318 E1.58127
G1 X86.125 Y78.372 E1.58662
G1 X86.282 Y78.494 E1.59441
G1 X86.373 Y78.606 E1.60004
G1 X86.451 Y78.742 E1.60617
G1 X86.515 Y78.966 E1.61528
G1 X86.490 Y79.206 E1.62470
G1 X86.412 Y79.431 E1.63402
G1 X86.201 Y79.891 E1.65377
G1 X85.088 Y83.052 E1.78472
G1 X84.464 Y84.639 E1.85133
G1 X84.342 Y84.888 E1.86217
G1 X84.174 Y85.156 E1.87454
G1 X83.995 Y85.358 E1.88507
G1 X83.780 Y85.520 E1.89559
G1 X83.515 Y85.651 E1.90716
G1 X83.100 Y85.776 E1.92409
G1 X82.771 Y85.802 E1.93700
G1 X82.548 Y85.744 E1.94596
G1 X82.259 Y85.862 F7800.000
G1 E0.94596 F1800.00000
G92 E0
G1 X87.135 Y82.995 F7800.000
G1 E1.00000 F1800.00000
G1 X87.034 Y82.718 E1.01153 F540.000
G1 X87.016 Y82.477 E1.02098
G1 X87.057 Y82.245 E1.03019
G1 X87.153 Y82.009 E1.04014
G1 X87.324 Y81.730 E1.05291
G1 X88.866 Y79.603 E1.15560
G1 X88.379 Y79.655 E1.17475
G1 X88.006 Y79.657 E1.18931
G1 X87.585 Y79.611 E1.20586
G1 X87.436 Y79.567 E1.21193
G1 X87.263 Y79.473 E1.21962
G1 X87.119 Y79.287 E1.22883
G1 X87.061 Y79.085 E1.23704
G1 X87.063 Y78.857 E1.24595
G1 X87.156 Y78.594 E1.25685
G1 X87.292 Y78.451 E1.26458
G1 X87.469 Y78.364 E1.27226
G1 X87.688 Y78.316 E1.28102
G1 X87.907 Y78.301 E1.28961
G1 X90.046 Y78.305 E1.37316
G1 X90.309 Y78.370 E1.38374
G1 X90.461 Y78.482 E1.39114
G1 X90.544 Y78.599 E1.39674
G1 X90.624 Y78.837 E1.40652
G1 X90.637 Y79.081 E1.41608
G1 X90.588 Y79.347 E1.42666
G1 X90.485 Y79.577 E1.43651
G1 X90.247 Y79.941 E1.45350
G1 X89.022 Y81.663 E1.53605
G1 X88.852 Y81.945 E1.54893
G1 X89.739 Y81.904 E1.58362
G1 X90.180 Y81.953 E1.60095
G1 X90.437 Y82.050 E1.61170
G1 X90.550 Y82.135 E1.61722
G1 X90.657 Y82.284 E1.62438
G1 X90.712 Y82.474 E1.63209
G1 X90.720 Y82.626 E1.63807
G1 X90.691 Y82.811 E1.64538
G1 X90.635 Y82.946 E1.65107
G1 X90.560 Y83.055 E1.65626
G1 X90.412 Y83.165 E1.66347
G1 X90.221 Y83.231 E1.67135
G1 X89.958 Y83.259 E1.68169
G1 X88.230 Y83.254 E1.74921
G1 X87.654 Y83.283 E1.77174
G1 X87.504 Y83.264 E1.77765
G1 X87.326 Y83.194 E1.78511
G1 X87.172 Y83.033 E1.79382
G1 X86.840 Y82.985 F7800.000
G1 E0.79382 F1800.00000
G92 E0
G1 X81.557 Y83.204 F7800.000
G1 E1.00000 F1800.00000
G1 X81.349 Y83.271 E1.00853 F540.000
G1 X81.130 Y83.277 E1.01710
G1 X80.934 Y83.217 E1.02510
G1 X80.775 Y83.098 E1.03288
G1 X80.590 Y82.843 E1.04517
G1 X80.102 Y81.963 E1.08449
G1 X79.909 Y82.387 E1.10270
G1 X79.719 Y82.712 E1.11741
G1 X79.515 Y83.000 E1.13119
G1 X79.357 Y83.157 E1.13994
G1 X79.124 Y83.264 E1.14992
G1 X78.865 Y83.239 E1.16010
G1 X78.624 Y83.106 E1.17086
G1 X78.485 Y82.942 E1.17926
G1 X78.423 Y82.766 E1.18653
G1 X78.419 Y82.627 E1.19197
G1 X78.459 Y82.426 E1.19999
G1 X78.523 Y82.265 E1.20675
G1 X79.049 Y81.343 E1.24821
G1 X79.377 Y80.880 E1.27040
G1 X79.413 Y80.776 E1.27469
G1 X79.377 Y80.653 E1.27972
G1 X79.143 Y80.299 E1.29627
G1 X78.680 Y79.486 E1.33282
G1 X78.587 Y79.297 E1.34108
G1 X78.505 Y79.055 E1.35104
G1 X78.490 Y78.788 E1.36152
G1 X78.586 Y78.566 E1.37096
G1 X78.709 Y78.444 E1.37774
G1 X78.867 Y78.352 E1.38486
G1 X79.104 Y78.299 E1.39436
G1 X79.268 Y78.315 E1.40078
G1 X79.392 Y78.360 E1.40595
G1 X79.510 Y78.435 E1.41140
G1 X79.671 Y78.590 E1.42013
G1 X79.894 Y78.914 E1.43552
G1 X80.193 Y79.495 E1.46104
G1 X80.394 Y79.040 E1.48048
G1 X80.541 Y78.774 E1.49235
G1 X80.722 Y78.556 E1.50340
G1 X80.899 Y78.409 E1.51242
G1 X81.099 Y78.311 E1.52113
G1 X81.267 Y78.301 E1.52767
G1 X81.400 Y78.330 E1.53299
G1 X81.613 Y78.467 E1.54289
G1 X81.761 Y78.670 E1.55274
G1 X81.823 Y78.932 E1.56322
G1 X81.750 Y79.221 E1.57489
G1 X81.064 Y80.382 E1.62757
G1 X80.989 Y80.560 E1.63511
G1 X80.964 Y80.697 E1.64055
G1 X80.975 Y80.824 E1.64553
G1 X81.024 Y80.955 E1.65102
G1 X81.707 Y82.093 E1.70285
G1 X81.840 Y82.388 E1.71550
G1 X81.876 Y82.631 E1.72510
G1 X81.848 Y82.855 E1.73392
G1 X81.753 Y83.045 E1.74225
G1 X81.598 Y83.171 E1.75006
G1 X81.537 Y83.421 F7800.000
G1 E0.75006 F1800.00000
G92 E0
G1 X77.939 Y82.521 F7800.000
G1 E1.00000 F1800.00000
G1 X77.892 Y82.728 E1.00829 F540.000
G1 X77.762 Y83.003 E1.02017
G1 X77.631 Y83.171 E1.02851
G1 X77.472 Y83.313 E1.03684
G1 X77.206 Y83.462 E1.04874
G1 X77.001 Y83.522 E1.05708
G1 X76.794 Y83.545 E1.06521
G1 X76.586 Y83.531 E1.07337
G1 X76.384 Y83.481 E1.08148
G1 X76.189 Y83.394 E1.08981
G1 X75.957 Y83.222 E1.10112
G1 X75.807 Y83.051 E1.11002
G1 X75.701 Y82.870 E1.11819
G1 X75.629 Y82.675 E1.12633
G1 X75.591 Y82.469 E1.13448
G1 X75.591 Y82.260 E1.14268
G1 X75.630 Y82.050 E1.15099
G1 X75.747 Y81.770 E1.16288
G1 X75.871 Y81.596 E1.17121
G1 X76.023 Y81.449 E1.17948
G1 X76.282 Y81.287 E1.19141
G1 X76.484 Y81.219 E1.19976
G1 X76.693 Y81.186 E1.20802
G1 X76.997 Y81.206 E1.21991
G1 X77.202 Y81.266 E1.22826
G1 X77.389 Y81.360 E1.23643
G1 X77.558 Y81.487 E1.24468
G1 X77.757 Y81.718 E1.25663
G1 X77.856 Y81.907 E1.26496
G1 X77.920 Y82.105 E1.27307
G1 X77.948 Y82.312 E1.28123
G1 X77.941 Y82.469 E1.28737
G1 X78.103 Y82.656 F7800.000
G1 E0.28737 F1800.00000
G92 E0
G1 X75.528 Y81.500 F7800.000
G1 E1.00000 F1800.00000
G1 X75.414 Y81.745 E1.01054 F540.000
G1 X75.218 Y82.062 E1.02512
G1 X74.988 Y82.335 E1.03906
G1 X74.808 Y82.500 E1.04861
G1 X74.620 Y82.642 E1.05780
G1 X74.323 Y82.809 E1.07112
G1 X73.902 Y82.951 E1.08849
G1 X73.369 Y83.037 E1.10960
G1 X72.849 Y83.064 E1.12992
G1 X72.031 Y83.056 E1.16189
G1 X71.551 Y83.101 E1.18071
G1 X71.379 Y83.079 E1.18750
G1 X71.218 Y83.006 E1.19440
G1 X71.121 Y82.918 E1.19953
G1 X71.021 Y82.753 E1.20708
G1 X70.956 Y82.534 E1.21600
G1 X70.932 Y82.266 E1.22649
G1 X70.950 Y81.665 E1.24998
G1 X70.954 Y78.049 E1.39128
G1 X70.912 Y77.428 E1.41561
G1 X70.984 Y77.167 E1.42618
G1 X71.166 Y76.989 E1.43612
G1 X71.438 Y76.884 E1.44750
G1 X71.729 Y76.854 E1.45894
G1 X73.334 Y76.890 E1.52167
G1 X73.783 Y76.949 E1.53936
G1 X74.248 Y77.070 E1.55815
G1 X74.620 Y77.252 E1.57432
G1 X74.957 Y77.521 E1.59116
G1 X75.224 Y77.832 E1.60717
G1 X75.470 Y78.252 E1.62619
G1 X75.612 Y78.614 E1.64138
G1 X75.687 Y78.880 E1.65217
G1 X75.781 Y79.476 E1.67577
G1 X75.801 Y79.980 E1.69546
G1 X75.787 Y80.331 E1.70921
G1 X75.696 Y80.962 E1.73410
G1 X75.543 Y81.450 E1.75407
G1 X75.692 Y81.714 F7800.000
G1 E0.75407 F1800.00000
G92 E0
G1 X67.757 Y78.561 F7800.000
G1 E1.00000 F1800.00000
G1 X67.588 Y78.638 E1.00725 F540.000
G1 X67.156 Y78.712 E1.02436
G1 X67.104 Y78.577 E1.03000
G1 X67.489 Y78.328 E1.04793
G1 X67.709 Y78.256 E1.05696
G1 X67.793 Y78.258 E1.06024
G1 X67.844 Y78.338 E1.06394
G1 X67.844 Y78.446 E1.06816
G1 X67.793 Y78.522 E1.07175
G1 X66.620 Y78.404 F7800.000
G1 X66.437 Y78.344 E1.07926 F540.000
G1 X66.247 Y78.195 E1.08872
G1 X66.111 Y78.005 E1.09783
G1 X66.033 Y77.793 E1.10667
G1 X66.020 Y77.602 E1.11414
G1 X66.116 Y77.345 E1.12487
G1 X66.264 Y77.171 E1.13379
G1 X66.469 Y77.016 E1.14383
G1 X66.742 Y76.875 E1.15584
G1 X67.047 Y76.772 E1.16841
G1 X67.388 Y76.711 E1.18195
G1 X67.986 Y76.696 E1.20533
G1 X68.264 Y76.726 E1.21626
G1 X68.587 Y76.795 E1.22915
G1 X68.788 Y76.867 E1.23749
G1 X69.045 Y77.006 E1.24890
G1 X69.200 Y77.126 E1.25657
G1 X69.392 Y77.332 E1.26756
G1 X69.536 Y77.568 E1.27836
G1 X69.631 Y77.894 E1.29164
G1 X69.649 Y78.185 E1.30304
G1 X69.613 Y78.671 E1.32209
G1 X69.526 Y78.990 E1.33500
G1 X69.405 Y79.186 E1.34399
G1 X69.236 Y79.341 E1.35296
G1 X68.929 Y79.514 E1.36671
G1 X69.216 Y79.635 E1.37885
G1 X69.346 Y79.721 E1.38496
G1 X69.497 Y79.878 E1.39347
G1 X69.614 Y80.079 E1.40256
G1 X69.724 Y80.386 E1.41529
G1 X69.843 Y80.815 E1.43269
G1 X69.889 Y81.129 E1.44508
G1 X69.868 Y81.528 E1.46072
G1 X69.753 Y81.944 E1.47757
G1 X69.602 Y82.255 E1.49109
G1 X69.341 Y82.609 E1.50828
G1 X69.018 Y82.886 E1.52488
G1 X68.640 Y83.086 E1.54161
G1 X68.228 Y83.199 E1.55829
G1 X67.858 Y83.235 E1.57283
G1 X67.449 Y83.229 E1.58882
G1 X67.085 Y83.179 E1.60318
G1 X66.785 Y83.095 E1.61533
G1 X66.531 Y82.981 E1.62621
G1 X66.325 Y82.835 E1.63608
G1 X66.164 Y82.650 E1.64565
G1 X66.049 Y82.386 E1.65691
G1 X66.019 Y82.144 E1.66645
G1 X66.077 Y81.865 E1.67756
G1 X66.198 Y81.692 E1.68582
G1 X66.415 Y81.556 E1.69584
G1 X66.686 Y81.503 E1.70663
G1 X66.946 Y81.530 E1.71686
G1 X67.141 Y81.601 E1.72497
G1 X67.570 Y81.909 E1.74559
G1 X67.681 Y81.967 E1.75048
G1 X67.829 Y81.988 E1.75631
G1 X67.957 Y81.966 E1.76139
G1 X68.159 Y81.869 E1.77015
G1 X68.277 Y81.765 E1.77629
G1 X68.366 Y81.635 E1.78244
G1 X68.424 Y81.487 E1.78865
G1 X68.446 Y81.266 E1.79731
G1 X68.399 Y81.050 E1.80597
G1 X68.274 Y80.818 E1.81625
G1 X68.134 Y80.656 E1.82465
G1 X67.963 Y80.520 E1.83315
G1 X67.771 Y80.423 E1.84158
G1 X67.632 Y80.378 E1.84727
G1 X67.139 Y80.287 E1.86687
G1 X66.946 Y80.213 E1.87494
G1 X66.775 Y80.052 E1.88413
G1 X66.709 Y79.863 E1.89193
G1 X66.705 Y79.649 E1.90028
G1 X66.761 Y79.427 E1.90922
G1 X66.833 Y79.281 E1.91563
G1 X66.974 Y79.118 E1.92405
G1 X67.208 Y79.003 E1.93420
G1 X67.660 Y78.926 E1.95215
G1 X67.816 Y78.873 E1.95857
G1 X67.946 Y78.790 E1.96460
G1 X68.053 Y78.678 E1.97064
G1 X68.122 Y78.555 E1.97617
G1 X68.150 Y78.438 E1.98085
G1 X68.134 Y78.265 E1.98764
G1 X68.085 Y78.149 E1.99255
G1 X68.008 Y78.055 E1.99729
G1 X67.921 Y77.996 E2.00140
G1 X67.812 Y77.963 E2.00585
G1 X67.676 Y77.960 E2.01119
G1 X67.448 Y78.018 E2.02038
G1 X67.342 Y78.071 E2.02500
G1 X66.937 Y78.333 E2.04385
G1 X66.800 Y78.387 E2.04962
G1 X66.673 Y78.399 E2.05461
G1 X66.496 Y78.551 F7800.000
G1 X65.010 Y78.087 F7800.000
G1 X64.806 Y78.151 E2.06297 F540.000
G1 X64.484 Y78.185 E2.07564
G1 X63.553 Y78.170 E2.11202
G1 X63.441 Y78.206 E2.11659
G1 X63.406 Y78.450 E2.12623
G1 X63.423 Y82.362 E2.27908
G1 X63.379 Y82.604 E2.28871
G1 X63.294 Y82.800 E2.29704
G1 X63.154 Y82.958 E2.30528
G1 X62.976 Y83.055 E2.31320
G1 X62.696 Y83.093 E2.32428
G1 X62.396 Y83.025 E2.33628
G1 X62.195 Y82.879 E2.34597
G1 X62.122 Y82.755 E2.35159
G1 X62.080 Y82.573 E2.35891
G1 X62.119 Y81.929 E2.38412
G1 X62.102 Y79.146 E2.49286
G1 X62.138 Y78.580 E2.51502
G1 X62.112 Y78.395 E2.52233
G1 X62.025 Y78.269 E2.52830
G1 X61.848 Y78.173 E2.53616
G1 X61.547 Y78.149 E2.54794
G1 X60.820 Y78.225 E2.57652
G1 X60.613 Y78.188 E2.58473
G1 X60.409 Y78.056 E2.59421
G1 X60.293 Y77.881 E2.60243
G1 X60.226 Y77.673 E2.61095
G1 X60.219 Y77.446 E2.61982
G1 X60.271 Y77.235 E2.62834
G1 X60.343 Y77.098 E2.63435
G1 X60.482 Y76.951 E2.64228
G1 X60.639 Y76.868 E2.64923
G1 X60.870 Y76.833 E2.65836
G1 X61.484 Y76.876 E2.68238
G1 X64.791 Y76.865 E2.81162
G1 X64.937 Y76.889 E2.81739
G1 X65.098 Y76.961 E2.82428
G1 X65.200 Y77.053 E2.82967
G1 X65.293 Y77.221 E2.83716
G1 X65.339 Y77.504 E2.84833
G1 X65.299 Y77.760 E2.85847
G1 X65.202 Y77.941 E2.86650
G1 X65.052 Y78.056 E2.87386
G1 X64.988 Y78.300 F7800.000
G1 E1.87386 F1800.00000
G92 E0
G1 X59.474 Y81.711 F7800.000
G1 E1.00000 F1800.00000
G1 X59.556 Y81.977 E1.01088 F540.000
G1 X59.481 Y82.240 E1.02157
G1 X59.287 Y82.558 E1.03611
G1 X59.083 Y82.770 E1.04762
G1 X58.845 Y82.940 E1.05903
G1 X58.659 Y83.037 E1.06725
G1 X58.356 Y83.145 E1.07980
G1 X58.019 Y83.211 E1.09323
G1 X57.630 Y83.236 E1.10847
G1 X57.212 Y83.214 E1.12482
G1 X56.954 Y83.171 E1.13501
G1 X56.683 Y83.096 E1.14601
G1 X56.452 Y83.005 E1.15571
G1 X56.044 Y82.770 E1.17408
G1 X55.767 Y82.541 E1.18816
G1 X55.451 Y82.172 E1.20712
G1 X55.261 Y81.858 E1.22148
G1 X55.073 Y81.394 E1.24104
G1 X54.972 Y80.987 E1.25743
G1 X54.923 Y80.679 E1.26962
G1 X54.881 Y79.991 E1.29655
G1 X54.919 Y79.287 E1.32407
G1 X55.038 Y78.656 E1.34917
G1 X55.228 Y78.142 E1.37057
G1 X55.414 Y77.813 E1.38536
G1 X55.563 Y77.612 E1.39513
G1 X55.807 Y77.352 E1.40906
G1 X55.995 Y77.195 E1.41861
