; generated by Slic3r 1.2.9 on 2018-09-16 at 10:08:46

; external perimeters extrusion width = 0.25mm
; perimeters extrusion width = 0.25mm
; infill extrusion width = 0.25mm
; solid infill extrusion width = 0.25mm
; top infill extrusion width = 0.25mm
; support material extrusion width = 0.25mm

M107
M190 S80 ; set bed temperature
M104 S230 ; set temperature
G28 ; home all axes
G1 Z5 F5000 ; lift nozzle
M109 S230 ; wait for temperature to be reached
G21 ; set units to millimeters
G90 ; use absolute coordinates
M82 ; use absolute distances for extrusion
G92 E0
G1 E-1.00000 F1800.00000
G92 E0
G1 Z0.300 F7800.000
G1 X69.855 Y33.759 F7800.000
G1 E1.00000 F1800.00000
G1 X70.663 Y33.016 E1.04285 F1080.000
G1 X71.145 Y32.620 E1.06723
G1 X71.778 Y32.151 E1.09804
G1 X72.288 Y31.810 E1.12199
G1 X72.968 Y31.403 E1.15296
G1 X73.515 Y31.110 E1.17719
G1 X74.227 Y30.774 E1.20795
G1 X74.797 Y30.538 E1.23208
G1 X75.544 Y30.271 E1.26306
G1 X76.132 Y30.092 E1.28709
G1 X76.896 Y29.900 E1.31787
G1 X77.507 Y29.779 E1.34219
G1 X78.290 Y29.663 E1.37313
G1 X78.899 Y29.603 E1.39703
G1 X79.688 Y29.564 E1.42789
G1 X80.312 Y29.564 E1.45229
G1 X81.101 Y29.603 E1.48315
G1 X81.710 Y29.663 E1.50705
G1 X82.493 Y29.779 E1.53799
G1 X83.104 Y29.900 E1.56231
G1 X83.868 Y30.092 E1.59309
G1 X84.456 Y30.271 E1.61712
G1 X85.203 Y30.538 E1.64810
G1 X85.773 Y30.774 E1.67223
G1 X86.485 Y31.110 E1.70299
G1 X87.032 Y31.403 E1.72723
G1 X87.712 Y31.810 E1.75819
G1 X88.222 Y32.151 E1.78214
G1 X88.855 Y32.620 E1.81295
G1 X89.337 Y33.016 E1.83733
G1 X90.145 Y33.759 E1.88018
G1 X126.452 Y70.077 E3.88669
G1 X126.984 Y70.662 E3.91759
G1 X127.380 Y71.145 E3.94198
G1 X127.849 Y71.779 E3.97280
G1 X128.189 Y72.288 E3.99674
G1 X128.597 Y72.968 E4.02770
G1 X128.890 Y73.515 E4.05194
G1 X129.226 Y74.227 E4.08271
G1 X129.462 Y74.797 E4.10683
G1 X129.729 Y75.544 E4.13781
G1 X129.908 Y76.132 E4.16184
G1 X130.100 Y76.896 E4.19262
G1 X130.221 Y77.507 E4.21694
G1 X130.337 Y78.290 E4.24788
G1 X130.397 Y78.899 E4.27178
G1 X130.436 Y79.688 E4.30263
G1 X130.436 Y80.312 E4.32704
G1 X130.397 Y81.101 E4.35790
G1 X130.337 Y81.710 E4.38180
G1 X130.221 Y82.493 E4.41274
G1 X130.100 Y83.104 E4.43706
G1 X129.908 Y83.868 E4.46783
G1 X129.729 Y84.456 E4.49187
G1 X129.462 Y85.203 E4.52284
G1 X129.226 Y85.773 E4.54698
G1 X128.890 Y86.485 E4.57774
G1 X128.597 Y87.032 E4.60197
G1 X128.189 Y87.712 E4.63295
G1 X127.849 Y88.221 E4.65689
G1 X127.380 Y88.855 E4.68769
G1 X126.984 Y89.338 E4.71209
G1 X126.452 Y89.923 E4.74299
G1 X90.145 Y126.241 E6.74950
G1 X89.337 Y126.984 E6.79234
G1 X88.855 Y127.380 E6.81673
G1 X88.222 Y127.849 E6.84753
G1 X87.712 Y128.190 E6.87149
G1 X87.032 Y128.597 E6.90246
G1 X86.485 Y128.890 E6.92668
G1 X85.773 Y129.226 E6.95745
G1 X85.203 Y129.462 E6.98158
G1 X84.456 Y129.729 E7.01256
G1 X83.868 Y129.908 E7.03659
G1 X83.104 Y130.100 E7.06737
G1 X82.493 Y130.221 E7.09169
G1 X81.710 Y130.337 E7.12263
G1 X81.101 Y130.397 E7.14653
G1 X80.312 Y130.436 E7.17738
G1 X79.688 Y130.436 E7.20179
G1 X78.899 Y130.397 E7.23265
G1 X78.290 Y130.337 E7.25655
G1 X77.507 Y130.221 E7.28749
G1 X76.896 Y130.100 E7.31181
G1 X76.132 Y129.908 E7.34258
G1 X75.544 Y129.729 E7.36662
G1 X74.797 Y129.462 E7.39759
G1 X74.226 Y129.226 E7.42173
G1 X73.515 Y128.890 E7.45249
G1 X72.968 Y128.597 E7.47672
G1 X72.288 Y128.190 E7.50768
G1 X71.778 Y127.849 E7.53164
G1 X71.145 Y127.380 E7.56245
G1 X70.663 Y126.984 E7.58683
G1 X70.077 Y126.452 E7.61774
G1 X33.759 Y90.145 E9.62425
G1 X33.016 Y89.338 E9.66709
G1 X32.620 Y88.855 E9.69148
G1 X32.151 Y88.221 E9.72229
G1 X31.810 Y87.712 E9.74624
G1 X31.403 Y87.032 E9.77720
G1 X31.110 Y86.485 E9.80143
G1 X30.774 Y85.774 E9.83219
G1 X30.538 Y85.203 E9.85633
G1 X30.271 Y84.456 E9.88731
G1 X30.092 Y83.868 E9.91134
G1 X29.900 Y83.104 E9.94211
G1 X29.779 Y82.493 E9.96644
G1 X29.663 Y81.710 E9.99738
G1 X29.603 Y81.101 E10.02128
G1 X29.564 Y80.312 E10.05213
G1 X29.564 Y79.688 E10.07654
G1 X29.603 Y78.899 E10.10740
G1 X29.663 Y78.290 E10.13130
G1 X29.779 Y77.507 E10.16224
G1 X29.900 Y76.896 E10.18656
G1 X30.092 Y76.132 E10.21733
G1 X30.271 Y75.544 E10.24136
G1 X30.538 Y74.797 E10.27234
G1 X30.774 Y74.227 E10.29648
G1 X31.110 Y73.515 E10.32724
G1 X31.403 Y72.968 E10.35148
G1 X31.811 Y72.288 E10.38244
G1 X32.151 Y71.779 E10.40638
G1 X32.620 Y71.145 E10.43719
G1 X33.016 Y70.662 E10.46158
G1 X33.759 Y69.855 E10.50443
G1 X69.816 Y33.798 E12.49683
G1 E11.49683 F1800.00000
G92 E0
G1 X92.756 Y89.014 F7800.000
G1 E1.00000 F1800.00000
G1 X92.732 Y90.430 E1.05537 F540.000
G1 X92.651 Y91.126 E1.08271
G1 X92.503 Y91.841 E1.11123
G1 X92.283 Y92.600 E1.14214
G1 X92.004 Y93.332 E1.17275
G1 X91.657 Y94.065 E1.20442
G1 X91.259 Y94.767 E1.23596
G1 X90.812 Y95.440 E1.26753
G1 X90.555 Y95.777 E1.28409
G1 X90.281 Y96.102 E1.30068
G1 X89.710 Y96.696 E1.33288
G1 X89.068 Y97.263 E1.36636
G1 X88.335 Y97.821 E1.40236
G1 X88.034 Y98.020 E1.41646
G1 X88.047 Y98.042 E1.41747
G1 X87.013 Y98.696 E1.46525
G1 X88.680 Y101.246 E1.58428
G1 X88.786 Y101.699 E1.60244
G1 X88.716 Y102.136 E1.61976
G1 X88.594 Y102.384 E1.63055
G1 X88.429 Y102.605 E1.64135
G1 X88.071 Y102.867 E1.65866
G1 X87.605 Y102.983 E1.67744
G1 X87.129 Y102.913 E1.69622
G1 X86.700 Y102.659 E1.71572
G1 X84.692 Y99.733 E1.85436
G1 X84.123 Y99.926 E1.87783
G1 X83.696 Y100.043 E1.89513
G1 X82.817 Y100.229 E1.93025
G1 X81.412 Y100.414 E1.98562
G1 X79.876 Y100.501 E2.04572
G1 X78.340 Y100.414 E2.10583
G1 X76.935 Y100.229 E2.16120
G1 X76.056 Y100.043 E2.19632
G1 X75.629 Y99.926 E2.21361
G1 X75.060 Y99.733 E2.23709
G1 X73.052 Y102.659 E2.37573
G1 X72.623 Y102.914 E2.39522
G1 X72.148 Y102.983 E2.41400
G1 X71.718 Y102.876 E2.43132
G1 X71.480 Y102.735 E2.44211
G1 X71.274 Y102.551 E2.45291
G1 X71.043 Y102.173 E2.47022
G1 X70.966 Y101.699 E2.48900
G1 X71.072 Y101.246 E2.50716
G1 X72.744 Y98.689 E2.62651
G1 X71.706 Y98.043 E2.67429
G1 X71.716 Y98.025 E2.67511
G1 X71.047 Y97.549 E2.70717
G1 X70.685 Y97.263 E2.72522
G1 X70.042 Y96.696 E2.75870
G1 X69.471 Y96.102 E2.79090
G1 X68.941 Y95.440 E2.82404
G1 X68.493 Y94.767 E2.85562
G1 X68.095 Y94.065 E2.88715
G1 X67.749 Y93.332 E2.91882
G1 X67.469 Y92.600 E2.94943
G1 X67.249 Y91.841 E2.98034
G1 X67.102 Y91.126 E3.00886
G1 X67.021 Y90.430 E3.03621
G1 X66.997 Y89.014 E3.09157
G1 X92.700 Y89.014 E4.09587
G1 X92.455 Y89.309 F7800.000
G1 X92.436 Y90.411 E4.13892 F540.000
G1 X92.358 Y91.079 E4.16519
G1 X92.216 Y91.772 E4.19287
G1 X92.118 Y92.137 E4.20761
G1 X92.004 Y92.504 E4.22261
G1 X91.732 Y93.216 E4.25242
G1 X91.394 Y93.929 E4.28322
G1 X91.007 Y94.612 E4.31392
G1 X90.571 Y95.268 E4.34470
G1 X90.324 Y95.592 E4.36060
G1 X90.061 Y95.904 E4.37654
G1 X89.505 Y96.482 E4.40789
G1 X88.878 Y97.036 E4.44058
G1 X88.165 Y97.578 E4.47557
G1 X87.637 Y97.928 E4.50031
G1 X87.645 Y97.941 E4.50088
G1 X86.982 Y98.362 E4.53155
G1 X86.974 Y98.347 E4.53219
G1 X86.586 Y98.583 E4.54994
G1 X88.404 Y101.364 E4.67976
G1 X88.485 Y101.709 E4.69361
G1 X88.431 Y102.046 E4.70693
G1 X88.341 Y102.229 E4.71491
G1 X88.218 Y102.393 E4.72290
G1 X87.943 Y102.595 E4.73622
G1 X87.590 Y102.682 E4.75045
G1 X87.230 Y102.629 E4.76468
G1 X86.907 Y102.438 E4.77934
G1 X84.803 Y99.372 E4.92461
G1 X84.438 Y99.515 E4.93995
G1 X84.039 Y99.642 E4.95628
G1 X83.627 Y99.755 E4.97300
G1 X82.767 Y99.937 E5.00734
G1 X81.384 Y100.120 E5.06183
G1 X79.876 Y100.205 E5.12085
G1 X78.368 Y100.120 E5.17987
G1 X76.985 Y99.937 E5.23436
G1 X76.126 Y99.755 E5.26870
G1 X75.713 Y99.642 E5.28541
G1 X75.315 Y99.515 E5.30175
G1 X74.949 Y99.372 E5.31709
G1 X72.846 Y102.438 E5.46235
G1 X72.523 Y102.629 E5.47702
G1 X72.162 Y102.682 E5.49125
G1 X71.831 Y102.600 E5.50457
G1 X71.656 Y102.495 E5.51256
G1 X71.503 Y102.359 E5.52054
G1 X71.325 Y102.069 E5.53386
G1 X71.268 Y101.709 E5.54809
G1 X71.348 Y101.364 E5.56194
G1 X73.167 Y98.583 E5.69176
G1 X72.108 Y97.941 E5.74015
G1 X71.225 Y97.313 E5.78249
G1 X70.874 Y97.036 E5.79993
G1 X70.247 Y96.482 E5.83262
G1 X69.691 Y95.904 E5.86397
G1 X69.181 Y95.268 E5.89579
G1 X68.745 Y94.612 E5.92658
G1 X68.358 Y93.929 E5.95728
G1 X68.021 Y93.216 E5.98808
G1 X67.748 Y92.504 E6.01788
G1 X67.537 Y91.772 E6.04762
G1 X67.394 Y91.079 E6.07530
G1 X67.316 Y90.411 E6.10157
G1 X67.297 Y89.309 E6.14462
G1 X92.400 Y89.309 E7.12542
G1 X92.154 Y89.605 F7800.000
G1 X92.141 Y90.391 E7.15614 F378.000
G1 X92.066 Y91.032 E7.18134
G1 X91.928 Y91.704 E7.20818
G1 X91.725 Y92.407 E7.23675
G1 X91.459 Y93.100 E7.26574
G1 X91.132 Y93.792 E7.29568
G1 X90.755 Y94.457 E7.32554
G1 X90.330 Y95.097 E7.35553
G1 X89.841 Y95.706 E7.38605
G1 X89.301 Y96.269 E7.41654
G1 X88.689 Y96.809 E7.44844
G1 X87.996 Y97.336 E7.48244
G1 X87.243 Y97.839 E7.51783
G1 X86.171 Y98.489 E7.56680
G1 X88.128 Y101.482 E7.70654
G1 X88.184 Y101.720 E7.71607
G1 X88.146 Y101.955 E7.72540
G1 X88.088 Y102.074 E7.73057
G1 X88.008 Y102.180 E7.73575
G1 X87.816 Y102.322 E7.74508
G1 X87.575 Y102.381 E7.75475
G1 X87.330 Y102.345 E7.76443
G1 X87.114 Y102.217 E7.77427
G1 X84.914 Y99.012 E7.92616
G1 X84.339 Y99.237 E7.95029
G1 X83.956 Y99.359 E7.96602
G1 X83.557 Y99.468 E7.98216
G1 X82.717 Y99.645 E8.01572
G1 X81.356 Y99.825 E8.06933
G1 X79.876 Y99.909 E8.12726
G1 X78.396 Y99.825 E8.18519
G1 X77.036 Y99.645 E8.23881
G1 X76.195 Y99.468 E8.27236
G1 X75.797 Y99.359 E8.28850
G1 X75.413 Y99.237 E8.30423
G1 X74.838 Y99.012 E8.32836
G1 X72.639 Y102.217 E8.48025
G1 X72.422 Y102.345 E8.49009
G1 X72.177 Y102.381 E8.49977
G1 X71.945 Y102.324 E8.50910
G1 X71.832 Y102.256 E8.51427
G1 X71.733 Y102.168 E8.51945
G1 X71.608 Y101.964 E8.52878
G1 X71.569 Y101.720 E8.53846
G1 X71.624 Y101.482 E8.54798
G1 X73.581 Y98.489 E8.68772
G1 X72.083 Y97.560 E8.75661
G1 X71.402 Y97.076 E8.78924
G1 X71.064 Y96.809 E8.80607
G1 X70.452 Y96.269 E8.83797
G1 X69.911 Y95.706 E8.86847
G1 X69.422 Y95.097 E8.89899
G1 X68.997 Y94.457 E8.92898
G1 X68.621 Y93.792 E8.95884
G1 X68.293 Y93.100 E8.98878
G1 X68.028 Y92.407 E9.01777
G1 X67.825 Y91.704 E9.04634
G1 X67.686 Y91.032 E9.07318
G1 X67.611 Y90.391 E9.09837
G1 X67.598 Y89.605 E9.12910
G1 X92.099 Y89.605 E10.08640
G1 X92.524 Y89.609 F7800.000
G1 X92.824 Y88.706 F7800.000
G1 X66.929 Y88.706 E11.09817 F540.000
G1 X66.931 Y85.771 E11.21285
G1 X66.770 Y85.755 E11.21913
G1 X66.679 Y86.215 E11.23748
G1 X66.536 Y86.637 E11.25487
G1 X66.339 Y87.036 E11.27227
G1 X66.091 Y87.406 E11.28967
G1 X65.798 Y87.741 E11.30707
G1 X65.463 Y88.035 E11.32446
G1 X65.093 Y88.282 E11.34186
G1 X64.693 Y88.479 E11.35926
G1 X64.272 Y88.622 E11.37666
G1 X63.835 Y88.709 E11.39406
G1 X63.391 Y88.738 E11.41146
G1 X62.946 Y88.709 E11.42886
G1 X62.510 Y88.622 E11.44626
G1 X62.088 Y88.479 E11.46366
G1 X61.688 Y88.282 E11.48106
G1 X61.318 Y88.035 E11.49845
G1 X60.983 Y87.741 E11.51585
G1 X60.690 Y87.406 E11.53325
G1 X60.442 Y87.036 E11.55065
G1 X60.246 Y86.637 E11.56805
G1 X60.102 Y86.215 E11.58544
G1 X60.016 Y85.782 E11.60272
G1 X59.988 Y85.360 E11.61924
G1 X59.988 Y73.697 E12.07492
G1 X60.096 Y73.228 E12.09372
G1 X60.248 Y72.818 E12.11079
G1 X60.452 Y72.429 E12.12798
G1 X60.704 Y72.068 E12.14518
G1 X61.001 Y71.743 E12.16237
G1 X61.336 Y71.458 E12.17957
G1 X61.705 Y71.218 E12.19676
G1 X62.102 Y71.027 E12.21396
G1 X62.525 Y70.887 E12.23136
G1 X62.997 Y70.802 E12.25010
G1 X63.391 Y70.777 E12.26553
G1 X63.830 Y70.805 E12.28272
G1 X64.262 Y70.889 E12.29992
G1 X64.680 Y71.027 E12.31711
G1 X65.076 Y71.218 E12.33431
G1 X65.445 Y71.458 E12.35150
G1 X65.780 Y71.743 E12.36870
G1 X66.077 Y72.068 E12.38589
G1 X66.329 Y72.429 E12.40309
G1 X66.533 Y72.818 E12.42028
G1 X66.685 Y73.228 E12.43735
G1 X66.781 Y73.643 E12.45398
G1 X66.938 Y73.625 E12.46016
G1 X66.941 Y68.357 E12.66600
G1 X66.990 Y67.943 E12.68228
G1 X67.091 Y67.539 E12.69857
G1 X67.246 Y67.148 E12.71497
G1 X67.450 Y66.781 E12.73139
G1 X67.700 Y66.444 E12.74779
G1 X67.992 Y66.142 E12.76420
G1 X68.321 Y65.880 E12.78062
G1 X68.680 Y65.664 E12.79702
G1 X69.063 Y65.497 E12.81331
G1 X69.525 Y65.364 E12.83211
G1 X71.550 Y65.364 E12.91124
G1 X71.529 Y59.421 E13.14345
G1 X71.712 Y58.749 E13.17063
G1 X71.909 Y58.319 E13.18915
G1 X72.275 Y57.777 E13.21470
G1 X72.595 Y57.441 E13.23281
G1 X72.957 Y57.147 E13.25102
G1 X73.535 Y56.819 E13.27699
G1 X74.177 Y56.607 E13.30342
G1 X74.838 Y56.526 E13.32945
G1 X75.303 Y56.546 E13.34761
G1 X75.761 Y56.627 E13.36578
G1 X76.389 Y56.848 E13.39180
G1 X76.970 Y57.194 E13.41821
G1 X77.474 Y57.647 E13.44470
G1 X77.872 Y58.182 E13.47075
G1 X78.089 Y58.603 E13.48926
G1 X78.308 Y59.281 E13.51710
G1 X78.308 Y65.316 E13.75290
G1 X79.876 Y65.332 E13.81419
G1 X81.445 Y65.316 E13.87548
G1 X81.445 Y59.306 E14.11031
G1 X81.524 Y58.992 E14.12298
G1 X81.759 Y58.400 E14.14784
G1 X81.998 Y58.003 E14.16596
G1 X82.288 Y57.639 E14.18416
G1 X82.773 Y57.202 E14.20964
G1 X83.174 Y56.946 E14.22824
G1 X83.775 Y56.688 E14.25381
G1 X84.227 Y56.578 E14.27198
G1 X84.712 Y56.527 E14.29104
G1 X85.340 Y56.564 E14.31560
G1 X85.806 Y56.668 E14.33424
G1 X86.410 Y56.914 E14.35975
G1 X86.816 Y57.162 E14.37833
G1 X87.311 Y57.590 E14.40390
G1 X87.607 Y57.946 E14.42200
G1 X87.855 Y58.341 E14.44021
G1 X88.105 Y58.938 E14.46551
G1 X88.224 Y59.433 E14.48540
G1 X88.202 Y65.364 E14.71711
G1 X90.228 Y65.364 E14.79625
G1 X90.690 Y65.497 E14.81504
G1 X91.072 Y65.664 E14.83134
G1 X91.432 Y65.880 E14.84774
G1 X91.761 Y66.142 E14.86415
G1 X92.052 Y66.444 E14.88056
G1 X92.303 Y66.781 E14.89697
G1 X92.506 Y67.148 E14.91338
G1 X92.661 Y67.539 E14.92978
G1 X92.762 Y67.943 E14.94608
G1 X92.811 Y68.357 E14.96236
G1 X92.814 Y73.625 E15.16820
G1 X92.971 Y73.643 E15.17438
G1 X93.068 Y73.228 E15.19100
G1 X93.219 Y72.818 E15.20808
G1 X93.423 Y72.429 E15.22526
G1 X93.675 Y72.068 E15.24246
G1 X93.972 Y71.743 E15.25966
G1 X94.307 Y71.458 E15.27685
G1 X94.676 Y71.218 E15.29404
G1 X95.073 Y71.027 E15.31124
G1 X95.496 Y70.887 E15.32864
G1 X95.968 Y70.802 E15.34739
G1 X96.362 Y70.777 E15.36281
G1 X96.801 Y70.805 E15.38001
G1 X97.233 Y70.889 E15.39720
G1 X97.651 Y71.027 E15.41440
G1 X98.047 Y71.218 E15.43159
G1 X98.416 Y71.458 E15.44879
G1 X98.752 Y71.743 E15.46598
G1 X99.048 Y72.068 E15.48318
G1 X99.300 Y72.429 E15.50037
G1 X99.504 Y72.818 E15.51756
G1 X99.656 Y73.228 E15.53464
G1 X99.765 Y73.697 E15.55343
G1 X99.765 Y85.360 E16.00912
G1 X99.736 Y85.782 E16.02564
G1 X99.650 Y86.215 E16.04291
G1 X99.507 Y86.637 E16.06031
G1 X99.310 Y87.036 E16.07770
G1 X99.062 Y87.406 E16.09510
G1 X98.769 Y87.741 E16.11250
G1 X98.434 Y88.035 E16.12990
G1 X98.064 Y88.282 E16.14730
G1 X97.664 Y88.479 E16.16470
G1 X97.243 Y88.622 E16.18210
G1 X96.806 Y88.709 E16.19950
G1 X96.362 Y88.738 E16.21689
G1 X95.917 Y88.709 E16.23429
G1 X95.481 Y88.622 E16.25169
G1 X95.059 Y88.479 E16.26909
G1 X94.660 Y88.282 E16.28649
G1 X94.289 Y88.035 E16.30389
G1 X93.954 Y87.741 E16.32129
G1 X93.661 Y87.406 E16.33869
G1 X93.413 Y87.036 E16.35609
G1 X93.217 Y86.637 E16.37348
G1 X93.073 Y86.215 E16.39087
G1 X92.982 Y85.755 E16.40922
G1 X92.822 Y85.771 E16.41550
G1 X92.824 Y88.650 E16.52801
G1 E15.52801 F1800.00000
G92 E0
G1 X66.471 Y85.743 F7800.000
G1 E1.00000 F1800.00000
G1 X66.393 Y86.139 E1.01577 F540.000
G1 X66.262 Y86.523 E1.03165
G1 X66.082 Y86.888 E1.04753
G1 X65.856 Y87.226 E1.06341
G1 X65.588 Y87.532 E1.07930
G1 X65.283 Y87.800 E1.09518
G1 X64.945 Y88.026 E1.11107
G1 X64.580 Y88.205 E1.12695
G1 X64.195 Y88.336 E1.14284
G1 X63.796 Y88.415 E1.15872
G1 X63.391 Y88.442 E1.17461
G1 X62.985 Y88.415 E1.19049
G1 X62.586 Y88.336 E1.20638
G1 X62.201 Y88.205 E1.22226
G1 X61.837 Y88.026 E1.23815
G1 X61.499 Y87.800 E1.25403
G1 X61.193 Y87.532 E1.26992
G1 X60.925 Y87.226 E1.28580
G1 X60.699 Y86.888 E1.30169
G1 X60.519 Y86.523 E1.31757
G1 X60.388 Y86.139 E1.33345
G1 X60.310 Y85.743 E1.34922
G1 X60.283 Y85.350 E1.36460
G1 X60.283 Y73.731 E1.81858
G1 X60.380 Y73.313 E1.83532
G1 X60.519 Y72.939 E1.85092
G1 X60.705 Y72.583 E1.86663
G1 X60.936 Y72.253 E1.88235
G1 X61.207 Y71.956 E1.89806
G1 X61.513 Y71.695 E1.91378
G1 X61.850 Y71.476 E1.92949
G1 X62.213 Y71.302 E1.94520
G1 X62.598 Y71.175 E1.96104
G1 X63.032 Y71.096 E1.97831
G1 X63.391 Y71.073 E1.99233
G1 X63.792 Y71.099 E2.00805
G1 X64.187 Y71.176 E2.02376
G1 X64.569 Y71.302 E2.03948
G1 X64.931 Y71.476 E2.05519
G1 X65.268 Y71.695 E2.07090
G1 X65.575 Y71.956 E2.08662
G1 X65.846 Y72.253 E2.10233
G1 X66.076 Y72.583 E2.11804
G1 X66.263 Y72.939 E2.13375
