; generated by Slic3r 1.2.9 on 2018-12-21 at 11:05:15

; external perimeters extrusion width = 0.35mm
; perimeters extrusion width = 0.39mm
; infill extrusion width = 0.39mm
; solid infill extrusion width = 0.39mm
; top infill extrusion width = 0.39mm

M107
M190 S80 ; set bed temperature
M104 S230 ; set temperature
G28 ; home all axes
G1 Z5 F5000 ; lift nozzle
M109 S230 ; wait for temperature to be reached
G21 ; set units to millimeters
G90 ; use absolute coordinates
M82 ; use absolute distances for extrusion
G92 E0
G1 E-1.00000 F1800.00000
G92 E0
G1 Z0.350 F7800.000
G1 X57.691 Y54.546 F7800.000
G1 E1.00000 F1800.00000
G1 X60.546 Y51.691 E1.21468 F1080.000
G1 X60.871 Y51.474 E1.23550
G1 X64.598 Y49.930 E1.45001
G1 X64.982 Y49.854 E1.47086
G1 X67.000 Y49.655 E1.57868
G1 X84.586 Y49.655 E2.51392
G1 X86.604 Y49.854 E2.62176
G1 X86.988 Y49.930 E2.64257
G1 X90.716 Y51.474 E2.85716
G1 X91.040 Y51.691 E2.87793
G1 X92.608 Y52.978 E2.98578
G1 X101.022 Y61.392 E3.61861
G1 X102.309 Y62.960 E3.72646
G1 X102.525 Y63.284 E3.74721
G1 X104.070 Y67.013 E3.96188
G1 X104.146 Y67.396 E3.98263
G1 X104.345 Y69.414 E4.09047
G1 X104.345 Y74.000 E4.33435
G1 X104.146 Y76.018 E4.44220
G1 X104.070 Y76.401 E4.46295
G1 X103.657 Y77.887 E4.54496
G1 X94.657 Y102.887 E5.95803
G1 X93.525 Y105.130 E6.09165
G1 X93.309 Y105.454 E6.11240
G1 X90.454 Y108.309 E6.32708
G1 X90.129 Y108.526 E6.34790
G1 X86.402 Y110.070 E6.56243
G1 X86.018 Y110.146 E6.58323
G1 X84.000 Y110.345 E6.69108
G1 X67.000 Y110.345 E7.59516
G1 X64.982 Y110.146 E7.70301
G1 X64.599 Y110.070 E7.72377
G1 X60.872 Y108.526 E7.93832
G1 X60.546 Y108.309 E7.95916
G1 X57.691 Y105.454 E8.17385
G1 X57.475 Y105.130 E8.19460
G1 X55.930 Y101.402 E8.40918
G1 X55.854 Y101.018 E8.43000
G1 X55.655 Y99.000 E8.53785
G1 X55.655 Y61.000 E10.55874
G1 X55.854 Y58.982 E10.66657
G1 X55.930 Y58.598 E10.68740
G1 X57.475 Y54.870 E10.90200
G1 X57.662 Y54.589 E10.91996
G1 E9.91996 F1800.00000
G92 E0
G1 X93.105 Y83.307 F7800.000
G1 E1.00000 F1800.00000
G1 X93.105 Y99.399 E1.85579 F1080.000
G1 X93.027 Y100.192 E1.89820
G1 X92.717 Y101.747 E1.98251
G1 X92.106 Y103.223 E2.06747
G1 X91.002 Y104.874 E2.17306
G1 X89.873 Y106.004 E2.25803
G1 X88.221 Y107.107 E2.36365
G1 X86.747 Y107.717 E2.44850
G1 X84.799 Y108.105 E2.55413
G1 X83.202 Y108.105 E2.63907
G1 X81.254 Y107.717 E2.74471
G1 X79.779 Y107.107 E2.82958
G1 X78.128 Y106.004 E2.93520
G1 X76.997 Y104.874 E3.02019
G1 X75.894 Y103.223 E3.12580
G1 X75.730 Y102.828 E3.14855
G1 X75.270 Y102.828 E3.17305
G1 X75.106 Y103.223 E3.19583
G1 X74.002 Y104.874 E3.30142
G1 X72.873 Y106.004 E3.38638
G1 X71.221 Y107.107 E3.49200
G1 X69.747 Y107.717 E3.57685
G1 X67.799 Y108.105 E3.68249
G1 X66.202 Y108.105 E3.76742
G1 X64.254 Y107.717 E3.87307
G1 X62.779 Y107.107 E3.95793
G1 X61.128 Y106.004 E4.06355
G1 X59.997 Y104.874 E4.14854
G1 X58.894 Y103.223 E4.25415
G1 X58.283 Y101.748 E4.33906
G1 X57.973 Y100.191 E4.42349
G1 X57.895 Y99.398 E4.46584
G1 X57.895 Y60.602 E6.52909
G1 X57.973 Y59.810 E6.57143
G1 X58.283 Y58.253 E6.65585
G1 X58.894 Y56.778 E6.74074
G1 X59.997 Y55.127 E6.84635
G1 X61.126 Y53.997 E6.93130
G1 X62.779 Y52.893 E7.03698
G1 X64.253 Y52.283 E7.12182
G1 X65.810 Y51.973 E7.20624
G1 X66.602 Y51.895 E7.24858
G1 X67.984 Y51.895 E7.32208
G1 X68.776 Y51.973 E7.36442
G1 X70.333 Y52.283 E7.44883
G1 X71.808 Y52.894 E7.53371
G1 X73.126 Y53.775 E7.61807
G1 X73.742 Y54.280 E7.66043
G1 X75.851 Y56.389 E7.81900
G1 X76.175 Y56.357 E7.83635
G1 X76.997 Y55.127 E7.91502
G1 X78.126 Y53.997 E7.99996
G1 X79.779 Y52.893 E8.10564
G1 X81.253 Y52.283 E8.19049
G1 X82.810 Y51.973 E8.27491
G1 X83.602 Y51.895 E8.31725
G1 X84.984 Y51.895 E8.39074
G1 X85.776 Y51.973 E8.43309
G1 X87.333 Y52.283 E8.51750
G1 X88.808 Y52.894 E8.60238
G1 X90.126 Y53.775 E8.68673
G1 X90.742 Y54.280 E8.72910
G1 X99.720 Y63.258 E9.40429
G1 X100.225 Y63.873 E9.44664
G1 X101.106 Y65.192 E9.53097
G1 X101.718 Y66.668 E9.61595
G1 X102.027 Y68.224 E9.70031
G1 X102.105 Y69.016 E9.74266
G1 X102.105 Y74.398 E10.02888
G1 X102.027 Y75.191 E10.07124
G1 X101.718 Y76.746 E10.15557
G1 X101.106 Y78.222 E10.24054
G1 X100.003 Y79.873 E10.34615
G1 X98.873 Y81.003 E10.43112
G1 X97.222 Y82.106 E10.53673
G1 X95.746 Y82.718 E10.62168
G1 X93.798 Y83.105 E10.72729
G1 X93.307 Y83.105 E10.75343
G1 X93.142 Y83.270 E10.76583
G1 X92.760 Y82.962 F7800.000
G1 X92.760 Y99.382 E11.63906 F1080.000
G1 X92.685 Y100.142 E11.67967
G1 X92.386 Y101.647 E11.76127
G1 X91.800 Y103.060 E11.84262
G1 X90.735 Y104.654 E11.94460
G1 X89.653 Y105.736 E12.02595
G1 X88.058 Y106.801 E12.12796
G1 X86.646 Y107.386 E12.20920
G1 X84.765 Y107.760 E12.31122
G1 X83.236 Y107.760 E12.39254
G1 X81.354 Y107.386 E12.49457
G1 X79.943 Y106.801 E12.57582
G1 X78.347 Y105.736 E12.67783
G1 X77.265 Y104.654 E12.75921
G1 X76.200 Y103.059 E12.86121
G1 X75.730 Y101.927 E12.92641
G1 X75.270 Y101.927 E12.95092
G1 X74.800 Y103.060 E13.01615
G1 X73.735 Y104.654 E13.11813
G1 X72.653 Y105.736 E13.19948
G1 X71.058 Y106.801 E13.30149
G1 X69.646 Y107.386 E13.38273
G1 X67.765 Y107.760 E13.48475
G1 X66.236 Y107.760 E13.56607
G1 X64.354 Y107.386 E13.66811
G1 X62.943 Y106.801 E13.74936
G1 X61.347 Y105.736 E13.85137
G1 X60.265 Y104.654 E13.93274
G1 X59.200 Y103.059 E14.03474
G1 X58.615 Y101.647 E14.11603
G1 X58.315 Y100.140 E14.19775
G1 X58.240 Y99.381 E14.23831
G1 X58.240 Y60.619 E16.29974
G1 X58.315 Y59.860 E16.34028
G1 X58.615 Y58.353 E16.42200
G1 X59.199 Y56.941 E16.50327
G1 X60.265 Y55.347 E16.60528
G1 X61.346 Y54.265 E16.68661
G1 X62.942 Y53.199 E16.78867
G1 X64.353 Y52.615 E16.86991
G1 X65.860 Y52.315 E16.95162
G1 X66.619 Y52.240 E16.99215
G1 X67.967 Y52.240 E17.06385
G1 X68.726 Y52.315 E17.10439
G1 X70.232 Y52.615 E17.18610
G1 X71.644 Y53.199 E17.26736
G1 X72.921 Y54.052 E17.34901
G1 X73.510 Y54.536 E17.38957
G1 X75.904 Y56.930 E17.56959
G1 X76.229 Y56.898 E17.58694
G1 X77.265 Y55.347 E17.68615
G1 X78.346 Y54.265 E17.76748
G1 X79.942 Y53.199 E17.86955
G1 X81.353 Y52.615 E17.95078
G1 X82.860 Y52.315 E18.03249
G1 X83.619 Y52.240 E18.07303
G1 X84.967 Y52.240 E18.14472
G1 X85.726 Y52.315 E18.18527
G1 X87.232 Y52.615 E18.26697
G1 X88.644 Y53.199 E18.34824
G1 X89.921 Y54.052 E18.42988
G1 X90.510 Y54.536 E18.47045
G1 X99.464 Y63.490 E19.14384
G1 X99.947 Y64.079 E19.18438
G1 X100.800 Y65.355 E19.26601
G1 X101.386 Y66.768 E19.34738
G1 X101.685 Y68.274 E19.42902
G1 X101.760 Y69.033 E19.46957
G1 X101.760 Y74.381 E19.75400
G1 X101.685 Y75.140 E19.79455
G1 X101.386 Y76.646 E19.87618
G1 X100.801 Y78.059 E19.95753
G1 X99.735 Y79.654 E20.05953
G1 X98.653 Y80.735 E20.14088
G1 X97.058 Y81.801 E20.24288
G1 X95.646 Y82.386 E20.32422
G1 X93.764 Y82.760 E20.42622
G1 X92.962 Y82.760 E20.46889
G1 X92.797 Y82.925 E20.48129
G1 X92.415 Y82.617 F7800.000
G1 X92.415 Y99.365 E21.37196 F1080.000
G1 X92.343 Y100.091 E21.41076
G1 X92.054 Y101.546 E21.48966
G1 X91.494 Y102.896 E21.56739
G1 X90.467 Y104.434 E21.66576
G1 X89.433 Y105.468 E21.74349
G1 X87.894 Y106.495 E21.84189
G1 X86.546 Y107.054 E21.91952
G1 X84.731 Y107.415 E22.01793
G1 X83.270 Y107.415 E22.09564
G1 X81.455 Y107.054 E22.19406
G1 X80.106 Y106.496 E22.27170
G1 X78.567 Y105.468 E22.37010
G1 X77.533 Y104.434 E22.44785
G1 X76.505 Y102.896 E22.54624
G1 X75.946 Y101.547 E22.62392
G1 X75.783 Y100.726 E22.66839
G1 X75.217 Y100.727 E22.69849
G1 X75.054 Y101.546 E22.74293
G1 X74.494 Y102.896 E22.82066
G1 X73.467 Y104.434 E22.91903
G1 X72.433 Y105.468 E22.99676
G1 X70.894 Y106.495 E23.09516
G1 X69.546 Y107.054 E23.17279
G1 X67.731 Y107.415 E23.27120
G1 X66.270 Y107.415 E23.34891
G1 X64.455 Y107.054 E23.44733
G1 X63.106 Y106.496 E23.52497
G1 X61.567 Y105.468 E23.62337
G1 X60.533 Y104.434 E23.70113
G1 X59.505 Y102.896 E23.79951
G1 X58.946 Y101.547 E23.87720
G1 X58.656 Y100.089 E23.95621
G1 X58.585 Y99.364 E23.99495
G1 X58.585 Y60.636 E26.05459
G1 X58.656 Y59.911 E26.09333
G1 X58.946 Y58.454 E26.17233
G1 X59.505 Y57.105 E26.25000
G1 X60.533 Y55.566 E26.34839
G1 X61.566 Y54.533 E26.42610
G1 X63.106 Y53.505 E26.52456
G1 X64.454 Y52.946 E26.60218
G1 X65.911 Y52.656 E26.68118
G1 X66.636 Y52.585 E26.71992
G1 X67.950 Y52.585 E26.78981
G1 X68.675 Y52.656 E26.82855
G1 X70.132 Y52.946 E26.90755
G1 X71.481 Y53.505 E26.98520
G1 X72.715 Y54.330 E27.06414
G1 X73.278 Y54.792 E27.10290
G1 X76.003 Y57.516 E27.30779
G1 X76.364 Y57.444 E27.32740
G1 X76.505 Y57.105 E27.34695
G1 X77.533 Y55.566 E27.44534
G1 X78.566 Y54.533 E27.52306
G1 X80.106 Y53.505 E27.62151
G1 X81.454 Y52.946 E27.69913
G1 X82.911 Y52.656 E27.77813
G1 X83.636 Y52.585 E27.81687
G1 X84.950 Y52.585 E27.88676
G1 X85.675 Y52.656 E27.92550
G1 X87.132 Y52.946 E28.00450
G1 X88.481 Y53.505 E28.08215
G1 X89.715 Y54.330 E28.16109
G1 X90.278 Y54.792 E28.19985
G1 X99.208 Y63.721 E28.87144
G1 X99.670 Y64.285 E28.91018
G1 X100.495 Y65.518 E28.98910
G1 X101.054 Y66.869 E29.06685
G1 X101.344 Y68.325 E29.14580
G1 X101.415 Y69.050 E29.18454
G1 X101.415 Y74.364 E29.46716
G1 X101.344 Y75.089 E29.50591
G1 X101.054 Y76.545 E29.58484
G1 X100.495 Y77.895 E29.66257
G1 X99.467 Y79.434 E29.76096
G1 X98.434 Y80.467 E29.83870
G1 X96.895 Y81.495 E29.93709
G1 X95.545 Y82.054 E30.01481
G1 X93.730 Y82.415 E30.11320
G1 X92.617 Y82.415 E30.17240
G1 X92.452 Y82.580 E30.18480
G1 X92.070 Y82.272 F7800.000
G1 X92.070 Y99.348 E31.09291 F1080.000
G1 X92.002 Y100.040 E31.12991
G1 X91.722 Y101.445 E31.20610
G1 X91.189 Y102.733 E31.28022
G1 X90.199 Y104.214 E31.37498
G1 X89.213 Y105.200 E31.44910
G1 X87.731 Y106.190 E31.54388
G1 X86.445 Y106.722 E31.61790
G1 X84.697 Y107.070 E31.71270
G1 X83.304 Y107.070 E31.78679
G1 X81.555 Y106.722 E31.88160
G1 X80.269 Y106.190 E31.95563
G1 X78.787 Y105.200 E32.05042
G1 X77.801 Y104.214 E32.12456
G1 X76.811 Y102.733 E32.21933
G1 X76.278 Y101.446 E32.29340
G1 X75.998 Y100.039 E32.36970
G1 X75.930 Y99.347 E32.40665
G1 X75.930 Y82.272 E33.31473
G1 X75.728 Y82.070 E33.32992
G1 X75.272 Y82.070 E33.35415
G1 X75.070 Y82.272 E33.36934
G1 X75.070 Y99.348 E34.27745
G1 X75.002 Y100.040 E34.31445
G1 X74.722 Y101.445 E34.39064
G1 X74.189 Y102.733 E34.46475
G1 X73.199 Y104.214 E34.55952
G1 X72.213 Y105.200 E34.63363
G1 X70.731 Y106.190 E34.72842
G1 X69.445 Y106.722 E34.80244
G1 X67.697 Y107.070 E34.89723
G1 X66.304 Y107.070 E34.97133
G1 X64.555 Y106.722 E35.06614
G1 X63.269 Y106.190 E35.14016
G1 X61.787 Y105.200 E35.23495
G1 X60.801 Y104.214 E35.30909
G1 X59.811 Y102.733 E35.40387
G1 X59.278 Y101.446 E35.47794
G1 X58.998 Y100.039 E35.55424
G1 X58.930 Y99.347 E35.59118
G1 X58.930 Y60.653 E37.64902
G1 X58.998 Y59.962 E37.68596
G1 X59.278 Y58.554 E37.76225
G1 X59.811 Y57.268 E37.83630
G1 X60.801 Y55.786 E37.93108
G1 X61.786 Y54.801 E38.00518
G1 X63.269 Y53.810 E38.10002
G1 X64.555 Y53.278 E38.17403
G1 X65.962 Y52.998 E38.25032
G1 X66.653 Y52.930 E38.28726
G1 X67.933 Y52.930 E38.35535
G1 X68.624 Y52.998 E38.39229
G1 X70.031 Y53.278 E38.46858
G1 X71.317 Y53.811 E38.54262
G1 X72.509 Y54.607 E38.61885
G1 X73.047 Y55.048 E38.65581
G1 X76.124 Y58.125 E38.88725
G1 X76.485 Y58.053 E38.90686
G1 X76.811 Y57.268 E38.95205
G1 X77.801 Y55.786 E39.04683
G1 X78.786 Y54.801 E39.12093
G1 X80.269 Y53.810 E39.21577
G1 X81.555 Y53.278 E39.28978
G1 X82.962 Y52.998 E39.36607
G1 X83.653 Y52.930 E39.40301
G1 X84.933 Y52.930 E39.47110
G1 X85.624 Y52.998 E39.50804
G1 X87.031 Y53.278 E39.58432
G1 X88.317 Y53.811 E39.65836
G1 X89.509 Y54.607 E39.73460
G1 X90.047 Y55.048 E39.77156
G1 X98.952 Y63.953 E40.44134
G1 X99.393 Y64.490 E40.47828
G1 X100.189 Y65.682 E40.55449
G1 X100.723 Y66.970 E40.62863
G1 X101.002 Y68.376 E40.70487
G1 X101.070 Y69.067 E40.74181
G1 X101.070 Y74.347 E41.02263
G1 X101.002 Y75.039 E41.05958
G1 X100.723 Y76.444 E41.13580
G1 X100.189 Y77.732 E41.20992
G1 X99.199 Y79.214 E41.30470
G1 X98.214 Y80.199 E41.37881
G1 X96.732 Y81.189 E41.47360
G1 X95.444 Y81.723 E41.54770
G1 X93.696 Y82.070 E41.64248
G1 X92.272 Y82.070 E41.71822
G1 X92.107 Y82.235 E41.73062
G1 X91.725 Y81.861 F7800.000
G1 X91.725 Y99.331 E42.65971 F1080.000
G1 X91.660 Y99.989 E42.69491
G1 X91.391 Y101.345 E42.76839
G1 X90.883 Y102.569 E42.83890
G1 X89.931 Y103.994 E42.93005
G1 X88.993 Y104.932 E43.00055
G1 X87.568 Y105.884 E43.09172
G1 X86.345 Y106.391 E43.16213
G1 X84.663 Y106.725 E43.25331
G1 X83.338 Y106.725 E43.32379
G1 X81.656 Y106.391 E43.41499
G1 X80.433 Y105.884 E43.48541
G1 X79.007 Y104.932 E43.57658
G1 X78.069 Y103.994 E43.64711
G1 X77.117 Y102.569 E43.73827
G1 X76.609 Y101.345 E43.80873
G1 X76.339 Y99.988 E43.88232
G1 X76.275 Y99.330 E43.91746
G1 X76.275 Y81.927 E44.84298
G1 X76.073 Y81.725 E44.85818
G1 X75.338 Y81.725 E44.89726
G1 X74.978 Y81.654 E44.91679
G1 X74.725 Y81.861 E44.93414
G1 X74.725 Y99.331 E45.86323
G1 X74.660 Y99.989 E45.89843
G1 X74.391 Y101.345 E45.97192
G1 X73.883 Y102.569 E46.04242
G1 X72.931 Y103.994 E46.13357
G1 X71.993 Y104.932 E46.20407
G1 X70.568 Y105.884 E46.29525
G1 X69.345 Y106.391 E46.36565
G1 X67.663 Y106.725 E46.45684
G1 X66.338 Y106.725 E46.52732
G1 X64.656 Y106.391 E46.61851
G1 X63.433 Y105.884 E46.68893
G1 X62.007 Y104.932 E46.78011
G1 X61.069 Y103.994 E46.85063
G1 X60.117 Y102.569 E46.94180
G1 X59.609 Y101.345 E47.01225
G1 X59.339 Y99.988 E47.08584
G1 X59.275 Y99.330 E47.12099
G1 X59.275 Y60.670 E49.17702
G1 X59.339 Y60.012 E49.21215
G1 X59.609 Y58.655 E49.28574
G1 X60.116 Y57.431 E49.35618
G1 X61.069 Y56.006 E49.44735
G1 X62.006 Y55.069 E49.51783
G1 X63.432 Y54.116 E49.60906
G1 X64.655 Y53.609 E49.67946
G1 X66.012 Y53.339 E49.75304
G1 X66.670 Y53.275 E49.78817
G1 X67.916 Y53.275 E49.85446
G1 X68.574 Y53.339 E49.88960
G1 X69.931 Y53.609 E49.96318
G1 X71.154 Y54.116 E50.03361
G1 X72.304 Y54.884 E50.10714
G1 X72.815 Y55.304 E50.14229
G1 X76.245 Y58.734 E50.40028
G1 X76.607 Y58.662 E50.41989
G1 X77.116 Y57.431 E50.49072
G1 X78.069 Y56.006 E50.58189
G1 X79.006 Y55.069 E50.65237
G1 X80.432 Y54.116 E50.74360
G1 X81.655 Y53.609 E50.81400
G1 X83.012 Y53.339 E50.88758
G1 X83.670 Y53.275 E50.92272
G1 X84.916 Y53.275 E50.98900
G1 X85.574 Y53.339 E51.02414
G1 X86.931 Y53.609 E51.09772
G1 X88.154 Y54.116 E51.16815
G1 X89.304 Y54.884 E51.24168
G1 X89.815 Y55.304 E51.27683
G1 X98.696 Y64.185 E51.94481
G1 X99.115 Y64.696 E51.97995
G1 X99.883 Y65.845 E52.05346
G1 X100.391 Y67.070 E52.12398
G1 X100.661 Y68.426 E52.19751
G1 X100.725 Y69.084 E52.23265
G1 X100.725 Y74.330 E52.51167
G1 X100.661 Y74.988 E52.54681
G1 X100.391 Y76.344 E52.62033
G1 X99.884 Y77.569 E52.69083
G1 X98.931 Y78.994 E52.78200
G1 X97.994 Y79.931 E52.85250
G1 X96.568 Y80.884 E52.94367
G1 X95.344 Y81.391 E53.01416
G1 X93.662 Y81.725 E53.10533
G1 X92.338 Y81.725 E53.17578
G1 X91.978 Y81.654 E53.19531
G1 X91.766 Y81.827 E53.20987
G1 E52.20987 F1800.00000
G92 E0
G1 X76.438 Y59.415 F7800.000
G1 E1.00000 F1800.00000
G1 X76.834 Y59.295 E1.02199 F1080.000
G1 X76.941 Y58.756 E1.05122
G1 X77.422 Y57.595 E1.11804
G1 X78.337 Y56.226 E1.20560
G1 X79.226 Y55.337 E1.27247
G1 X80.596 Y54.422 E1.36008
G1 X81.756 Y53.941 E1.42687
G1 X83.063 Y53.681 E1.49775
G1 X83.687 Y53.620 E1.53108
G1 X84.899 Y53.620 E1.59556
G1 X85.523 Y53.681 E1.62890
G1 X86.830 Y53.941 E1.69977
G1 X87.991 Y54.422 E1.76659
G1 X89.098 Y55.162 E1.83741
G1 X89.583 Y55.560 E1.87076
G1 X98.440 Y64.417 E2.53694
G1 X98.838 Y64.902 E2.57028
G1 X99.578 Y66.009 E2.64108
G1 X100.059 Y67.171 E2.70798
G1 X100.319 Y68.477 E2.77880
G1 X100.380 Y69.101 E2.81214
G1 X100.380 Y74.313 E3.08936
G1 X100.319 Y74.937 E3.12270
G1 X100.059 Y76.243 E3.19351
G1 X99.578 Y77.405 E3.26040
G1 X98.663 Y78.774 E3.34796
G1 X97.774 Y79.664 E3.41484
G1 X96.405 Y80.578 E3.50240
G1 X95.243 Y81.059 E3.56927
G1 X93.629 Y81.380 E3.65683
G1 X92.372 Y81.380 E3.72367
G1 X91.633 Y81.233 E3.76374
G1 X91.380 Y81.440 E3.78109
G1 X91.380 Y99.314 E4.73163
G1 X91.319 Y99.939 E4.76502
G1 X91.059 Y101.244 E4.83580
G1 X90.578 Y102.406 E4.90269
G1 X89.663 Y103.775 E4.99023
G1 X88.774 Y104.664 E5.05712
G1 X87.404 Y105.578 E5.14468
G1 X86.244 Y106.059 E5.21148
G1 X84.629 Y106.380 E5.29905
G1 X83.372 Y106.380 E5.36592
G1 X81.756 Y106.059 E5.45350
G1 X80.596 Y105.579 E5.52031
G1 X79.227 Y104.664 E5.60787
G1 X78.337 Y103.775 E5.67478
G1 X77.422 Y102.406 E5.76233
G1 X76.941 Y101.245 E5.82917
G1 X76.681 Y99.937 E5.90006
G1 X76.620 Y99.313 E5.93340
G1 X76.620 Y81.582 E6.87636
G1 X76.418 Y81.380 E6.89155
