; generated by Slic3r 1.2.9 on 2021-06-12 at 10:53:03

; external perimeters extrusion width = 0.35mm
; perimeters extrusion width = 0.44mm
; infill extrusion width = 0.44mm
; solid infill extrusion width = 0.44mm
; top infill extrusion width = 0.44mm

M107
M190 S90 ; set bed temperature
M104 S240 ; set temperature
G28 ; home all axes
G1 Z5 F5000 ; lift nozzle
M109 S240 ; wait for temperature to be reached
G21 ; set units to millimeters
G90 ; use absolute coordinates
M82 ; use absolute distances for extrusion
G92 E0
G1 E-4.00000 F1800.00000
G92 E0
G1 Z0.300 F7800.000
G1 X36.305 Y17.121 F7800.000
G1 E4.00000 F1800.00000
G1 X37.400 Y16.335 E4.05713 F1080.000
G1 X38.132 Y16.212 E4.08859
G1 X92.908 Y15.867 E6.41045
G1 X122.942 Y15.867 E7.68352
G1 X174.942 Y16.306 E9.88776
G1 X176.228 Y16.708 E9.94489
G1 X177.074 Y17.758 E10.00202
G1 X177.243 Y18.627 E10.03954
G1 X177.238 Y71.370 E12.27518
G1 X172.847 Y139.431 E15.16613
G1 X172.287 Y140.799 E15.22881
G1 X144.163 Y173.330 E17.05158
G1 X142.408 Y174.133 E17.13341
G1 X84.408 Y174.133 E19.59188
G1 X83.118 Y173.742 E19.64901
G1 X82.570 Y173.230 E19.68077
G1 X13.240 Y83.390 E24.49096
G1 X12.757 Y81.972 E24.55445
G1 X12.757 Y59.331 E25.51414
G1 X12.960 Y58.382 E25.55530
G1 X24.529 Y32.583 E26.75376
G1 X24.805 Y32.121 E26.77658
G1 X36.273 Y17.162 E27.57553
G1 E23.57553 F1800.00000
G92 E0
G1 X21.675 Y57.888 F7800.000
G1 E4.00000 F1800.00000
G1 X22.521 Y58.734 E4.05068 F1080.000
G1 X22.521 Y76.341 E4.79702
G1 X22.709 Y76.529 E4.80828
G1 X45.675 Y76.529 E5.78178
G1 X46.521 Y77.374 E5.83246
G1 X46.521 Y82.570 E6.05269
G1 X45.675 Y83.415 E6.10336
G1 X14.480 Y83.415 E7.42567
G1 X13.634 Y82.570 E7.47634
G1 X13.634 Y58.734 E8.48671
G1 X14.480 Y57.888 E8.53739
G1 X21.623 Y57.888 E8.84016
G1 X21.543 Y58.209 F7800.000
G1 X22.200 Y58.867 E8.87958 F1080.000
G1 X22.200 Y76.662 E9.63388
G1 X22.388 Y76.850 E9.64514
G1 X45.543 Y76.850 E10.62661
G1 X46.200 Y77.507 E10.66602
G1 X46.200 Y82.437 E10.87499
G1 X45.543 Y83.095 E10.91441
G1 X14.613 Y83.095 E12.22545
G1 X13.955 Y82.437 E12.26486
G1 X13.955 Y58.867 E13.26397
G1 X14.613 Y58.209 E13.30338
G1 X21.490 Y58.209 E13.59490
G1 X21.410 Y58.530 F7800.000
G1 X21.879 Y58.999 E13.62305 F1080.000
G1 X21.879 Y76.983 E14.38532
G1 X22.067 Y77.170 E14.39658
G1 X45.410 Y77.170 E15.38601
G1 X45.879 Y77.640 E15.41416
G1 X45.879 Y82.304 E15.61187
G1 X45.410 Y82.774 E15.64002
G1 X14.746 Y82.774 E16.93980
G1 X14.276 Y82.304 E16.96795
G1 X14.276 Y58.999 E17.95580
G1 X14.746 Y58.530 E17.98395
G1 X21.357 Y58.530 E18.26420
G1 X21.277 Y58.850 F7800.000
G1 X21.559 Y59.132 E18.28110 F1080.000
G1 X21.559 Y77.303 E19.05133
G1 X21.747 Y77.491 E19.06259
G1 X45.277 Y77.491 E20.05998
G1 X45.559 Y77.773 E20.07687
G1 X45.559 Y82.172 E20.26331
G1 X45.277 Y82.453 E20.28021
G1 X14.878 Y82.453 E21.56873
G1 X14.597 Y82.172 E21.58562
G1 X14.597 Y59.132 E22.56220
G1 X14.878 Y58.850 E22.57909
G1 X21.224 Y58.850 E22.84808
G1 X21.238 Y59.265 F7800.000
G1 X21.238 Y77.624 E23.62628 F1080.000
G1 X21.426 Y77.812 E23.63754
G1 X45.144 Y77.812 E24.64289
G1 X45.238 Y77.906 E24.64852
G1 X45.238 Y82.039 E24.82371
G1 X45.144 Y82.133 E24.82934
G1 X15.011 Y82.133 E26.10659
G1 X14.917 Y82.039 E26.11222
G1 X14.917 Y59.265 E27.07754
G1 X15.011 Y59.171 E27.08317
G1 X21.144 Y59.171 E27.34313
G1 X21.201 Y59.228 E27.34653
G1 E23.34653 F1800.00000
G92 E0
G1 X25.203 Y61.413 F7800.000
G1 E4.00000 F1800.00000
G1 X25.203 Y33.246 E5.19395 F1080.000
G1 X25.423 Y32.715 E5.21829
G1 X36.654 Y21.484 E5.89156
G1 X36.703 Y21.366 E5.89697
G1 X36.703 Y17.935 E6.04240
G1 X37.549 Y17.090 E6.09307
G1 X68.744 Y17.090 E7.41538
G1 X69.590 Y17.935 E7.46605
G1 X69.590 Y71.724 E9.74603
G1 X68.744 Y72.569 E9.79671
G1 X36.359 Y72.569 E11.16943
G1 X35.829 Y72.350 E11.19376
G1 X25.423 Y61.944 E11.81755
G1 X25.223 Y61.462 E11.83966
G1 X25.524 Y61.349 F7800.000
G1 X25.524 Y33.309 E13.02820 F1080.000
G1 X25.695 Y32.897 E13.04713
G1 X36.975 Y21.617 E13.72333
G1 X37.024 Y21.499 E13.72874
G1 X37.024 Y18.068 E13.87417
G1 X37.681 Y17.410 E13.91358
G1 X68.611 Y17.410 E15.22462
G1 X69.269 Y18.068 E15.26404
G1 X69.269 Y71.591 E17.53276
G1 X68.611 Y72.249 E17.57217
G1 X36.423 Y72.249 E18.93655
G1 X36.011 Y72.078 E18.95548
G1 X25.695 Y61.762 E19.57386
G1 X25.544 Y61.398 E19.59056
G1 X25.845 Y61.286 F7800.000
G1 X25.845 Y33.373 E20.77370 F1080.000
G1 X25.967 Y33.079 E20.78722
G1 X37.192 Y21.853 E21.46013
G1 X37.237 Y21.835 E21.46217
G1 X37.345 Y21.673 E21.47041
G1 X37.345 Y18.201 E21.61759
G1 X37.814 Y17.731 E21.64575
G1 X68.478 Y17.731 E22.94553
G1 X68.948 Y18.201 E22.97368
G1 X68.948 Y71.458 E25.23114
G1 X68.478 Y71.928 E25.25929
G1 X36.487 Y71.928 E26.61534
G1 X36.192 Y71.806 E26.62886
G1 X25.967 Y61.580 E27.24183
G1 X25.865 Y61.334 E27.25312
G1 X26.165 Y61.222 F7800.000
G1 X26.165 Y33.437 E28.43085 F1080.000
G1 X26.239 Y33.260 E28.43896
G1 X37.374 Y22.125 E29.10647
G1 X37.557 Y22.049 E29.11488
G1 X37.665 Y21.887 E29.12313
G1 X37.665 Y18.333 E29.27376
G1 X37.947 Y18.052 E29.29066
G1 X68.346 Y18.052 E30.57917
G1 X68.627 Y18.333 E30.59607
G1 X68.627 Y71.325 E32.84226
G1 X68.346 Y71.607 E32.85916
G1 X36.551 Y71.607 E34.20687
G1 X36.374 Y71.534 E34.21498
G1 X26.239 Y61.399 E34.82254
G1 X26.185 Y61.270 E34.82843
G1 E30.82843 F1800.00000
G92 E0
G1 X68.307 Y71.193 F7800.000
G1 E4.00000 F1800.00000
G1 X68.213 Y71.286 E4.00563 F1080.000
G1 X36.615 Y71.286 E5.34501
G1 X36.556 Y71.262 E5.34771
G1 X26.510 Y61.217 E5.94986
G1 X26.486 Y61.158 E5.95257
G1 X26.486 Y33.501 E7.12489
G1 X26.510 Y33.442 E7.12759
G1 X37.556 Y22.397 E7.78969
G1 X37.615 Y22.372 E7.79240
G1 X37.798 Y22.372 E7.80018
G1 X37.986 Y22.185 E7.81144
G1 X37.986 Y18.466 E7.96905
G1 X38.080 Y18.372 E7.97468
G1 X68.213 Y18.372 E9.25194
G1 X68.307 Y18.466 E9.25757
G1 X68.307 Y71.140 E11.49028
G1 E7.49028 F1800.00000
G92 E0
G1 X79.657 Y61.617 F7800.000
G1 E4.00000 F1800.00000
G1 X79.657 Y75.876 E4.60442 F1080.000
G1 X79.845 Y76.064 E4.61568
G1 X102.812 Y76.064 E5.58918
G1 X103.657 Y76.909 E5.63986
G1 X103.657 Y82.105 E5.86009
G1 X102.812 Y82.950 E5.91076
G1 X71.616 Y82.950 E7.23307
G1 X70.771 Y82.105 E7.28374
G1 X70.771 Y58.269 E8.29411
G1 X71.616 Y57.423 E8.34478
G1 X78.812 Y57.423 E8.64979
G1 X79.583 Y58.194 E8.69602
G1 X79.979 Y58.030 E8.71418
G1 X79.979 Y32.900 E9.77938
G1 X80.199 Y32.370 E9.80372
G1 X91.430 Y21.139 E10.47699
G1 X91.479 Y21.021 E10.48239
G1 X91.479 Y17.590 E10.62782
G1 X92.324 Y16.744 E10.67850
G1 X123.520 Y16.744 E12.00080
G1 X124.365 Y17.590 E12.05148
G1 X124.365 Y71.379 E14.33146
G1 X123.520 Y72.224 E14.38214
G1 X91.135 Y72.224 E15.75485
G1 X90.605 Y72.004 E15.77919
G1 X80.053 Y61.453 E16.41170
G1 X79.706 Y61.597 E16.42764
G1 X80.471 Y61.417 F7800.000
G1 X80.300 Y61.004 E16.44657 F1080.000
G1 X80.300 Y32.964 E17.63511
G1 X80.471 Y32.552 E17.65404
G1 X91.751 Y21.271 E18.33024
G1 X91.800 Y21.153 E18.33564
G1 X91.800 Y17.723 E18.48107
G1 X92.457 Y17.065 E18.52049
G1 X123.387 Y17.065 E19.83153
G1 X124.045 Y17.723 E19.87095
G1 X124.045 Y71.246 E22.13967
G1 X123.387 Y71.903 E22.17908
G1 X91.199 Y71.903 E23.54346
G1 X90.786 Y71.732 E23.56239
G1 X80.508 Y61.454 E24.17854
G1 X80.743 Y61.235 F7800.000
G1 X80.621 Y60.940 E24.19206 F1080.000
G1 X80.621 Y33.028 E25.37520
G1 X80.743 Y32.733 E25.38872
G1 X91.968 Y21.508 E26.06163
G1 X92.012 Y21.489 E26.06367
G1 X92.121 Y21.328 E26.07191
G1 X92.121 Y17.855 E26.21909
G1 X92.590 Y17.386 E26.24725
G1 X123.254 Y17.386 E27.54703
G1 X123.724 Y17.855 E27.57518
G1 X123.724 Y71.113 E29.83264
G1 X123.254 Y71.583 E29.86079
G1 X91.263 Y71.583 E31.21684
G1 X90.968 Y71.461 E31.23036
G1 X80.780 Y61.272 E31.84110
G1 X81.014 Y61.053 F7800.000
G1 X80.941 Y60.877 E31.84922 F1080.000
G1 X80.941 Y33.092 E33.02694
G1 X81.014 Y32.915 E33.03506
G1 X92.150 Y21.780 E33.70256
G1 X92.333 Y21.704 E33.71098
G1 X92.441 Y21.542 E33.71922
G1 X92.441 Y17.988 E33.86986
G1 X92.723 Y17.706 E33.88675
G1 X123.122 Y17.706 E35.17527
G1 X123.403 Y17.988 E35.19216
G1 X123.403 Y70.980 E37.43836
G1 X123.122 Y71.262 E37.45525
G1 X91.327 Y71.262 E38.80296
G1 X91.150 Y71.189 E38.81107
G1 X81.052 Y61.091 E39.41641
G1 E35.41641 F1800.00000
G92 E0
G1 X123.083 Y70.847 F7800.000
G1 E4.00000 F1800.00000
G1 X122.989 Y70.941 E4.00563 F1080.000
G1 X91.390 Y70.941 E5.34501
G1 X91.331 Y70.917 E5.34771
G1 X81.286 Y60.872 E5.94986
G1 X81.262 Y60.813 E5.95257
G1 X81.262 Y33.156 E7.12489
G1 X81.286 Y33.097 E7.12759
G1 X92.331 Y22.052 E7.78969
G1 X92.390 Y22.027 E7.79240
G1 X92.574 Y22.027 E7.80018
G1 X92.762 Y21.839 E7.81144
G1 X92.762 Y18.121 E7.96905
G1 X92.856 Y18.027 E7.97468
G1 X122.989 Y18.027 E9.25194
G1 X123.083 Y18.121 E9.25757
G1 X123.083 Y70.795 E11.49028
G1 E7.49028 F1800.00000
G92 E0
G1 X103.337 Y77.042 F7800.000
G1 E4.00000 F1800.00000
G1 X103.337 Y81.972 E4.20897 F1080.000
G1 X102.679 Y82.630 E4.24838
G1 X71.749 Y82.630 E5.55942
G1 X71.092 Y81.972 E5.59884
G1 X71.092 Y58.401 E6.59794
G1 X71.749 Y57.744 E6.63736
G1 X78.679 Y57.744 E6.93110
G1 X79.337 Y58.401 E6.97051
G1 X79.337 Y76.197 E7.72482
G1 X79.525 Y76.385 E7.73608
G1 X102.679 Y76.385 E8.71754
G1 X103.300 Y77.005 E8.75473
G1 X103.016 Y77.175 F7800.000
G1 X103.016 Y81.839 E8.95244 F1080.000
G1 X102.546 Y82.309 E8.98059
G1 X71.882 Y82.309 E10.28037
G1 X71.412 Y81.839 E10.30853
G1 X71.412 Y58.534 E11.29637
G1 X71.882 Y58.065 E11.32452
G1 X78.546 Y58.065 E11.60700
G1 X79.016 Y58.534 E11.63515
G1 X79.016 Y76.518 E12.39742
G1 X79.204 Y76.705 E12.40868
G1 X102.546 Y76.705 E13.39811
G1 X102.979 Y77.138 E13.42404
G1 X102.695 Y77.308 F7800.000
G1 X102.695 Y81.706 E13.61048 F1080.000
G1 X102.413 Y81.988 E13.62738
G1 X72.015 Y81.988 E14.91589
G1 X71.733 Y81.706 E14.93279
G1 X71.733 Y58.667 E15.90937
G1 X72.015 Y58.385 E15.92626
G1 X78.413 Y58.385 E16.19748
G1 X78.695 Y58.667 E16.21437
G1 X78.695 Y76.838 E16.98460
G1 X78.883 Y77.026 E16.99586
G1 X102.413 Y77.026 E17.99325
G1 X102.658 Y77.271 E18.00792
G1 X102.281 Y77.347 F7800.000
G1 X102.375 Y77.441 E18.01355 F1080.000
G1 X102.375 Y81.574 E18.18873
G1 X102.281 Y81.668 E18.19436
G1 X72.148 Y81.668 E19.47162
G1 X72.054 Y81.574 E19.47725
G1 X72.054 Y58.800 E20.44257
G1 X72.148 Y58.706 E20.44820
G1 X78.281 Y58.706 E20.70816
G1 X78.375 Y58.800 E20.71379
G1 X78.375 Y77.159 E21.49198
G1 X78.562 Y77.347 E21.50324
G1 X102.228 Y77.347 E22.50637
G1 E18.50637 F1800.00000
G92 E0
G1 X132.199 Y62.038 F7800.000
G1 E4.00000 F1800.00000
G1 X131.979 Y61.507 E4.02434 F1080.000
G1 X131.979 Y33.340 E5.21829
G1 X132.199 Y32.809 E5.24262
G1 X143.430 Y21.578 E5.91589
G1 X143.479 Y21.460 E5.92130
G1 X143.479 Y18.029 E6.06673
G1 X144.325 Y17.184 E6.11741
G1 X175.520 Y17.184 E7.43971
G1 X176.366 Y18.029 E7.49039
G1 X176.366 Y71.818 E9.77037
G1 X175.520 Y72.663 E9.82105
G1 X143.135 Y72.663 E11.19376
G1 X142.605 Y72.444 E11.21810
G1 X132.236 Y62.075 E11.83966
G1 X132.471 Y61.856 F7800.000
G1 X132.300 Y61.443 E11.85859 F1080.000
G1 X132.300 Y33.403 E13.04713
G1 X132.471 Y32.991 E13.06606
G1 X143.751 Y21.711 E13.74226
G1 X143.800 Y21.593 E13.74766
G1 X143.800 Y18.162 E13.89309
G1 X144.457 Y17.504 E13.93251
G1 X175.387 Y17.504 E15.24355
G1 X176.045 Y18.162 E15.28297
G1 X176.045 Y71.685 E17.55169
G1 X175.387 Y72.343 E17.59110
G1 X143.199 Y72.343 E18.95548
G1 X142.787 Y72.172 E18.97441
G1 X132.508 Y61.893 E19.59056
G1 X132.743 Y61.674 F7800.000
G1 X132.621 Y61.380 E19.60408 F1080.000
G1 X132.621 Y33.467 E20.78722
G1 X132.743 Y33.173 E20.80074
G1 X143.968 Y21.947 E21.47365
G1 X144.013 Y21.929 E21.47569
G1 X144.121 Y21.767 E21.48393
G1 X144.121 Y18.295 E21.63111
G1 X144.590 Y17.825 E21.65927
G1 X175.254 Y17.825 E22.95905
G1 X175.724 Y18.295 E22.98720
G1 X175.724 Y71.552 E25.24466
G1 X175.254 Y72.022 E25.27281
G1 X143.263 Y72.022 E26.62886
G1 X142.968 Y71.900 E26.64238
G1 X132.780 Y61.711 E27.25312
G1 X133.015 Y61.493 F7800.000
G1 X132.941 Y61.316 E27.26124 F1080.000
G1 X132.941 Y33.531 E28.43896
G1 X133.015 Y33.354 E28.44708
G1 X144.150 Y22.219 E29.11458
G1 X144.333 Y22.143 E29.12299
G1 X144.441 Y21.981 E29.13124
G1 X144.441 Y18.428 E29.28188
G1 X144.723 Y18.146 E29.29877
G1 X175.122 Y18.146 E30.58729
G1 X175.403 Y18.428 E30.60418
G1 X175.403 Y71.419 E32.85038
G1 X175.122 Y71.701 E32.86727
G1 X143.327 Y71.701 E34.21498
G1 X143.150 Y71.628 E34.22309
G1 X133.052 Y61.530 E34.82843
G1 E30.82843 F1800.00000
G92 E0
G1 X175.083 Y71.287 F7800.000
G1 E4.00000 F1800.00000
G1 X174.989 Y71.381 E4.00563 F1080.000
G1 X143.390 Y71.381 E5.34501
G1 X143.332 Y71.356 E5.34771
G1 X133.286 Y61.311 E5.94986
G1 X133.262 Y61.252 E5.95257
G1 X133.262 Y33.595 E7.12489
G1 X133.286 Y33.536 E7.12759
G1 X144.332 Y22.491 E7.78969
G1 X144.390 Y22.466 E7.79240
G1 X144.574 Y22.466 E7.80018
G1 X144.762 Y22.279 E7.81144
G1 X144.762 Y18.560 E7.96905
G1 X144.856 Y18.466 E7.97468
G1 X174.989 Y18.466 E9.25194
G1 X175.083 Y18.560 E9.25757
G1 X175.083 Y71.234 E11.49028
G1 E7.49028 F1800.00000
G92 E0
G1 X171.129 Y85.245 F7800.000
G1 E4.00000 F1800.00000
G1 X171.975 Y86.090 E4.05068 F1080.000
G1 X171.975 Y139.879 E6.33066
G1 X171.129 Y140.725 E6.38134
G1 X138.744 Y140.725 E7.75405
G1 X138.214 Y140.505 E7.77839
G1 X127.808 Y130.099 E8.40217
G1 X127.588 Y129.569 E8.42651
G1 X127.588 Y101.401 E9.62046
G1 X127.808 Y100.871 E9.64480
G1 X139.040 Y89.639 E10.31807
G1 X139.088 Y89.521 E10.32347
G1 X139.088 Y86.090 E10.46890
G1 X139.934 Y85.245 E10.51958
G1 X171.077 Y85.245 E11.83966
G1 X170.996 Y85.566 F7800.000
G1 X171.654 Y86.223 E11.87907 F1080.000
G1 X171.654 Y139.746 E14.14779
G1 X170.996 Y140.404 E14.18721
G1 X138.808 Y140.404 E15.55159
G1 X138.396 Y140.233 E15.57052
G1 X128.080 Y129.917 E16.18889
G1 X127.909 Y129.505 E16.20782
G1 X127.909 Y101.465 E17.39637
G1 X128.080 Y101.052 E17.41529
G1 X139.360 Y89.772 E18.09149
G1 X139.409 Y89.654 E18.09690
G1 X139.409 Y86.223 E18.24233
G1 X140.067 Y85.566 E18.28175
G1 X170.944 Y85.566 E19.59056
G1 X170.864 Y85.886 F7800.000
G1 X171.333 Y86.356 E19.61872 F1080.000
G1 X171.333 Y139.614 E21.87617
G1 X170.864 Y140.083 E21.90433
G1 X138.872 Y140.083 E23.26037
G1 X138.577 Y139.961 E23.27389
G1 X128.352 Y129.736 E23.88686
G1 X128.230 Y129.441 E23.90038
G1 X128.230 Y101.529 E25.08352
G1 X128.352 Y101.234 E25.09704
G1 X139.577 Y90.008 E25.76995
G1 X139.622 Y89.990 E25.77199
G1 X139.730 Y89.828 E25.78023
G1 X139.730 Y86.356 E25.92741
G1 X140.199 Y85.886 E25.95557
G1 X170.811 Y85.886 E27.25312
G1 X170.731 Y86.207 F7800.000
G1 X171.013 Y86.489 E27.27002 F1080.000
G1 X171.013 Y139.481 E29.51621
G1 X170.731 Y139.763 E29.53311
G1 X138.936 Y139.763 E30.88081
G1 X138.759 Y139.689 E30.88893
G1 X128.624 Y129.554 E31.49649
G1 X128.550 Y129.377 E31.50460
G1 X128.550 Y101.592 E32.68233
G1 X128.624 Y101.416 E32.69044
G1 X139.759 Y90.280 E33.35795
G1 X139.942 Y90.204 E33.36636
G1 X140.050 Y90.043 E33.37461
G1 X140.050 Y86.489 E33.52524
G1 X140.332 Y86.207 E33.54213
G1 X170.678 Y86.207 E34.82843
G1 X170.692 Y86.622 F7800.000
G1 X170.692 Y139.348 E37.06336 F1080.000
G1 X170.598 Y139.442 E37.06899
G1 X139.000 Y139.442 E38.40837
G1 X138.941 Y139.417 E38.41107
G1 X128.896 Y129.372 E39.01323
G1 X128.871 Y129.313 E39.01593
G1 X128.871 Y101.656 E40.18825
G1 X128.896 Y101.597 E40.19096
G1 X139.941 Y90.552 E40.85305
G1 X140.000 Y90.528 E40.85576
G1 X140.183 Y90.528 E40.86354
G1 X140.371 Y90.340 E40.87481
G1 X140.371 Y86.622 E41.03241
G1 X140.465 Y86.528 E41.03804
G1 X170.598 Y86.528 E42.31530
G1 X170.655 Y86.585 E42.31870
G1 E38.31870 F1800.00000
G92 E0
G1 X125.075 Y116.215 F7800.000
G1 E4.00000 F1800.00000
G1 X125.075 Y165.181 E6.07558 F1080.000
G1 X125.263 Y165.369 E6.08684
G1 X143.006 Y165.369 E6.83889
G1 X143.851 Y166.215 E6.88957
G1 X143.851 Y172.410 E7.15218
G1 X143.006 Y173.256 E7.20286
G1 X83.810 Y173.256 E9.71202
G1 X82.965 Y172.410 E9.76269
G1 X82.965 Y166.215 E10.02531
G1 X83.810 Y165.369 E10.07598
G1 X119.001 Y165.369 E11.56766
G1 X119.189 Y165.181 E11.57892
G1 X119.189 Y116.215 E13.65450
G1 X120.035 Y115.369 E13.70518
G1 X124.230 Y115.369 E13.88302
G1 X125.038 Y116.178 E13.93147
G1 X124.755 Y116.348 F7800.000
G1 X124.755 Y165.502 E16.01501 F1080.000
G1 X124.943 Y165.690 E16.02627
G1 X142.873 Y165.690 E16.78628
G1 X143.530 Y166.348 E16.82570
G1 X143.530 Y172.277 E17.07705
G1 X142.873 Y172.935 E17.11647
