; generated by Slic3r 1.2.9 on 2021-06-12 at 21:21:37

; external perimeters extrusion width = 0.35mm
; perimeters extrusion width = 0.44mm
; infill extrusion width = 0.44mm
; solid infill extrusion width = 0.44mm
; top infill extrusion width = 0.44mm

M107
M190 S90 ; set bed temperature
M104 S240 ; set temperature
G28 ; home all axes
G1 Z5 F5000 ; lift nozzle
M109 S240 ; wait for temperature to be reached
G21 ; set units to millimeters
G90 ; use absolute coordinates
M82 ; use absolute distances for extrusion
G92 E0
G1 E-4.00000 F1800.00000
G92 E0
G1 Z0.300 F7800.000
G1 X68.383 Y31.300 F7800.000
G1 E4.00000 F1800.00000
G1 X69.559 Y29.617 E4.08704 F1080.000
G1 X71.285 Y28.505 E4.17408
G1 X73.250 Y28.129 E4.25886
G1 X116.750 Y28.129 E6.10273
G1 X118.765 Y28.526 E6.18977
G1 X120.480 Y29.655 E6.27681
G1 X121.617 Y31.300 E6.36158
G1 X128.867 Y47.715 E7.12218
G1 X129.321 Y49.864 E7.21531
G1 X129.321 Y63.450 E7.79118
G1 X129.112 Y64.925 E7.85430
G1 X102.259 Y158.025 E11.96146
G1 X101.320 Y159.851 E12.04850
G1 X99.759 Y161.185 E12.13553
G1 X97.147 Y161.871 E12.25002
G1 X93.147 Y161.871 E12.41957
G1 X91.132 Y161.474 E12.50661
G1 X89.417 Y160.345 E12.59365
G1 X88.031 Y158.014 E12.70857
G1 X60.870 Y63.109 E16.89288
G1 X60.734 Y62.338 E16.92606
G1 X60.681 Y61.578 E16.95835
G1 X60.679 Y49.864 E17.45488
G1 X61.133 Y47.715 E17.54801
G1 X68.362 Y31.348 E18.30638
G1 E14.30638 F1800.00000
G92 E0
G1 X69.744 Y47.255 F7800.000
G1 E4.00000 F1800.00000
G1 X69.381 Y46.021 E4.05452 F1080.000
G1 X69.081 Y44.773 E4.10891
G1 X68.809 Y43.305 E4.17220
G1 X68.642 Y42.033 E4.22656
G1 X68.536 Y40.717 E4.28255
G1 X68.491 Y39.263 E4.34421
G1 X68.530 Y37.771 E4.40749
G1 X68.631 Y36.492 E4.46187
G1 X68.809 Y35.116 E4.52068
G1 X69.080 Y33.652 E4.58378
G1 X69.673 Y31.166 E4.69210
G1 X71.858 Y29.441 E4.81009
G1 X76.792 Y29.441 E5.01922
G1 X79.198 Y32.603 E5.18763
G1 X78.598 Y34.775 E5.28316
G1 X78.381 Y35.682 E5.32270
G1 X78.219 Y36.557 E5.36041
G1 X78.104 Y37.430 E5.39776
G1 X78.034 Y38.317 E5.43546
G1 X78.010 Y39.215 E5.47351
G1 X78.033 Y40.095 E5.51086
G1 X78.103 Y40.982 E5.54856
G1 X78.220 Y41.872 E5.58662
G1 X78.381 Y42.739 E5.62397
G1 X78.588 Y43.604 E5.66167
G1 X78.841 Y44.456 E5.69938
G1 X79.140 Y45.303 E5.73744
G1 X79.481 Y46.124 E5.77513
G1 X79.860 Y46.920 E5.81248
G1 X80.284 Y47.701 E5.85018
G1 X80.749 Y48.460 E5.88789
G1 X81.258 Y49.200 E5.92595
G1 X81.799 Y49.906 E5.96365
G1 X82.377 Y50.582 E6.00135
G1 X82.989 Y51.227 E6.03905
G1 X83.635 Y51.839 E6.07676
G1 X84.305 Y52.411 E6.11410
G1 X85.017 Y52.958 E6.15217
G1 X85.743 Y53.457 E6.18951
G1 X86.501 Y53.922 E6.22721
G1 X87.291 Y54.350 E6.26527
G1 X88.086 Y54.729 E6.30262
G1 X88.908 Y55.070 E6.34032
G1 X89.754 Y55.370 E6.37838
G1 X90.599 Y55.620 E6.41573
G1 X91.464 Y55.828 E6.45343
G1 X92.346 Y55.992 E6.49149
G1 X93.228 Y56.107 E6.52919
G1 X94.107 Y56.177 E6.56654
G1 X94.996 Y56.200 E6.60424
G1 X95.893 Y56.177 E6.64230
G1 X96.772 Y56.107 E6.67965
G1 X97.654 Y55.992 E6.71735
G1 X98.528 Y55.830 E6.75505
G1 X99.401 Y55.620 E6.79311
G1 X100.246 Y55.370 E6.83046
G1 X101.085 Y55.073 E6.86816
G1 X101.907 Y54.733 E6.90587
G1 X102.709 Y54.350 E6.94357
G1 X103.491 Y53.926 E6.98127
G1 X104.250 Y53.461 E7.01897
G1 X104.983 Y52.958 E7.05667
G1 X105.689 Y52.416 E7.09438
G1 X106.365 Y51.839 E7.13208
G1 X107.011 Y51.227 E7.16979
G1 X107.623 Y50.582 E7.20748
G1 X108.201 Y49.906 E7.24519
G1 X108.747 Y49.193 E7.28324
G1 X109.251 Y48.460 E7.32095
G1 X109.716 Y47.702 E7.35865
G1 X110.140 Y46.920 E7.39635
G1 X110.523 Y46.117 E7.43406
G1 X110.863 Y45.295 E7.47176
G1 X111.160 Y44.456 E7.50947
G1 X111.412 Y43.604 E7.54716
G1 X111.619 Y42.739 E7.58487
G1 X111.780 Y41.872 E7.62222
G1 X111.896 Y40.990 E7.65992
G1 X111.966 Y40.104 E7.69762
G1 X111.990 Y39.214 E7.73533
G1 X111.966 Y38.317 E7.77338
G1 X111.896 Y37.430 E7.81109
G1 X111.780 Y36.548 E7.84878
G1 X111.618 Y35.674 E7.88649
G1 X111.403 Y34.780 E7.92545
G1 X110.801 Y32.603 E8.02118
G1 X113.208 Y29.441 E8.18961
G1 X118.142 Y29.441 E8.39876
G1 X120.327 Y31.166 E8.51674
G1 X120.941 Y33.751 E8.62937
G1 X121.191 Y35.115 E8.68813
G1 X121.358 Y36.387 E8.74251
G1 X121.470 Y37.771 E8.80136
G1 X121.509 Y39.158 E8.86019
G1 X121.475 Y40.545 E8.91901
G1 X121.369 Y41.929 E8.97785
G1 X121.191 Y43.306 E9.03669
G1 X120.940 Y44.671 E9.09550
G1 X120.619 Y46.021 E9.15432
G1 X120.256 Y47.255 E9.20884
G1 X120.685 Y47.510 E9.22999
G1 X123.059 Y45.136 E9.37231
G1 X128.009 Y47.186 E9.59939
G1 X128.009 Y65.111 E10.35918
G1 X125.661 Y67.459 E10.49995
G1 X114.872 Y67.448 E10.95724
G1 X114.251 Y67.377 E10.98373
G1 X113.741 Y67.268 E11.00586
G1 X113.337 Y67.149 E11.02369
G1 X112.845 Y66.960 E11.04604
G1 X112.331 Y66.706 E11.07036
G1 X111.924 Y66.459 E11.09052
G1 X111.419 Y66.085 E11.11715
G1 X111.031 Y65.736 E11.13926
G1 X110.742 Y65.432 E11.15706
G1 X110.412 Y65.024 E11.17933
G1 X110.174 Y64.678 E11.19709
G1 X109.912 Y64.223 E11.21935
G1 X109.654 Y63.657 E11.24573
G1 X109.454 Y63.061 E11.27239
G1 X109.317 Y62.445 E11.29913
G1 X109.249 Y61.911 E11.32197
G1 X108.932 Y61.754 E11.33696
G1 X108.209 Y62.194 E11.37284
G1 X107.082 Y62.806 E11.42720
G1 X105.734 Y63.449 E11.49048
G1 X104.451 Y63.977 E11.54931
G1 X103.142 Y64.438 E11.60814
G1 X101.912 Y64.802 E11.66251
G1 X100.562 Y65.129 E11.72136
G1 X99.095 Y65.401 E11.78463
G1 X97.719 Y65.579 E11.84346
G1 X96.440 Y65.680 E11.89783
G1 X95.053 Y65.719 E11.95665
G1 X93.560 Y65.680 E12.01992
G1 X92.177 Y65.568 E12.07875
G1 X90.905 Y65.401 E12.13313
G1 X89.540 Y65.151 E12.19196
G1 X88.088 Y64.802 E12.25524
G1 X86.758 Y64.405 E12.31406
G1 X85.451 Y63.940 E12.37288
G1 X84.266 Y63.449 E12.42728
G1 X82.919 Y62.806 E12.49054
G1 X81.791 Y62.194 E12.54492
G1 X81.068 Y61.754 E12.58079
G1 X80.751 Y61.910 E12.59578
G1 X80.701 Y62.336 E12.61393
G1 X80.624 Y62.749 E12.63175
G1 X80.487 Y63.260 E12.65417
G1 X80.348 Y63.654 E12.67189
G1 X80.134 Y64.133 E12.69412
G1 X79.935 Y64.501 E12.71185
G1 X79.767 Y64.768 E12.72524
G1 X79.458 Y65.193 E12.74751
G1 X79.189 Y65.509 E12.76510
G1 X78.820 Y65.878 E12.78720
G1 X78.247 Y66.342 E12.81845
G1 X77.985 Y66.519 E12.83185
G1 X77.533 Y66.780 E12.85398
G1 X76.862 Y67.078 E12.88510
G1 X76.362 Y67.241 E12.90739
G1 X75.748 Y67.377 E12.93407
G1 X75.336 Y67.431 E12.95168
G1 X74.784 Y67.459 E12.97512
G1 X67.737 Y67.453 E13.27381
G1 X67.011 Y67.377 E13.30476
G1 X66.496 Y67.268 E13.32705
G1 X66.192 Y67.181 E13.34046
G1 X65.510 Y66.919 E13.37142
G1 X65.044 Y66.682 E13.39362
G1 X64.769 Y66.516 E13.40721
G1 X64.427 Y66.282 E13.42478
G1 X64.138 Y66.053 E13.44041
G1 X63.791 Y65.739 E13.46026
G1 X63.501 Y65.434 E13.47808
G1 X63.294 Y65.187 E13.49173
G1 X62.988 Y64.765 E13.51382
G1 X62.620 Y64.126 E13.54509
G1 X62.429 Y63.700 E13.56489
G1 X62.301 Y63.356 E13.58043
G1 X62.112 Y62.652 E13.61132
G1 X62.019 Y62.025 E13.63821
G1 X61.991 Y61.474 E13.66158
G1 X61.991 Y47.186 E14.26723
G1 X66.941 Y45.136 E14.49431
G1 X69.315 Y47.510 E14.63664
G1 X69.699 Y47.282 E14.65556
G1 X70.493 Y48.435 F7800.000
G1 X70.079 Y47.257 E14.70848 F1080.000
G1 X69.717 Y46.035 E14.76251
G1 X69.374 Y44.608 E14.82472
G1 X69.142 Y43.355 E14.87873
G1 X68.960 Y41.996 E14.93686
G1 X68.845 Y40.533 E14.99906
G1 X68.812 Y39.162 E15.05718
G1 X68.845 Y37.888 E15.11121
G1 X68.960 Y36.425 E15.17341
G1 X69.127 Y35.162 E15.22742
G1 X69.374 Y33.814 E15.28549
G1 X69.960 Y31.349 E15.39290
G1 X71.969 Y29.762 E15.50144
G1 X76.633 Y29.762 E15.69912
G1 X78.847 Y32.670 E15.85406
G1 X78.288 Y34.695 E15.94308
G1 X78.067 Y35.615 E15.98321
G1 X77.903 Y36.498 E16.02127
G1 X77.785 Y37.397 E16.05969
G1 X77.713 Y38.309 E16.09846
G1 X77.689 Y39.206 E16.13651
G1 X77.713 Y40.112 E16.17492
G1 X77.785 Y41.024 E16.21370
G1 X77.902 Y41.914 E16.25175
G1 X78.067 Y42.805 E16.29018
G1 X78.280 Y43.695 E16.32894
G1 X78.535 Y44.556 E16.36700
G1 X78.838 Y45.410 E16.40542
G1 X79.184 Y46.247 E16.44383
G1 X79.578 Y47.073 E16.48260
G1 X80.011 Y47.869 E16.52101
G1 X80.485 Y48.642 E16.55943
G1 X80.998 Y49.389 E16.59785
G1 X81.545 Y50.101 E16.63591
G1 X82.133 Y50.790 E16.67432
G1 X82.757 Y51.448 E16.71273
G1 X83.420 Y52.077 E16.75150
G1 X84.109 Y52.666 E16.78992
G1 X84.822 Y53.212 E16.82798
G1 X85.569 Y53.726 E16.86639
G1 X86.348 Y54.204 E16.90516
G1 X87.137 Y54.632 E16.94322
G1 X87.955 Y55.023 E16.98164
G1 X88.793 Y55.370 E17.02005
G1 X89.655 Y55.675 E17.05882
G1 X90.516 Y55.930 E17.09688
G1 X91.397 Y56.142 E17.13530
G1 X92.288 Y56.307 E17.17371
G1 X93.195 Y56.426 E17.21248
G1 X94.090 Y56.497 E17.25054
G1 X94.996 Y56.521 E17.28895
G1 X95.910 Y56.497 E17.32773
G1 X96.814 Y56.426 E17.36614
G1 X97.704 Y56.308 E17.40420
G1 X98.603 Y56.142 E17.44297
G1 X99.476 Y55.932 E17.48103
G1 X100.345 Y55.675 E17.51944
G1 X101.208 Y55.370 E17.55821
G1 X102.045 Y55.023 E17.59663
G1 X102.863 Y54.632 E17.63504
G1 X103.659 Y54.200 E17.67346
G1 X104.432 Y53.726 E17.71188
G1 X105.171 Y53.217 E17.74993
G1 X105.891 Y52.666 E17.78835
G1 X106.580 Y52.077 E17.82676
G1 X107.238 Y51.454 E17.86518
G1 X107.861 Y50.796 E17.90359
G1 X108.450 Y50.107 E17.94200
G1 X109.007 Y49.382 E17.98077
G1 X109.520 Y48.635 E18.01919
G1 X109.994 Y47.862 E18.05760
G1 X110.426 Y47.065 E18.09602
G1 X110.816 Y46.247 E18.13443
G1 X111.162 Y45.410 E18.17285
G1 X111.465 Y44.556 E18.21127
G1 X111.720 Y43.695 E18.24932
G1 X111.931 Y42.814 E18.28774
G1 X112.097 Y41.922 E18.32616
G1 X112.215 Y41.024 E18.36456
G1 X112.287 Y40.120 E18.40298
G1 X112.311 Y39.214 E18.44140
G1 X112.287 Y38.300 E18.48017
G1 X112.215 Y37.397 E18.51858
G1 X112.097 Y36.498 E18.55699
G1 X111.931 Y35.607 E18.59541
G1 X111.714 Y34.700 E18.63495
G1 X111.153 Y32.671 E18.72418
G1 X113.367 Y29.762 E18.87914
G1 X118.031 Y29.762 E19.07683
G1 X120.040 Y31.349 E19.18537
G1 X120.626 Y33.814 E19.29277
G1 X120.873 Y35.161 E19.35081
G1 X121.050 Y36.521 E19.40895
G1 X121.155 Y37.888 E19.46709
G1 X121.188 Y39.258 E19.52517
G1 X121.150 Y40.629 E19.58330
G1 X121.040 Y41.996 E19.64144
G1 X120.858 Y43.355 E19.69954
G1 X120.606 Y44.702 E19.75764
G1 X120.283 Y46.035 E19.81577
G1 X119.921 Y47.257 E19.86980
G1 X119.507 Y48.435 E19.92271
G1 X119.940 Y48.708 E19.94443
G1 X123.135 Y45.514 E20.13591
G1 X127.688 Y47.400 E20.34482
G1 X127.688 Y64.978 E21.08990
G1 X125.528 Y67.138 E21.21941
G1 X115.219 Y67.138 E21.65636
G1 X114.694 Y67.112 E21.67866
G1 X114.108 Y67.024 E21.70375
G1 X113.724 Y66.932 E21.72051
G1 X113.250 Y66.778 E21.74161
G1 X112.705 Y66.541 E21.76684
G1 X112.186 Y66.247 E21.79211
G1 X111.859 Y66.022 E21.80893
G1 X111.472 Y65.710 E21.83000
G1 X111.048 Y65.292 E21.85523
G1 X110.700 Y64.873 E21.87834
G1 X110.446 Y64.507 E21.89721
G1 X110.196 Y64.074 E21.91840
G1 X110.026 Y63.719 E21.93508
G1 X109.819 Y63.166 E21.96012
G1 X109.668 Y62.582 E21.98567
G1 X109.580 Y61.991 E22.01099
G1 X109.551 Y61.375 E22.03717
G1 X109.226 Y61.198 E22.05287
G1 X108.052 Y61.914 E22.11116
G1 X106.846 Y62.566 E22.16927
G1 X105.696 Y63.115 E22.22329
G1 X104.340 Y63.676 E22.28549
G1 X103.047 Y64.132 E22.34361
G1 X101.731 Y64.519 E22.40172
G1 X100.492 Y64.816 E22.45576
G1 X99.144 Y65.068 E22.51386
G1 X97.689 Y65.260 E22.57608
G1 X96.419 Y65.360 E22.63010
G1 X95.048 Y65.398 E22.68821
G1 X93.581 Y65.360 E22.75041
G1 X92.215 Y65.250 E22.80853
G1 X90.951 Y65.084 E22.86255
G1 X89.603 Y64.836 E22.92067
G1 X88.175 Y64.494 E22.98288
G1 X86.862 Y64.102 E23.04099
G1 X85.660 Y63.676 E23.09502
G1 X84.304 Y63.115 E23.15722
G1 X83.154 Y62.566 E23.21124
G1 X81.948 Y61.914 E23.26936
G1 X80.774 Y61.198 E23.32764
G1 X80.449 Y61.375 E23.34335
G1 X80.435 Y61.796 E23.36123
G1 X80.383 Y62.290 E23.38226
G1 X80.311 Y62.678 E23.39902
G1 X80.181 Y63.165 E23.42035
G1 X80.050 Y63.535 E23.43700
G1 X79.847 Y63.991 E23.45817
G1 X79.659 Y64.337 E23.47484
G1 X79.386 Y64.756 E23.49604
G1 X79.147 Y65.068 E23.51273
G1 X78.813 Y65.438 E23.53385
G1 X78.298 Y65.902 E23.56325
G1 X77.896 Y66.194 E23.58427
G1 X77.560 Y66.400 E23.60098
G1 X77.295 Y66.541 E23.61370
G1 X76.842 Y66.743 E23.63474
G1 X76.469 Y66.875 E23.65153
G1 X75.892 Y67.024 E23.67676
G1 X75.404 Y67.101 E23.69772
G1 X74.830 Y67.138 E23.72211
G1 X67.919 Y67.137 E24.01502
G1 X67.456 Y67.112 E24.03468
G1 X67.155 Y67.075 E24.04754
G1 X66.476 Y66.930 E24.07697
G1 X66.011 Y66.779 E24.09767
G1 X65.733 Y66.667 E24.11041
G1 X65.112 Y66.351 E24.13996
G1 X64.694 Y66.079 E24.16108
G1 X64.383 Y65.841 E24.17767
G1 X64.014 Y65.509 E24.19871
G1 X63.807 Y65.294 E24.21137
G1 X63.367 Y64.750 E24.24101
G1 X63.098 Y64.335 E24.26198
G1 X62.951 Y64.071 E24.27480
G1 X62.785 Y63.722 E24.29117
G1 X62.605 Y63.253 E24.31246
G1 X62.427 Y62.589 E24.34159
G1 X62.338 Y61.996 E24.36704
G1 X62.312 Y61.472 E24.38925
G1 X62.312 Y47.400 E24.98574
G1 X66.865 Y45.514 E25.19465
G1 X70.060 Y48.708 E25.38614
G1 X70.449 Y48.463 E25.40564
G1 X71.374 Y49.745 F7800.000
G1 X70.835 Y48.439 E25.46552 F1080.000
G1 X70.385 Y47.162 E25.52293
G1 X70.003 Y45.863 E25.58033
G1 X69.689 Y44.545 E25.63774
G1 X69.444 Y43.213 E25.69516
G1 X69.265 Y41.812 E25.75503
G1 X69.166 Y40.520 E25.80995
G1 X69.133 Y39.254 E25.86361
G1 X69.166 Y37.900 E25.92102
G1 X69.270 Y36.550 E25.97842
G1 X69.458 Y35.120 E26.03958
G1 X69.706 Y33.793 E26.09681
G1 X70.246 Y31.532 E26.19534
G1 X72.081 Y30.083 E26.29445
G1 X76.474 Y30.083 E26.48068
G1 X78.496 Y32.738 E26.62214
G1 X77.977 Y34.615 E26.70465
G1 X77.753 Y35.549 E26.74537
G1 X77.585 Y36.456 E26.78450
G1 X77.466 Y37.363 E26.82327
G1 X77.393 Y38.283 E26.86240
G1 X77.369 Y39.206 E26.90152
G1 X77.393 Y40.137 E26.94100
G1 X77.465 Y41.049 E26.97977
G1 X77.585 Y41.964 E27.01890
G1 X77.753 Y42.872 E27.05803
G1 X77.968 Y43.770 E27.09716
G1 X78.233 Y44.663 E27.13664
G1 X78.541 Y45.533 E27.17577
G1 X78.891 Y46.378 E27.21453
G1 X79.288 Y47.211 E27.25366
G1 X79.729 Y48.022 E27.29279
G1 X80.215 Y48.817 E27.33227
G1 X80.738 Y49.577 E27.37140
G1 X81.295 Y50.303 E27.41017
G1 X81.895 Y51.005 E27.44930
G1 X82.530 Y51.675 E27.48842
G1 X83.199 Y52.310 E27.52755
G1 X83.901 Y52.910 E27.56668
G1 X84.633 Y53.472 E27.60580
G1 X85.394 Y53.995 E27.64493
G1 X86.181 Y54.477 E27.68405
G1 X86.992 Y54.918 E27.72318
G1 X87.825 Y55.316 E27.76231
G1 X88.678 Y55.669 E27.80144
G1 X89.548 Y55.977 E27.84056
G1 X90.433 Y56.240 E27.87969
G1 X91.330 Y56.456 E27.91882
G1 X92.238 Y56.624 E27.95794
G1 X93.153 Y56.745 E27.99707
G1 X94.073 Y56.817 E28.03620
G1 X94.996 Y56.842 E28.07532
G1 X95.919 Y56.818 E28.11445
G1 X96.839 Y56.746 E28.15358
G1 X97.754 Y56.625 E28.19270
G1 X98.662 Y56.457 E28.23183
G1 X99.559 Y56.242 E28.27096
G1 X100.444 Y55.980 E28.31008
G1 X101.315 Y55.672 E28.34921
G1 X102.168 Y55.319 E28.38834
G1 X103.001 Y54.922 E28.42746
G1 X103.812 Y54.482 E28.46659
G1 X104.599 Y53.999 E28.50572
G1 X105.360 Y53.477 E28.54484
G1 X106.093 Y52.915 E28.58397
G1 X106.795 Y52.316 E28.62310
G1 X107.464 Y51.680 E28.66222
G1 X108.105 Y51.005 E28.70170
G1 X108.705 Y50.303 E28.74083
G1 X109.262 Y49.577 E28.77960
G1 X109.785 Y48.816 E28.81873
G1 X110.267 Y48.030 E28.85786
G1 X110.712 Y47.211 E28.89734
G1 X111.109 Y46.378 E28.93646
G1 X111.459 Y45.533 E28.97523
G1 X111.767 Y44.663 E29.01436
G1 X112.030 Y43.778 E29.05349
G1 X112.247 Y42.872 E29.09297
G1 X112.415 Y41.964 E29.13210
G1 X112.534 Y41.058 E29.17087
G1 X112.607 Y40.137 E29.20999
G1 X112.631 Y39.214 E29.24912
G1 X112.607 Y38.283 E29.28860
G1 X112.535 Y37.371 E29.32738
G1 X112.415 Y36.456 E29.36650
G1 X112.247 Y35.549 E29.40563
G1 X112.023 Y34.615 E29.44635
G1 X111.504 Y32.739 E29.52884
G1 X113.526 Y30.083 E29.67032
G1 X117.919 Y30.083 E29.85655
G1 X119.754 Y31.531 E29.95566
G1 X120.294 Y33.792 E30.05418
G1 X120.542 Y35.120 E30.11144
G1 X120.730 Y36.550 E30.17258
G1 X120.834 Y37.901 E30.23000
G1 X120.867 Y39.254 E30.28738
G1 X120.834 Y40.520 E30.34106
G1 X120.735 Y41.812 E30.39597
G1 X120.556 Y43.214 E30.45588
G1 X120.311 Y44.546 E30.51327
G1 X119.997 Y45.863 E30.57067
G1 X119.615 Y47.162 E30.62809
G1 X119.165 Y48.439 E30.68549
G1 X118.627 Y49.745 E30.74537
G1 X119.064 Y50.038 E30.76768
G1 X123.210 Y45.892 E31.01619
G1 X127.367 Y47.614 E31.20694
G1 X127.367 Y64.845 E31.93730
G1 X125.395 Y66.817 E32.05555
G1 X115.221 Y66.817 E32.48678
G1 X114.635 Y66.783 E32.51165
G1 X114.041 Y66.681 E32.53722
G1 X113.543 Y66.541 E32.55913
G1 X113.099 Y66.371 E32.57932
G1 X112.637 Y66.142 E32.60116
G1 X112.281 Y65.926 E32.61881
