; generated by Slic3r 1.2.9 on 2021-06-03 at 16:04:50

; external perimeters extrusion width = 0.35mm
; perimeters extrusion width = 0.44mm
; infill extrusion width = 0.44mm
; solid infill extrusion width = 0.44mm
; top infill extrusion width = 0.44mm

M107
M190 S90 ; set bed temperature
M104 S240 ; set temperature
G28 ; home all axes
G1 Z5 F5000 ; lift nozzle
M109 S240 ; wait for temperature to be reached
G21 ; set units to millimeters
G90 ; use absolute coordinates
M82 ; use absolute distances for extrusion
G92 E0
G1 E-1.00000 F1800.00000
G92 E0
G1 Z0.300 F7800.000
G1 X31.722 Y28.421 F7800.000
G1 E1.00000 F1800.00000
G1 X32.658 Y28.032 E1.04296 F1080.000
G1 X56.658 Y28.032 E2.06026
G1 X56.890 Y28.053 E2.07014
G1 X120.005 Y39.334 E4.78784
G1 X120.477 Y39.460 E4.80851
G1 X120.805 Y39.576 E4.82327
G1 X121.250 Y39.775 E4.84393
G1 X121.546 Y39.935 E4.85819
G1 X126.230 Y42.861 E5.09229
G1 X126.664 Y43.174 E5.11496
G1 X126.927 Y43.399 E5.12966
G1 X127.319 Y43.796 E5.15329
G1 X127.667 Y44.231 E5.17690
G1 X127.967 Y44.699 E5.20047
G1 X128.216 Y45.197 E5.22409
G1 X128.412 Y45.717 E5.24764
G1 X128.553 Y46.258 E5.27132
G1 X128.637 Y46.807 E5.29486
G1 X128.663 Y47.330 E5.31707
G1 X128.662 Y111.160 E8.02265
G1 X128.637 Y111.649 E8.04341
G1 X128.553 Y112.198 E8.06697
G1 X128.470 Y112.543 E8.08200
G1 X128.297 Y113.064 E8.10526
G1 X128.098 Y113.510 E8.12597
G1 X127.823 Y113.995 E8.14960
G1 X127.626 Y114.281 E8.16434
G1 X127.273 Y114.711 E8.18793
G1 X127.079 Y114.913 E8.19977
G1 X126.723 Y115.233 E8.22008
G1 X126.269 Y115.569 E8.24403
G1 X121.686 Y118.436 E8.47316
G1 X121.311 Y118.650 E8.49145
G1 X120.998 Y118.799 E8.50615
G1 X120.740 Y118.904 E8.51798
G1 X120.276 Y119.055 E8.53865
G1 X64.357 Y131.934 E10.97096
G1 X64.061 Y131.968 E10.98360
G1 X35.061 Y131.968 E12.21284
G1 X34.129 Y131.583 E12.25558
G1 X33.741 Y130.689 E12.29688
G1 X31.338 Y55.395 E15.49006
G1 X31.337 Y29.353 E16.59392
G1 X31.702 Y28.469 E16.63443
G1 E15.63443 F1800.00000
G92 E0
G1 X39.434 Y109.356 F7800.000
G1 E1.00000 F1800.00000
G1 X39.175 Y109.589 E1.01314 F270.000
G1 X38.943 Y109.731 E1.02339
G1 X38.622 Y109.854 E1.03638
G1 X38.276 Y109.908 E1.04960
G1 X37.928 Y109.890 E1.06275
G1 X37.665 Y109.826 E1.07300
G1 X37.350 Y109.686 E1.08599
G1 X37.067 Y109.480 E1.09921
G1 X36.834 Y109.222 E1.11234
G1 X36.694 Y108.994 E1.12245
G1 X36.570 Y108.669 E1.13559
G1 X36.515 Y108.323 E1.14881
G1 X36.533 Y107.973 E1.16204
G1 X36.624 Y107.634 E1.17527
G1 X36.782 Y107.324 E1.18840
G1 X36.945 Y107.112 E1.19850
G1 X37.203 Y106.879 E1.21164
G1 X37.505 Y106.705 E1.22479
G1 X37.761 Y106.615 E1.23504
G1 X38.101 Y106.561 E1.24803
G1 X38.451 Y106.579 E1.26125
G1 X38.783 Y106.668 E1.27423
G1 X39.028 Y106.785 E1.28448
G1 X39.310 Y106.989 E1.29763
G1 X39.543 Y107.248 E1.31077
G1 X39.684 Y107.480 E1.32102
G1 X39.807 Y107.801 E1.33401
G1 X39.862 Y108.147 E1.34723
G1 X39.844 Y108.497 E1.36046
G1 X39.754 Y108.833 E1.37360
G1 X39.636 Y109.078 E1.38385
G1 X39.465 Y109.314 E1.39486
G1 X39.530 Y109.691 F7800.000
G1 E0.39486 F1800.00000
G92 E0
G1 X38.177 Y125.430 F7800.000
G1 E1.00000 F1800.00000
G1 X38.504 Y125.455 E1.01388 F270.000
G1 X38.898 Y125.561 E1.03119
G1 X39.267 Y125.749 E1.04874
G1 X39.589 Y126.009 E1.06629
G1 X39.846 Y126.326 E1.08358
G1 X40.000 Y126.610 E1.09728
G1 X40.126 Y126.998 E1.11457
G1 X40.169 Y127.410 E1.13212
G1 X40.126 Y127.822 E1.14967
G1 X39.998 Y128.215 E1.16722
G1 X39.794 Y128.569 E1.18451
G1 X39.584 Y128.814 E1.19821
G1 X39.267 Y129.071 E1.21549
G1 X38.904 Y129.256 E1.23280
G1 X38.589 Y129.349 E1.24668
G1 X38.188 Y129.391 E1.26377
G1 X37.787 Y129.349 E1.28085
G1 X37.473 Y129.256 E1.29473
G1 X37.110 Y129.071 E1.31204
G1 X36.793 Y128.814 E1.32932
G1 X36.583 Y128.569 E1.34302
G1 X36.379 Y128.215 E1.36031
G1 X36.251 Y127.822 E1.37786
G1 X36.208 Y127.410 E1.39541
G1 X36.251 Y126.998 E1.41297
G1 X36.377 Y126.610 E1.43025
G1 X36.531 Y126.326 E1.44395
G1 X36.788 Y126.009 E1.46124
G1 X37.105 Y125.752 E1.47854
G1 X37.393 Y125.597 E1.49242
G1 X37.777 Y125.472 E1.50951
G1 X38.125 Y125.435 E1.52437
G1 X38.182 Y125.734 F7800.000
G1 X38.453 Y125.755 E1.53462 F270.000
G1 X38.789 Y125.845 E1.54777
G1 X39.101 Y126.004 E1.56099
G1 X39.374 Y126.225 E1.57422
G1 X39.593 Y126.495 E1.58736
G1 X39.720 Y126.730 E1.59746
G1 X39.828 Y127.061 E1.61060
G1 X39.864 Y127.410 E1.62383
G1 X39.828 Y127.758 E1.63705
G1 X39.720 Y128.091 E1.65028
G1 X39.546 Y128.393 E1.66342
G1 X39.372 Y128.596 E1.67352
G1 X39.101 Y128.815 E1.68666
G1 X38.791 Y128.974 E1.69980
G1 X38.531 Y129.050 E1.71006
G1 X38.188 Y129.086 E1.72304
G1 X37.846 Y129.050 E1.73602
G1 X37.586 Y128.974 E1.74627
G1 X37.276 Y128.815 E1.75941
G1 X37.005 Y128.596 E1.77255
G1 X36.831 Y128.393 E1.78265
G1 X36.657 Y128.091 E1.79579
G1 X36.549 Y127.758 E1.80902
G1 X36.512 Y127.410 E1.82225
G1 X36.549 Y127.061 E1.83547
G1 X36.657 Y126.730 E1.84861
G1 X36.784 Y126.495 E1.85871
G1 X37.003 Y126.225 E1.87186
G1 X37.274 Y126.006 E1.88500
G1 X37.513 Y125.876 E1.89525
G1 X37.840 Y125.771 E1.90823
G1 X38.130 Y125.740 E1.91923
G1 X38.321 Y125.501 F7800.000
G1 X36.974 Y125.446 F7800.000
G1 X36.560 Y125.781 E1.94179 F270.000
G1 X36.263 Y126.147 E1.96175
G1 X36.081 Y126.483 E1.97796
G1 X36.022 Y126.664 E1.98603
G1 X35.860 Y126.638 E1.99299
G1 X35.860 Y125.446 E2.04353
G1 X36.921 Y125.446 E2.08851
G1 X35.860 Y128.181 F7800.000
G1 X36.022 Y128.156 E2.09547 F270.000
G1 X36.084 Y128.347 E2.10399
G1 X36.320 Y128.755 E2.12396
G1 X36.568 Y129.045 E2.14016
G1 X36.934 Y129.341 E2.16011
G1 X37.354 Y129.556 E2.18011
G1 X37.789 Y129.683 E2.19930
G1 X37.765 Y129.848 E2.20637
G1 X35.860 Y129.848 E2.28712
G1 X35.860 Y128.234 E2.35556
G1 E1.35556 F1800.00000
G92 E0
G1 X35.860 Y109.848 F7800.000
G1 E1.00000 F1800.00000
G1 X35.860 Y109.000 E1.03598 F270.000
G1 X36.017 Y108.970 E1.04277
G1 X36.132 Y109.271 E1.05639
G1 X36.332 Y109.597 E1.07260
G1 X36.559 Y109.848 E1.08697
G1 X35.912 Y109.848 E1.11437
G1 X52.860 Y109.848 F7800.000
G1 X39.847 Y109.848 E1.66594 F900.000
G1 X40.174 Y109.399 E1.68950
G1 X40.341 Y109.051 E1.70588
G1 X40.463 Y108.595 E1.72587
G1 X40.489 Y108.114 E1.74628
G1 X40.413 Y107.639 E1.76667
G1 X40.247 Y107.204 E1.78643
G1 X40.045 Y106.874 E1.80282
G1 X39.730 Y106.523 E1.82281
G1 X39.348 Y106.246 E1.84281
G1 X38.999 Y106.080 E1.85919
G1 X38.548 Y105.960 E1.87896
G1 X38.068 Y105.935 E1.89933
G1 X37.608 Y106.007 E1.91911
G1 X37.243 Y106.136 E1.93549
G1 X36.835 Y106.371 E1.95547
G1 X36.485 Y106.686 E1.97543
G1 X36.252 Y106.990 E1.99164
G1 X36.007 Y107.470 E2.01448
G1 X35.860 Y107.434 E2.02091
G1 X35.860 Y105.446 E2.10519
G1 X58.262 Y105.446 E3.05476
G1 X58.262 Y120.446 E3.69058
G1 X63.262 Y120.446 E3.90251
G1 X63.262 Y129.848 E4.30105
G1 X38.612 Y129.848 E5.34591
G1 X38.588 Y129.683 E5.35297
G1 X39.023 Y129.556 E5.37217
G1 X39.443 Y129.341 E5.39216
G1 X39.809 Y129.045 E5.41212
G1 X40.057 Y128.755 E5.42832
G1 X40.293 Y128.347 E5.44829
G1 X40.441 Y127.889 E5.46870
G1 X40.492 Y127.410 E5.48911
G1 X40.441 Y126.931 E5.50951
G1 X40.296 Y126.483 E5.52948
G1 X40.114 Y126.147 E5.54568
G1 X39.817 Y125.781 E5.56565
G1 X39.403 Y125.446 E5.58821
G1 X52.860 Y125.446 E6.15859
G1 X52.860 Y109.901 E6.81752
G1 X52.539 Y110.169 F7800.000
G1 X39.076 Y110.169 E7.38817 F900.000
G1 X39.037 Y110.029 E7.39435
G1 X39.357 Y109.833 E7.41025
G1 X39.660 Y109.560 E7.42754
G1 X39.898 Y109.234 E7.44465
G1 X40.039 Y108.939 E7.45853
G1 X40.145 Y108.545 E7.47583
G1 X40.167 Y108.131 E7.49338
G1 X40.102 Y107.722 E7.51092
G1 X39.958 Y107.346 E7.52802
G1 X39.787 Y107.066 E7.54190
G1 X39.514 Y106.763 E7.55920
G1 X39.184 Y106.523 E7.57651
G1 X38.888 Y106.382 E7.59038
G1 X38.498 Y106.278 E7.60748
G1 X38.085 Y106.257 E7.62502
G1 X37.686 Y106.319 E7.64212
G1 X37.378 Y106.428 E7.65600
G1 X37.024 Y106.632 E7.67330
G1 X36.721 Y106.905 E7.69058
G1 X36.524 Y107.162 E7.70429
G1 X36.339 Y107.525 E7.72157
G1 X36.232 Y107.925 E7.73912
G1 X36.210 Y108.339 E7.75668
G1 X36.275 Y108.747 E7.77423
G1 X36.421 Y109.128 E7.79151
G1 X36.590 Y109.404 E7.80522
G1 X36.863 Y109.707 E7.82250
G1 X37.198 Y109.950 E7.84004
G1 X37.347 Y110.017 E7.84698
G1 X37.315 Y110.169 E7.85359
G1 X35.539 Y110.169 E7.92886
G1 X35.539 Y105.125 E8.14264
G1 X58.583 Y105.125 E9.11941
G1 X58.583 Y120.125 E9.75522
G1 X63.583 Y120.125 E9.96716
G1 X63.583 Y130.169 E10.39288
G1 X35.539 Y130.169 E11.58158
G1 X35.539 Y125.125 E11.79537
G1 X52.539 Y125.125 E12.51596
G1 X52.539 Y110.222 E13.14770
G1 X52.236 Y110.472 F7800.000
G1 X35.236 Y110.472 E13.78945 F540.000
G1 X35.236 Y104.822 E14.00274
G1 X58.886 Y104.822 E14.89554
G1 X58.886 Y119.822 E15.46179
G1 X63.886 Y119.822 E15.65054
G1 X63.886 Y130.472 E16.05258
G1 X35.236 Y130.472 E17.13413
G1 X35.236 Y124.822 E17.34742
G1 X52.236 Y124.822 E17.98917
G1 X52.236 Y110.525 E18.52891
G1 X52.236 Y110.122 F7800.000
G1 X53.044 Y110.317 F7800.000
G1 X58.078 Y115.350 E18.83122 F360.000
G1 X58.078 Y115.805 E18.85052
G1 X53.044 Y110.771 E19.15284
G1 X53.044 Y111.226 E19.17214
G1 X58.078 Y116.259 E19.47445
G1 X58.078 Y116.713 E19.49375
G1 X53.044 Y111.680 E19.79607
G1 X53.044 Y112.135 E19.81537
G1 X58.078 Y117.168 E20.11768
G1 X58.078 Y117.622 E20.13698
G1 X53.044 Y112.589 E20.43930
G1 X53.044 Y113.044 E20.45860
G1 X58.078 Y118.077 E20.76091
G1 X58.078 Y118.531 E20.78021
G1 X53.044 Y113.498 E21.08252
G1 X53.044 Y113.953 E21.10183
G1 X58.078 Y118.986 E21.40414
G1 X58.078 Y119.440 E21.42344
G1 X53.044 Y114.407 E21.72575
G1 X53.044 Y114.861 E21.74505
G1 X58.078 Y119.895 E22.04737
G1 X58.078 Y120.349 E22.06667
G1 X53.044 Y115.316 E22.36898
G1 X53.044 Y115.770 E22.38828
G1 X63.078 Y125.803 E22.99091
G1 X63.078 Y125.349 E23.01021
G1 X58.359 Y120.631 E23.29361
G1 X58.814 Y120.631 E23.31291
G1 X63.078 Y124.895 E23.56901
G1 X63.078 Y124.440 E23.58831
G1 X59.268 Y120.631 E23.81712
G1 X59.723 Y120.631 E23.83642
G1 X63.078 Y123.986 E24.03793
G1 X63.078 Y123.531 E24.05723
G1 X60.177 Y120.631 E24.23144
G1 X60.632 Y120.631 E24.25074
G1 X63.078 Y123.077 E24.39766
G1 X63.078 Y122.622 E24.41696
G1 X61.086 Y120.631 E24.53658
G1 X61.540 Y120.631 E24.55588
G1 X63.078 Y122.168 E24.64821
G1 X63.078 Y121.713 E24.66751
G1 X61.995 Y120.631 E24.73254
G1 X62.449 Y120.631 E24.75184
G1 X63.078 Y121.259 E24.78957
G1 X63.078 Y120.805 E24.80887
G1 X62.904 Y120.631 E24.81931
G1 X63.078 Y126.258 F7800.000
G1 X53.044 Y116.225 E25.42194 F360.000
G1 X53.044 Y116.679 E25.44124
G1 X63.078 Y126.712 E26.04387
G1 X63.078 Y127.167 E26.06317
G1 X53.044 Y117.134 E26.66580
G1 X53.044 Y117.588 E26.68510
G1 X63.078 Y127.621 E27.28773
G1 X63.078 Y128.076 E27.30703
G1 X53.044 Y118.043 E27.90966
G1 X53.044 Y118.497 E27.92896
G1 X63.078 Y128.530 E28.53159
G1 X63.078 Y128.985 E28.55089
G1 X53.044 Y118.951 E29.15351
G1 X53.044 Y119.406 E29.17282
G1 X63.078 Y129.439 E29.77544
G1 X62.848 Y129.664 E29.78909
G1 X53.044 Y119.860 E30.37794
G1 X53.044 Y120.315 E30.39724
G1 X62.394 Y129.664 E30.95878
G1 X61.939 Y129.664 E30.97809
G1 X53.044 Y120.769 E31.51234
G1 X53.044 Y121.224 E31.53164
G1 X61.485 Y129.664 E32.03859
G1 X61.030 Y129.664 E32.05790
G1 X53.044 Y121.678 E32.53756
G1 X53.044 Y122.133 E32.55686
G1 X60.576 Y129.664 E33.00922
G1 X60.121 Y129.664 E33.02852
G1 X53.044 Y122.587 E33.45359
G1 X53.044 Y123.041 E33.47289
G1 X59.667 Y129.664 E33.87066
G1 X59.212 Y129.664 E33.88997
G1 X53.044 Y123.496 E34.26044
G1 X53.044 Y123.950 E34.27974
G1 X58.758 Y129.664 E34.62292
G1 X58.304 Y129.664 E34.64223
G1 X53.044 Y124.405 E34.95811
G1 X53.044 Y124.859 E34.97741
G1 X57.849 Y129.664 E35.26600
G1 X57.395 Y129.664 E35.28530
G1 X53.044 Y125.314 E35.54659
G1 X52.907 Y125.631 F7800.000
G1 X56.940 Y129.664 E35.78884 F360.000
G1 X56.486 Y129.664 E35.80815
G1 X52.453 Y125.631 E36.05039
G1 X51.998 Y125.631 E36.06970
G1 X56.031 Y129.664 E36.31194
G1 X55.577 Y129.664 E36.33125
G1 X51.544 Y125.631 E36.57349
G1 X51.089 Y125.631 E36.59280
G1 X55.122 Y129.664 E36.83505
G1 X54.668 Y129.664 E36.85435
G1 X50.635 Y125.631 E37.09660
G1 X50.180 Y125.631 E37.11590
G1 X54.214 Y129.664 E37.35815
G1 X53.759 Y129.664 E37.37745
G1 X49.726 Y125.631 E37.61970
G1 X49.272 Y125.631 E37.63900
G1 X53.305 Y129.664 E37.88125
G1 X52.850 Y129.664 E37.90055
G1 X48.817 Y125.631 E38.14280
G1 X48.363 Y125.631 E38.16210
G1 X52.396 Y129.664 E38.40435
G1 X51.941 Y129.664 E38.42365
G1 X47.908 Y125.631 E38.66590
G1 X47.454 Y125.631 E38.68520
G1 X51.487 Y129.664 E38.92745
G1 X51.032 Y129.664 E38.94675
G1 X46.999 Y125.631 E39.18900
G1 X46.545 Y125.631 E39.20830
G1 X50.578 Y129.664 E39.45055
G1 X50.124 Y129.664 E39.46985
G1 X46.090 Y125.631 E39.71210
G1 X45.636 Y125.631 E39.73140
G1 X49.669 Y129.664 E39.97365
G1 X49.215 Y129.664 E39.99295
G1 X45.181 Y125.631 E40.23520
G1 X44.727 Y125.631 E40.25450
G1 X48.760 Y129.664 E40.49675
G1 X48.306 Y129.664 E40.51605
G1 X44.273 Y125.631 E40.75830
G1 X43.818 Y125.631 E40.77760
G1 X47.851 Y129.664 E41.01985
G1 X47.397 Y129.664 E41.03915
G1 X43.364 Y125.631 E41.28140
G1 X42.909 Y125.631 E41.30070
G1 X46.942 Y129.664 E41.54295
G1 X46.488 Y129.664 E41.56225
G1 X42.455 Y125.631 E41.80450
G1 X42.000 Y125.631 E41.82380
G1 X46.034 Y129.664 E42.06605
G1 X45.579 Y129.664 E42.08535
G1 X41.546 Y125.631 E42.32760
G1 X41.091 Y125.631 E42.34690
G1 X45.125 Y129.664 E42.58915
G1 X44.670 Y129.664 E42.60845
G1 X40.637 Y125.631 E42.85070
G1 X40.183 Y125.631 E42.87000
G1 X44.216 Y129.664 E43.11225
G1 X43.761 Y129.664 E43.13155
G1 X40.484 Y126.387 E43.32838
G1 X40.642 Y126.999 E43.35521
G1 X43.307 Y129.664 E43.51530
G1 X42.852 Y129.664 E43.53460
G1 X40.664 Y127.475 E43.66607
G1 X40.618 Y127.884 E43.68355
G1 X42.398 Y129.664 E43.79044
G1 X41.944 Y129.664 E43.80974
G1 X40.507 Y128.227 E43.89604
G1 X40.365 Y128.540 E43.91062
G1 X41.489 Y129.664 E43.97812
G1 X41.035 Y129.664 E43.99742
G1 X40.199 Y128.828 E44.04762
G1 X39.990 Y129.074 E44.06131
G1 X40.580 Y129.664 E44.09674
G1 X40.126 Y129.664 E44.11605
G1 X39.754 Y129.292 E44.13840
G1 X39.500 Y129.493 E44.15214
G1 X39.671 Y129.664 E44.16240
G1 E43.16240 F1800.00000
G92 E0
G1 X40.576 Y109.664 F7800.000
G1 E1.00000 F1800.00000
G1 X40.340 Y109.428 E1.01416 F360.000
G1 X40.487 Y109.121 E1.02863
G1 X41.030 Y109.664 E1.06126
G1 X41.485 Y109.664 E1.08056
G1 X40.592 Y108.771 E1.13420
G1 X40.656 Y108.381 E1.15099
G1 X41.939 Y109.664 E1.22807
G1 X42.394 Y109.664 E1.24737
G1 X40.658 Y107.928 E1.35164
G1 X40.529 Y107.345 E1.37699
G1 X42.848 Y109.664 E1.51626
G1 X43.302 Y109.664 E1.53556
G1 X39.443 Y105.804 E1.76738
G1 X39.724 Y105.631 E1.78140
G1 X43.757 Y109.664 E2.02365
G1 X44.211 Y109.664 E2.04295
G1 X40.178 Y105.631 E2.28520
G1 X40.633 Y105.631 E2.30450
G1 X44.666 Y109.664 E2.54675
G1 X45.120 Y109.664 E2.56605
G1 X41.087 Y105.631 E2.80830
G1 X41.542 Y105.631 E2.82760
G1 X45.575 Y109.664 E3.06985
G1 X46.029 Y109.664 E3.08915
G1 X41.996 Y105.631 E3.33140
G1 X42.450 Y105.631 E3.35070
G1 X46.484 Y109.664 E3.59295
G1 X46.938 Y109.664 E3.61225
G1 X42.905 Y105.631 E3.85450
G1 X43.359 Y105.631 E3.87380
G1 X47.392 Y109.664 E4.11605
G1 X47.847 Y109.664 E4.13535
G1 X43.814 Y105.631 E4.37760
G1 X44.268 Y105.631 E4.39690
G1 X48.301 Y109.664 E4.63915
G1 X48.756 Y109.664 E4.65845
G1 X44.723 Y105.631 E4.90070
G1 X45.177 Y105.631 E4.92000
G1 X49.210 Y109.664 E5.16225
G1 X49.665 Y109.664 E5.18156
G1 X45.632 Y105.631 E5.42380
G1 X46.086 Y105.631 E5.44311
G1 X50.119 Y109.664 E5.68535
G1 X50.574 Y109.664 E5.70466
G1 X46.540 Y105.631 E5.94691
G1 X46.995 Y105.631 E5.96621
G1 X51.028 Y109.664 E6.20846
G1 X51.482 Y109.664 E6.22776
G1 X47.449 Y105.631 E6.47001
G1 X47.904 Y105.631 E6.48931
G1 X51.937 Y109.664 E6.73156
G1 X52.391 Y109.664 E6.75086
G1 X48.358 Y105.631 E6.99311
G1 X48.813 Y105.631 E7.01241
G1 X52.846 Y109.664 E7.25466
G1 X53.044 Y109.863 F7800.000
G1 X58.078 Y114.896 E7.55697 F360.000
G1 X58.078 Y114.441 E7.57627
G1 X49.267 Y105.631 E8.10547
G1 X49.722 Y105.631 E8.12477
G1 X58.078 Y113.987 E8.62667
G1 X58.078 Y113.532 E8.64597
G1 X50.176 Y105.631 E9.12057
G1 X50.630 Y105.631 E9.13988
G1 X58.078 Y113.078 E9.58718
G1 X58.078 Y112.623 E9.60649
G1 X51.085 Y105.631 E10.02650
G1 X51.539 Y105.631 E10.04580
G1 X58.078 Y112.169 E10.43852
G1 X58.078 Y111.715 E10.45782
G1 X51.994 Y105.631 E10.82324
G1 X52.448 Y105.631 E10.84254
G1 X58.078 Y111.260 E11.18067
G1 X58.078 Y110.806 E11.19997
