; generated by Slic3r 1.1.7 on 2015-12-15 at 16:00:48

; perimeters extrusion width = 0.35mm
; infill extrusion width = 0.39mm
; solid infill extrusion width = 0.39mm
; top infill extrusion width = 0.39mm

G21 ; set units to millimeters
M107
M190 S65 ; wait for bed temperature to be reached
M104 S205 ; set temperature
G28 ; home all axes
G1 Z5 F5000 ; lift nozzle

M109 S205 ; wait for temperature to be reached
G90 ; use absolute coordinates
G92 E0
M82 ; use absolute distances for extrusion
G1 F1800.000 E-1.00000
G92 E0
G1 Z0.350 F7800.000
G1 X58.996 Y82.695 F7800.000
G1 E1.00000 F1800.000
G1 X60.927 Y81.457 E1.22099 F677.680
G1 X63.511 Y80.944 E1.47490
G1 X73.509 Y80.988 E2.43821
G1 X75.766 Y81.394 E2.65920 F677.680
G1 X77.749 Y82.546 E2.88019
G1 X79.220 Y84.306 E3.10118
G1 X80.004 Y86.461 E3.32217
G1 X80.105 Y87.612 E3.43354
G1 X80.048 Y98.142 E4.44813
G1 X80.004 Y98.480 E4.48097
G1 X79.314 Y100.667 E4.70196
G1 X77.919 Y102.487 E4.92295
G1 X75.987 Y103.724 E5.14394
G1 X73.407 Y104.234 E5.39734
G1 X63.410 Y104.191 E6.36064
G1 X61.153 Y103.784 E6.58163
G1 X59.170 Y102.632 E6.80262
G1 X57.699 Y100.873 E7.02361
G1 X56.915 Y98.717 E7.24460
G1 X56.814 Y97.566 E7.35597
G1 X56.871 Y87.035 E8.37076
G1 X56.914 Y86.704 E8.40288
G1 X57.603 Y84.516 E8.62387
G1 X58.964 Y82.736 E8.83980
G1 F1800.000 E7.83980
G92 E0
G1 X70.816 Y94.967 F7800.000
G1 E1.00000 F1800.000
G1 X70.404 Y95.314 E1.05191 F600.000
G1 X70.003 Y95.560 E1.09728
G1 X69.467 Y95.783 E1.15320
G1 X68.954 Y95.901 E1.20385
G1 X68.430 Y95.939 E1.25450
G1 X67.907 Y95.893 E1.30514
G1 X67.449 Y95.783 E1.35051
G1 X66.961 Y95.586 E1.40115
G1 X66.511 Y95.316 E1.45180
G1 X66.060 Y94.930 E1.50899
G1 X65.729 Y94.538 E1.55839
G1 X65.458 Y94.087 E1.60907
G1 X65.261 Y93.600 E1.65975
G1 X65.142 Y93.087 E1.71043
G1 X65.105 Y92.563 E1.76111
G1 X65.150 Y92.039 E1.81179
G1 X65.277 Y91.528 E1.86247
G1 X65.482 Y91.044 E1.91314
G1 X65.760 Y90.598 E1.96382
G1 X66.096 Y90.211 E2.01323
G1 X66.509 Y89.864 E2.06514
G1 X66.959 Y89.593 E2.11579
G1 X67.394 Y89.412 E2.16115
G1 X67.958 Y89.277 E2.21708
G1 X68.483 Y89.239 E2.26773
G1 X68.952 Y89.276 E2.31309
G1 X69.516 Y89.411 E2.36901 F600.000
G1 X70.000 Y89.616 E2.41966
G1 X70.446 Y89.895 E2.47031
G1 X70.853 Y90.248 E2.52222
G1 X71.183 Y90.640 E2.57163
G1 X71.455 Y91.091 E2.62231
G1 X71.652 Y91.578 E2.67299
G1 X71.771 Y92.091 E2.72367
G1 X71.808 Y92.615 E2.77434
G1 X71.763 Y93.139 E2.82502
G1 X71.636 Y93.650 E2.87570
G1 X71.431 Y94.134 E2.92638
G1 X71.152 Y94.580 E2.97706
G1 X70.850 Y94.928 E3.02141
G1 F1800.000 E2.02141
G92 E0
G1 X68.961 Y88.926 F7800.000
G1 X66.804 Y96.207 F7800.000
G1 E1.00000 F1800.000
G1 X66.713 Y96.591 E1.03805 F600.000
G1 X64.414 Y96.591 E1.25956
G1 X64.414 Y94.276 E1.48260
G1 X64.778 Y94.174 E1.51906
G1 X65.207 Y94.888 E1.59937
G1 X65.585 Y95.339 E1.65602
G1 X66.165 Y95.836 E1.72962
G1 X66.757 Y96.183 E1.79583
G1 F1800.000 E0.79583
G92 E0
G1 X64.816 Y91.018 F7800.000
G1 E1.00000 F1800.000
G1 X64.414 Y90.938 E1.03953 F600.000
G1 X64.414 Y88.587 E1.26604
G1 X66.712 Y88.587 E1.48743
G1 X66.804 Y88.970 E1.52533
G1 X66.160 Y89.344 E1.59713
G1 X65.653 Y89.767 E1.66075
G1 X65.265 Y90.209 E1.71739
G1 X64.932 Y90.738 E1.77758
G1 X64.836 Y90.969 E1.80176
G1 F1800.000 E0.80176
G92 E0
G1 X70.109 Y88.971 F7800.000
G1 E1.00000 F1800.000
G1 X70.201 Y88.587 E1.03805 F600.000
G1 X72.505 Y88.587 E1.26006
G1 X72.505 Y90.937 E1.48648
G1 X72.084 Y91.005 E1.52755
G1 X72.025 Y90.826 E1.54562
G1 X71.706 Y90.290 E1.60581
G1 X71.328 Y89.839 E1.66246
G1 X70.748 Y89.342 E1.73607
G1 X70.156 Y88.995 E1.80218
G1 F1800.000 E0.80218
G92 E0
G1 X72.102 Y94.145 F7800.000
G1 E1.00000 F1800.000
G1 X72.505 Y94.225 E1.03953 F600.000
G1 X72.505 Y96.591 E1.26750
G1 X70.200 Y96.591 E1.48956
G1 X70.108 Y96.209 E1.52746
G1 X70.752 Y95.834 E1.59934
G1 X71.260 Y95.411 E1.66297
G1 X71.647 Y94.969 E1.71961
G1 X71.980 Y94.440 E1.77980
G1 X72.082 Y94.194 E1.80552
G1 X73.130 Y97.216 F7800.000
G1 X63.789 Y97.216 E2.70555 F600.000
G1 X63.789 Y87.962 E3.59721
G1 X73.130 Y87.962 E4.49725
G1 X73.130 Y97.164 E5.38384
G1 X72.827 Y97.041 F7800.000
G1 X71.095 Y96.138 F7800.000
G1 X71.115 Y96.158 E5.38657 F677.680
G1 X72.048 Y96.142 E5.47656
G1 X71.594 Y95.687 E5.53854
G1 X72.072 Y95.215 E5.60330
G1 X72.045 Y95.188 E5.60695
G1 X72.366 Y93.879 F7800.000
G1 X72.444 Y93.229 E5.70533 F600.000
G1 X72.469 Y92.600 E5.80005
G1 X72.445 Y91.966 E5.89536
G1 X72.363 Y91.276 E5.99981
G1 X72.032 Y89.020 F7800.000
G1 X72.072 Y89.060 E6.00526 F677.680
G1 X71.901 Y89.849 E6.08301
G1 X72.051 Y89.999 E6.10338
G1 X71.092 Y89.040 E6.23396
G1 X65.798 Y89.020 F7800.000
G1 X65.818 Y89.040 E6.23668 F677.680
G1 X65.322 Y89.488 E6.30104
G1 X64.871 Y89.037 E6.36256
G1 X64.847 Y89.956 E6.45121
G1 X64.874 Y89.984 E6.45492
G1 X64.551 Y91.284 F7800.000
G1 X64.472 Y91.949 E6.55560 F600.000
G1 X64.446 Y92.578 E6.65025
G1 X64.471 Y93.211 E6.74549
G1 X64.554 Y93.912 E6.85164
G1 X64.868 Y95.187 F7800.000
G1 X65.060 Y95.379 E6.87779 F677.680
G1 X64.847 Y96.118 E6.95191
G1 X64.887 Y96.158 E6.95736
G1 X65.665 Y95.985 E7.03422
G1 X65.819 Y96.138 E7.05513
M106 S255
M104 S200 ; set temperature
M140 S60 ; set bed temperature
G1 F1800.000 E6.05513
G92 E0
G1 Z0.600 F7800.000
G1 X70.931 Y94.920 F7800.000
G1 E1.00000 F1800.000
G1 X70.490 Y95.285 E1.02208 F600.000
G1 X70.117 Y95.514 E1.03894
G1 X69.500 Y95.771 E1.06471
G1 X68.960 Y95.891 E1.08603
G1 X68.408 Y95.926 E1.10734
G1 X67.858 Y95.874 E1.12866
G1 X67.432 Y95.772 E1.14553
G1 X66.918 Y95.569 E1.16684
G1 X66.441 Y95.288 E1.18816
G1 X65.919 Y94.841 E1.21468
G1 X65.578 Y94.431 E1.23525
G1 X65.296 Y93.954 E1.25659
G1 X65.092 Y93.439 E1.27793
G1 X64.971 Y92.899 E1.29927
G1 X64.937 Y92.347 E1.32060
G1 X64.989 Y91.796 E1.34194
G1 X65.126 Y91.260 E1.36328
G1 X65.346 Y90.752 E1.38461
G1 X65.643 Y90.284 E1.40595
G1 X65.996 Y89.884 E1.42652
G1 X66.437 Y89.519 E1.44860
G1 X66.913 Y89.237 E1.46992
G1 X67.317 Y89.070 E1.48678
G1 X67.967 Y88.913 E1.51255
G1 X68.518 Y88.878 E1.53387
G1 X68.955 Y88.913 E1.55073
G1 X69.605 Y89.068 E1.57649 F600.000
G1 X70.112 Y89.288 E1.59781
G1 X70.579 Y89.584 E1.61913
G1 X71.008 Y89.963 E1.64121
G1 X71.349 Y90.374 E1.66178
G1 X71.631 Y90.850 E1.68312
G1 X71.835 Y91.365 E1.70446
G1 X71.955 Y91.905 E1.72579
G1 X71.990 Y92.457 E1.74713
G1 X71.938 Y93.008 E1.76847
G1 X71.801 Y93.545 E1.78980
G1 X71.581 Y94.053 E1.81114
G1 X71.284 Y94.520 E1.83248
G1 X70.965 Y94.880 E1.85103
G1 X70.683 Y94.672 F7800.000
G1 X70.295 Y94.994 E1.87048 F600.000
G1 X69.945 Y95.209 E1.88629
G1 X69.404 Y95.434 E1.90888
G1 X68.918 Y95.543 E1.92808
G1 X68.510 Y95.576 E1.94388
G1 X67.925 Y95.530 E1.96647
G1 X67.443 Y95.408 E1.98567
G1 X67.064 Y95.251 E2.00147
G1 X66.564 Y94.945 E2.02406
G1 X66.185 Y94.612 E2.04352
G1 X65.870 Y94.234 E2.06247
G1 X65.616 Y93.806 E2.08167
G1 X65.431 Y93.343 E2.10088
G1 X65.321 Y92.857 E2.12009
G1 X65.289 Y92.360 E2.13929
G1 X65.334 Y91.864 E2.15850
G1 X65.457 Y91.381 E2.17770
G1 X65.654 Y90.923 E2.19691
G1 X65.920 Y90.502 E2.21612
G1 X66.244 Y90.133 E2.23507
G1 X66.632 Y89.810 E2.25452
G1 X67.060 Y89.555 E2.27372
G1 X67.523 Y89.371 E2.29292
G1 X68.008 Y89.261 E2.31212
G1 X68.417 Y89.229 E2.32792
G1 X69.001 Y89.274 E2.35051 F600.000
G1 X69.484 Y89.397 E2.36971
G1 X69.942 Y89.593 E2.38891
G1 X70.363 Y89.859 E2.40811
G1 X70.742 Y90.192 E2.42757
G1 X71.056 Y90.570 E2.44652
G1 X71.311 Y90.998 E2.46572
G1 X71.496 Y91.461 E2.48493
G1 X71.606 Y91.947 E2.50414
G1 X71.638 Y92.444 E2.52334
G1 X71.592 Y92.940 E2.54255
G1 X71.470 Y93.423 E2.56176
G1 X71.273 Y93.881 E2.58096
G1 X71.007 Y94.302 E2.60017
G1 X70.717 Y94.632 E2.61710
G1 F1800.000 E1.61710
G92 E0
G1 X68.380 Y88.881 F7800.000
G1 X67.791 Y96.218 F7800.000
G1 E1.00000 F1800.000
G1 X67.761 Y96.465 E1.00959 F600.000
G1 X64.291 Y96.465 E1.14335
G1 X64.291 Y88.341 E1.45654
G1 X67.757 Y88.341 E1.59011
G1 X67.786 Y88.588 E1.59970
G1 X67.195 Y88.742 E1.62324
G1 X66.638 Y88.985 E1.64667
G1 X66.126 Y89.313 E1.67011
G1 X65.747 Y89.636 E1.68930
G1 X65.365 Y90.067 E1.71149
G1 X65.038 Y90.580 E1.73496
G1 X64.795 Y91.138 E1.75843
G1 X64.643 Y91.728 E1.78190
G1 X64.584 Y92.334 E1.80536
G1 X64.621 Y92.941 E1.82883
G1 X64.753 Y93.536 E1.85230
G1 X64.976 Y94.102 E1.87577
G1 X65.285 Y94.627 E1.89924
G1 X65.653 Y95.070 E1.92143
G1 X65.778 Y95.194 E1.92822
G1 X66.247 Y95.580 E1.95166
G1 X66.772 Y95.887 E1.97509
G1 X67.201 Y96.065 E1.99302
G1 X67.739 Y96.205 E2.01445
G1 X69.136 Y96.218 F7800.000
G1 X69.732 Y96.063 E2.03817 F600.000
G1 X70.289 Y95.819 E2.06160
G1 X70.801 Y95.492 E2.08504
G1 X71.179 Y95.168 E2.10423
G1 X71.561 Y94.738 E2.12642
G1 X71.888 Y94.224 E2.14989
G1 X72.131 Y93.666 E2.17336
G1 X72.284 Y93.077 E2.19683
G1 X72.342 Y92.471 E2.22030
G1 X72.305 Y91.863 E2.24376
G1 X72.174 Y91.269 E2.26723
G1 X71.951 Y90.702 E2.29070
G1 X71.642 Y90.178 E2.31417
G1 X71.274 Y89.734 E2.33637
G1 X71.149 Y89.610 E2.34316
G1 X70.679 Y89.225 E2.36659
G1 X70.283 Y88.982 E2.38451
G1 X69.725 Y88.739 E2.40795
G1 X69.141 Y88.588 E2.43122
G1 X69.170 Y88.341 E2.44082
G1 X72.652 Y88.341 E2.57503
G1 X72.652 Y96.465 E2.88822
G1 X69.165 Y96.465 E3.02261
G1 X69.142 Y96.270 E3.03018
G1 X72.939 Y96.866 F7800.000
G1 X72.546 Y96.815 E3.04544 F600.000
G1 X63.941 Y96.815 E3.37715
G1 X63.941 Y88.279 E3.70620
G1 X63.987 Y87.937 E3.71951
G1 X64.397 Y87.991 E3.73548
G1 X73.002 Y87.991 E4.06719
G1 X73.002 Y96.520 E4.39600
G1 X72.947 Y96.815 E4.40754
G1 X73.262 Y97.262 F7800.000
G1 X72.523 Y97.165 E4.43628 F600.000
G1 X63.591 Y97.165 E4.78059
G1 X63.591 Y88.256 E5.12402
G1 X63.685 Y87.544 E5.15171
G1 X64.420 Y87.641 E5.18028
G1 X73.352 Y87.641 E5.52460
G1 X73.352 Y96.547 E5.86795
G1 X73.298 Y96.842 E5.87949
G1 X73.266 Y97.210 E5.89373
G1 X72.981 Y97.053 F7800.000
G1 X72.410 Y96.183 F7800.000
G1 X72.370 Y96.223 E5.89612 F839.856
G1 X71.786 Y96.223 E5.92089
G1 X72.410 Y95.599 E5.95832
G1 X72.410 Y95.015 E5.98309
G1 X71.202 Y96.223 E6.05555
G1 X70.617 Y96.223 E6.08032
G1 X72.410 Y94.430 E6.18781
G1 X72.244 Y94.012 E6.20689
G1 X72.300 Y93.956 E6.21022
G1 X72.410 Y90.786 F7800.000
G1 X72.365 Y90.831 E6.21292 F839.856
G1 X72.103 Y90.485 E6.23133
G1 X72.410 Y90.177 E6.24975
G1 X71.877 Y90.102 E6.27256
G1 X72.410 Y89.569 E6.30450
G1 X72.410 Y88.961 E6.33029
G1 X71.610 Y89.761 E6.37826
G1 X71.322 Y89.441 E6.39651
G1 X72.180 Y88.582 E6.44800
G1 X71.572 Y88.582 E6.47378
G1 X70.988 Y89.166 E6.50877
G1 X70.633 Y88.913 E6.52726
G1 X70.964 Y88.582 E6.54708
G1 X70.355 Y88.582 E6.57286
G1 X70.310 Y88.628 E6.57561
G1 X64.533 Y88.622 F7800.000
G1 X64.573 Y88.582 E6.57801 F839.856
G1 X65.148 Y88.582 E6.60236
G1 X64.533 Y89.197 E6.63920
G1 X64.533 Y89.771 E6.66356
G1 X65.722 Y88.582 E6.73484
G1 X66.297 Y88.582 E6.75919
G1 X64.533 Y90.346 E6.86492
G1 X64.643 Y90.810 E6.88514
G1 X64.699 Y90.755 E6.88847
G1 X64.578 Y94.016 F7800.000
G1 X64.533 Y94.061 E6.89118 F839.856
G1 X64.533 Y94.661 E6.91663
G1 X64.843 Y94.352 E6.93519
G1 X65.065 Y94.730 E6.95378
G1 X64.533 Y95.262 E6.98568
G1 X64.533 Y95.862 E7.01113
G1 X65.333 Y95.063 E7.05906
G1 X65.619 Y95.377 E7.07708
G1 X64.772 Y96.223 E7.12784
G1 X65.373 Y96.223 E7.15329
G1 X65.949 Y95.647 E7.18781
G1 X65.973 Y96.223 E7.21225
G1 X66.301 Y95.896 E7.23188
G1 X66.574 Y96.223 E7.24995
G1 X66.620 Y96.177 E7.25269
G1 F1800.000 E6.25269
G92 E0
G1 Z0.850 F7800.000
G1 X70.923 Y94.777 F7800.000
G1 E1.00000 F1800.000
G1 X70.480 Y95.140 E1.02208 F600.000
G1 X70.141 Y95.348 E1.03743
G1 X69.488 Y95.620 E1.06469
G1 X68.947 Y95.738 E1.08601
G1 X68.395 Y95.770 E1.10733
G1 X67.845 Y95.715 E1.12864
G1 X67.458 Y95.622 E1.14400
G1 X66.942 Y95.422 E1.16531
G1 X66.464 Y95.144 E1.18662
G1 X66.036 Y94.795 E1.20794
G1 X65.912 Y94.672 E1.21467
G1 X65.573 Y94.259 E1.23524
G1 X65.294 Y93.781 E1.25658
G1 X65.093 Y93.266 E1.27791
G1 X64.975 Y92.725 E1.29925
G1 X64.943 Y92.173 E1.32058
G1 X64.998 Y91.622 E1.34192
G1 X65.138 Y91.087 E1.36325
G1 X65.361 Y90.580 E1.38459
G1 X65.660 Y90.114 E1.40592
G1 X66.015 Y89.716 E1.42649
G1 X66.333 Y89.444 E1.44261
G1 X66.936 Y89.074 E1.46987
G1 X67.451 Y88.873 E1.49119
G1 X67.991 Y88.755 E1.51250
G1 X68.543 Y88.723 E1.53382
G1 X68.940 Y88.755 E1.54917
G1 X69.628 Y88.919 E1.57644 F600.000
G1 X70.134 Y89.141 E1.59776
G1 X70.600 Y89.440 E1.61907
G1 X71.027 Y89.821 E1.64115
G1 X71.365 Y90.234 E1.66172
G1 X71.645 Y90.712 E1.68305
G1 X71.846 Y91.227 E1.70439
G1 X71.963 Y91.768 E1.72572
G1 X71.995 Y92.320 E1.74706
G1 X71.940 Y92.871 E1.76839
G1 X71.800 Y93.406 E1.78973
G1 X71.577 Y93.913 E1.81106
G1 X71.278 Y94.379 E1.83240
G1 X70.957 Y94.737 E1.85095
G1 X70.675 Y94.529 F7800.000
G1 X70.285 Y94.849 E1.87040 F600.000
G1 X69.969 Y95.043 E1.88469
G1 X69.392 Y95.283 E1.90878
G1 X68.906 Y95.390 E1.92798
G1 X68.536 Y95.419 E1.94227
G1 X67.913 Y95.371 E1.96636
G1 X67.431 Y95.245 E1.98556
G1 X67.088 Y95.104 E1.99985
G1 X66.555 Y94.778 E2.02395
G1 X66.178 Y94.443 E2.04340
G1 X65.866 Y94.063 E2.06235
G1 X65.614 Y93.633 E2.08155
G1 X65.432 Y93.170 E2.10075
G1 X65.325 Y92.683 E2.11996
G1 X65.295 Y92.186 E2.13916
G1 X65.344 Y91.690 E2.15836
G1 X65.469 Y91.208 E2.17757
G1 X65.669 Y90.751 E2.19677
G1 X65.937 Y90.332 E2.21597
G1 X66.263 Y89.964 E2.23492
G1 X66.653 Y89.644 E2.25437
G1 X67.083 Y89.392 E2.27357
G1 X67.546 Y89.210 E2.29277
G1 X68.033 Y89.103 E2.31197
G1 X68.402 Y89.074 E2.32626
G1 X69.026 Y89.122 E2.35035 F600.000
G1 X69.507 Y89.248 E2.36955
G1 X69.964 Y89.447 E2.38875
G1 X70.383 Y89.715 E2.40794
G1 X70.760 Y90.050 E2.42739
G1 X71.073 Y90.430 E2.44634
G1 X71.325 Y90.860 E2.46555
G1 X71.507 Y91.323 E2.48475
G1 X71.614 Y91.810 E2.50395
G1 X71.643 Y92.307 E2.52316
G1 X71.595 Y92.803 E2.54236
G1 X71.469 Y93.285 E2.56157
G1 X71.270 Y93.742 E2.58077
G1 X71.001 Y94.161 E2.59997
G1 X70.709 Y94.489 E2.61690
G1 F1800.000 E1.61690
G92 E0
G1 X68.365 Y88.726 F7800.000
G1 X69.282 Y96.029 F7800.000
G1 E1.00000 F1800.000
G1 X69.757 Y95.900 E1.01897 F600.000
G1 X70.150 Y95.737 E1.03538
G1 X70.675 Y95.431 E1.05882
G1 X71.171 Y95.025 E1.08352
G1 X71.556 Y94.597 E1.10571
G1 X71.885 Y94.085 E1.12918
G1 X72.131 Y93.528 E1.15264
G1 X72.286 Y92.939 E1.17611
G1 X72.347 Y92.334 E1.19957
G1 X72.313 Y91.726 E1.22304
G1 X72.185 Y91.131 E1.24651
G1 X71.964 Y90.563 E1.26997
G1 X71.658 Y90.037 E1.29344
G1 X71.293 Y89.592 E1.31563
G1 X71.140 Y89.441 E1.32393
G1 X70.668 Y89.057 E1.34737
G1 X70.142 Y88.753 E1.37080
G1 X69.749 Y88.590 E1.38721
G1 X69.289 Y88.465 E1.40556
G1 X69.318 Y88.218 E1.41515
G1 X72.691 Y88.218 E1.54517
G1 X72.691 Y95.895 E1.84109
G1 X72.608 Y96.347 E1.85880
G1 X72.074 Y96.276 E1.87954
G1 X69.311 Y96.276 E1.98605
G1 X69.288 Y96.081 E1.99362
G1 X67.656 Y96.029 F7800.000
G1 X67.627 Y96.276 E2.00321 F600.000
G1 X64.273 Y96.276 E2.13252
G1 X64.273 Y88.590 E2.42884
G1 X64.331 Y88.145 E2.44614
G1 X64.890 Y88.218 E2.46785
G1 X67.620 Y88.218 E2.57310
G1 X67.649 Y88.465 E2.58269
G1 X67.182 Y88.593 E2.60138
G1 X66.788 Y88.756 E2.61779
G1 X66.263 Y89.062 E2.64122
G1 X65.767 Y89.468 E2.66592
G1 X65.383 Y89.896 E2.68812
G1 X65.053 Y90.408 E2.71158
G1 X64.808 Y90.965 E2.73505
G1 X64.652 Y91.554 E2.75852
G1 X64.591 Y92.159 E2.78198
G1 X64.625 Y92.767 E2.80545
G1 X64.754 Y93.362 E2.82891
G1 X64.974 Y93.930 E2.85238
G1 X65.280 Y94.456 E2.87585
G1 X65.646 Y94.901 E2.89804
G1 X65.799 Y95.052 E2.90634
G1 X66.270 Y95.436 E2.92977
G1 X66.796 Y95.740 E2.95321
G1 X67.190 Y95.903 E2.96962
G1 X67.605 Y96.017 E2.98623
G1 X63.923 Y96.626 F7800.000
G1 X63.923 Y88.567 E3.29693 F600.000
G1 X64.030 Y87.752 E3.32860
G1 X64.913 Y87.868 E3.36292
G1 X73.041 Y87.868 E3.67627
G1 X73.041 Y95.922 E3.98673
G1 X72.961 Y96.354 E4.00366
G1 X72.924 Y96.741 E4.01867
G1 X72.051 Y96.626 E4.05259
G1 X63.975 Y96.626 E4.36392
G1 X63.573 Y96.976 F7800.000
G1 X63.573 Y88.544 E4.68899 F600.000
G1 X63.729 Y87.359 E4.73504
G1 X64.936 Y87.518 E4.78197
G1 X73.391 Y87.518 E5.10793
G1 X73.391 Y95.949 E5.43292
G1 X73.308 Y96.405 E5.45078
G1 X73.235 Y97.135 E5.47908
G1 X72.028 Y96.976 E5.52602
G1 X63.625 Y96.976 E5.84995
G1 X63.748 Y96.673 F7800.000
G1 X70.362 Y95.986 F7800.000
G1 X70.411 Y96.035 E5.85285 F850.765
G1 X71.024 Y96.035 E5.87883
G1 X70.691 Y95.702 E5.89879
G1 X71.044 Y95.442 E5.91737
G1 X71.636 Y96.035 E5.95290
G1 X72.273 Y96.059 E5.97992
G1 X71.375 Y95.160 E6.03379
