; generated by Slic3r 1.2.9 on 2018-09-30 at 19:15:03

; external perimeters extrusion width = 0.37mm
; perimeters extrusion width = 0.48mm
; infill extrusion width = 0.48mm
; solid infill extrusion width = 0.48mm
; top infill extrusion width = 0.48mm
; support material extrusion width = 0.37mm

M107
M190 S80 ; set bed temperature
M104 S230 ; set temperature
G28 ; home all axes
G1 Z5 F5000 ; lift nozzle
M109 S230 ; wait for temperature to be reached
G21 ; set units to millimeters
G90 ; use absolute coordinates
M82 ; use absolute distances for extrusion
G92 E0
G1 E-1.00000 F1800.00000
G92 E0
G1 Z0.300 F7800.000
G1 X39.126 Y47.770 F7800.000
G1 E1.00000 F1800.00000
G1 X40.134 Y46.977 E1.05012 F1080.000
G1 X42.868 Y45.113 E1.17940
G1 X44.580 Y44.193 E1.25534
G1 X45.306 Y43.887 E1.28612
G1 X45.900 Y43.658 E1.31102
G1 X74.868 Y33.517 E2.51019
G1 X77.029 Y33.014 E2.59688
G1 X79.119 Y32.760 E2.67916
G1 X81.982 Y32.813 E2.79102
G1 X83.600 Y33.208 E2.85611
G1 X113.083 Y42.982 E4.06974
G1 X115.463 Y43.875 E4.16906
G1 X116.624 Y44.399 E4.21880
G1 X117.356 Y44.786 E4.25118
G1 X118.967 Y45.841 E4.32640
G1 X120.442 Y47.018 E4.40013
G1 X121.727 Y48.239 E4.46939
G1 X123.123 Y49.815 E4.55167
G1 X123.561 Y50.344 E4.57849
G1 X124.417 Y51.450 E4.63314
G1 X125.500 Y53.183 E4.71298
G1 X126.130 Y54.454 E4.76841
G1 X126.820 Y56.258 E4.84387
G1 X127.288 Y57.954 E4.91263
G1 X127.792 Y59.999 E4.99492
G1 X128.049 Y61.530 E5.05558
G1 X128.184 Y63.018 E5.11394
G1 X128.188 Y64.839 E5.18510
G1 X128.094 Y65.918 E5.22742
G1 X127.834 Y67.493 E5.28980
G1 X127.330 Y69.538 E5.37209
G1 X127.031 Y70.531 E5.41258
G1 X126.432 Y72.184 E5.48128
G1 X111.351 Y109.377 E7.04942
G1 X110.982 Y110.185 E7.08411
G1 X109.758 Y112.586 E7.18943
G1 X109.158 Y113.611 E7.23582
G1 X107.807 Y115.644 E7.33121
G1 X106.940 Y116.770 E7.38671
G1 X104.033 Y120.026 E7.55727
G1 X102.580 Y121.358 E7.63429
G1 X101.034 Y122.525 E7.70999
G1 X99.149 Y123.654 E7.79582
G1 X97.232 Y124.540 E7.87835
G1 X96.565 Y124.819 E7.90658
G1 X94.596 Y125.566 E7.98887
G1 X93.811 Y125.828 E8.02123
G1 X91.692 Y126.442 E8.10741
G1 X89.999 Y126.782 E8.17488
G1 X87.292 Y127.092 E8.28134
G1 X86.519 Y127.151 E8.31162
G1 X82.727 Y127.293 E8.45991
G1 X79.133 Y127.315 E8.60032
G1 X78.441 Y127.296 E8.62736
G1 X77.412 Y127.230 E8.66767
G1 X71.062 Y126.682 E8.91671
G1 X68.615 Y126.391 E9.01297
G1 X66.472 Y125.895 E9.09891
G1 X64.165 Y125.092 E9.19438
G1 X62.250 Y124.195 E9.27699
G1 X60.334 Y123.046 E9.36427
G1 X59.784 Y122.691 E9.38984
G1 X58.051 Y121.495 E9.47213
G1 X56.751 Y120.431 E9.53776
G1 X55.090 Y118.828 E9.62795
G1 X53.863 Y117.406 E9.70133
G1 X52.316 Y115.243 E9.80525
G1 X51.576 Y114.041 E9.86041
G1 X48.912 Y108.922 E10.08586
G1 X48.574 Y108.203 E10.11689
G1 X32.767 Y70.887 E11.70034
G1 X32.239 Y69.286 E11.76621
G1 X32.087 Y68.657 E11.79150
G1 X31.810 Y66.686 E11.86925
G1 X31.774 Y65.630 E11.91053
G1 X31.774 Y63.524 E11.99281
G1 X31.811 Y62.649 E12.02704
G1 X31.945 Y61.076 E12.08873
G1 X32.275 Y59.226 E12.16217
G1 X32.669 Y57.791 E12.22029
G1 X33.403 Y55.885 E12.30011
G1 X34.133 Y54.438 E12.36345
G1 X35.112 Y52.573 E12.44573
G1 X36.149 Y50.977 E12.52009
G1 X37.062 Y49.821 E12.57765
G1 X38.285 Y48.521 E12.64736
G1 X39.085 Y47.807 E12.68927
G1 E11.68927 F1800.00000
G92 E0
G1 X58.747 Y47.259 F7800.000
G1 E1.00000 F1800.00000
G1 X60.464 Y45.392 E1.09908 F1080.000
G1 X60.880 Y45.002 E1.12139
G1 X62.505 Y43.697 E1.20281
G1 X64.575 Y42.272 E1.30099
G1 X74.690 Y35.879 E1.76853
G1 X76.393 Y35.273 E1.83914
G1 X80.360 Y34.791 E1.99530
G1 X82.320 Y35.029 E2.07243
G1 X85.677 Y36.302 E2.21270
G1 X86.556 Y36.765 E2.25153
G1 X94.866 Y42.531 E2.64672
G1 X95.578 Y42.938 E2.67877
G1 X97.696 Y44.413 E2.77962
G1 X99.449 Y45.842 E2.86798
G1 X99.905 Y46.282 E2.89275
G1 X100.692 Y47.170 E2.93909
G1 X100.914 Y47.197 E2.94785
G1 X103.113 Y45.679 E3.05226
G1 X104.840 Y44.996 E3.12480
G1 X106.157 Y44.799 E3.17683
G1 X109.067 Y44.446 E3.29139
G1 X110.600 Y44.550 E3.35142
G1 X112.112 Y44.945 E3.41247
G1 X112.524 Y45.077 E3.42937
G1 X114.931 Y45.990 E3.52994
G1 X115.389 Y46.197 E3.54960
G1 X116.681 Y46.879 E3.60668
G1 X117.318 Y47.297 E3.63644
G1 X119.365 Y48.930 E3.73875
G1 X119.873 Y49.413 E3.76615
G1 X121.765 Y51.562 E3.87801
G1 X122.951 Y53.095 E3.95376
G1 X123.380 Y53.781 E3.98536
G1 X124.358 Y55.757 E4.07152
G1 X124.631 Y56.471 E4.10138
G1 X125.139 Y58.296 E4.17539
G1 X125.762 Y60.816 E4.27680
G1 X125.864 Y61.421 E4.30079
G1 X126.059 Y63.573 E4.38522
G1 X126.061 Y64.294 E4.41338
G1 X125.909 Y66.046 E4.48209
G1 X125.806 Y66.669 E4.50676
G1 X125.177 Y69.219 E4.60938
G1 X125.060 Y69.611 E4.62537
G1 X124.497 Y71.190 E4.69086
G1 X121.958 Y76.931 E4.93615
G1 X119.113 Y82.798 E5.19092
G1 X116.136 Y88.498 E5.44218
G1 X113.460 Y93.208 E5.65383
G1 X112.997 Y96.121 E5.76906
G1 X112.228 Y99.548 E5.90631
G1 X111.612 Y102.029 E6.00617
G1 X110.620 Y105.300 E6.13973
G1 X110.510 Y105.617 E6.15284
G1 X109.298 Y108.679 E6.28149
G1 X109.140 Y109.029 E6.29653
G1 X107.722 Y111.811 E6.41854
G1 X107.485 Y112.216 E6.43686
G1 X105.847 Y114.678 E6.55239
G1 X105.505 Y115.123 E6.57433
G1 X102.162 Y118.867 E6.77045
G1 X101.587 Y119.394 E6.80093
G1 X99.382 Y121.058 E6.90886
G1 X98.636 Y121.505 E6.94284
G1 X95.931 Y122.743 E7.05908
G1 X93.365 Y123.702 E7.16610
G1 X90.761 Y124.457 E7.27202
G1 X90.092 Y124.591 E7.29870
G1 X86.884 Y124.959 E7.42484
G1 X82.803 Y125.127 E7.58443
G1 X78.710 Y125.142 E7.74438
G1 X77.648 Y125.076 E7.78592
G1 X71.177 Y124.518 E8.03970
G1 X68.444 Y124.189 E8.14727
G1 X67.595 Y123.992 E8.18130
G1 X64.481 Y122.908 E8.31014
G1 X63.723 Y122.554 E8.34284
G1 X61.338 Y121.122 E8.45152
G1 X59.008 Y119.524 E8.56192
G1 X58.494 Y119.103 E8.58788
G1 X56.327 Y117.012 E8.70556
G1 X55.841 Y116.449 E8.73460
G1 X53.916 Y113.756 E8.86393
G1 X53.624 Y113.281 E8.88573
G1 X50.720 Y107.704 E9.13140
G1 X50.518 Y107.246 E9.15098
G1 X48.957 Y103.030 E9.32660
G1 X48.836 Y102.644 E9.34242
G1 X47.638 Y98.052 E9.52784
G1 X47.562 Y97.693 E9.54220
G1 X46.844 Y93.438 E9.71080
G1 X44.623 Y89.661 E9.88200
G1 X41.940 Y84.757 E10.10042
G1 X40.887 Y82.753 E10.18885
G1 X38.249 Y77.616 E10.41448
G1 X35.989 Y72.885 E10.61935
G1 X34.644 Y69.768 E10.75199
G1 X34.426 Y69.113 E10.77895
G1 X34.101 Y67.766 E10.83311
G1 X33.991 Y66.986 E10.86387
G1 X33.940 Y65.718 E10.91346
G1 X33.940 Y63.351 E11.00593
G1 X33.955 Y63.006 E11.01945
G1 X34.135 Y60.890 E11.10242
G1 X34.266 Y60.158 E11.13148
G1 X34.865 Y57.975 E11.21992
G1 X35.155 Y57.220 E11.25152
G1 X36.005 Y55.534 E11.32528
G1 X37.205 Y53.246 E11.42623
G1 X37.615 Y52.615 E11.45565
G1 X38.980 Y50.886 E11.54171
G1 X39.464 Y50.372 E11.56929
G1 X40.758 Y49.217 E11.63705
G1 X41.156 Y48.904 E11.65686
G1 X46.907 Y44.934 E11.92987
G1 X47.704 Y45.353 E11.96505
G1 X47.792 Y45.369 E11.96857
G1 X50.866 Y44.996 E12.08956
G1 X51.780 Y44.988 E12.12525
G1 X53.192 Y45.135 E12.18071
G1 X54.217 Y45.378 E12.22187
G1 X57.601 Y46.662 E12.36330
G1 X58.516 Y47.293 E12.40674
G1 X58.692 Y47.267 E12.41370
G1 X58.807 Y47.659 F7800.000
G1 X59.055 Y47.346 E12.42933 F1080.000
G1 X60.674 Y45.601 E12.52231
G1 X61.075 Y45.225 E12.54381
G1 X62.678 Y43.937 E12.62414
G1 X64.735 Y42.521 E12.72174
G1 X74.820 Y36.147 E13.18788
G1 X76.461 Y35.562 E13.25593
G1 X80.360 Y35.089 E13.40940
G1 X82.249 Y35.318 E13.48373
G1 X85.555 Y36.572 E13.62189
G1 X86.402 Y37.018 E13.65931
G1 X94.713 Y42.785 E14.05457
G1 X95.417 Y43.187 E14.08622
G1 X97.523 Y44.652 E14.18644
G1 X99.252 Y46.062 E14.27364
G1 X99.692 Y46.487 E14.29751
G1 X100.644 Y47.562 E14.35363
G1 X100.867 Y47.589 E14.36239
G1 X103.254 Y45.941 E14.47571
G1 X104.917 Y45.283 E14.54562
G1 X106.195 Y45.092 E14.59608
G1 X109.075 Y44.743 E14.70947
G1 X110.553 Y44.843 E14.76732
G1 X112.029 Y45.229 E14.82696
G1 X112.426 Y45.356 E14.84325
G1 X114.817 Y46.263 E14.94315
G1 X115.259 Y46.462 E14.96210
G1 X116.530 Y47.134 E15.01828
G1 X117.144 Y47.536 E15.04696
G1 X119.170 Y49.153 E15.14823
G1 X119.660 Y49.618 E15.17463
G1 X121.534 Y51.746 E15.28542
G1 X122.708 Y53.265 E15.36040
G1 X123.121 Y53.925 E15.39085
G1 X124.087 Y55.876 E15.47589
G1 X124.350 Y56.564 E15.50467
G1 X124.854 Y58.373 E15.57805
G1 X125.472 Y60.875 E15.67876
G1 X125.570 Y61.459 E15.70188
G1 X125.764 Y63.587 E15.78536
G1 X125.765 Y64.281 E15.81249
G1 X125.616 Y66.009 E15.88025
G1 X125.516 Y66.609 E15.90402
G1 X124.892 Y69.141 E16.00590
G1 X124.779 Y69.518 E16.02131
G1 X124.220 Y71.085 E16.08630
G1 X121.689 Y76.809 E16.33083
G1 X118.848 Y82.667 E16.58522
G1 X115.875 Y88.359 E16.83612
G1 X113.176 Y93.110 E17.04960
G1 X112.707 Y96.061 E17.16636
G1 X111.940 Y99.482 E17.30336
G1 X111.328 Y101.947 E17.40258
G1 X110.339 Y105.209 E17.53575
G1 X109.026 Y108.563 E17.67651
G1 X108.873 Y108.901 E17.69101
G1 X107.462 Y111.669 E17.81240
G1 X107.234 Y112.060 E17.83006
G1 X105.607 Y114.506 E17.94485
G1 X105.277 Y114.935 E17.96599
G1 X101.951 Y118.659 E18.16108
G1 X101.397 Y119.167 E18.19045
G1 X99.216 Y120.813 E18.29721
G1 X98.497 Y121.244 E18.32995
G1 X95.821 Y122.469 E18.44496
G1 X93.277 Y123.420 E18.55109
G1 X90.691 Y124.169 E18.65628
G1 X90.046 Y124.299 E18.68200
G1 X86.857 Y124.664 E18.80742
G1 X82.798 Y124.831 E18.96612
G1 X78.723 Y124.847 E19.12536
G1 X77.672 Y124.782 E19.16649
G1 X71.205 Y124.224 E19.42010
G1 X68.495 Y123.897 E19.52675
G1 X67.678 Y123.708 E19.55954
G1 X64.593 Y122.634 E19.68717
G1 X63.862 Y122.292 E19.71868
G1 X61.494 Y120.871 E19.82658
G1 X59.186 Y119.287 E19.93596
G1 X58.691 Y118.882 E19.96098
G1 X56.542 Y116.808 E20.07766
G1 X56.074 Y116.266 E20.10564
G1 X54.163 Y113.592 E20.23405
G1 X53.881 Y113.135 E20.25506
G1 X50.987 Y107.576 E20.49991
G1 X50.792 Y107.134 E20.51877
G1 X49.237 Y102.934 E20.69376
G1 X49.120 Y102.562 E20.70900
G1 X47.926 Y97.984 E20.89387
G1 X47.852 Y97.638 E20.90770
G1 X47.127 Y93.335 E21.07819
G1 X44.881 Y89.517 E21.25127
G1 X42.199 Y84.616 E21.46954
G1 X41.150 Y82.617 E21.55775
G1 X38.514 Y77.487 E21.78310
G1 X36.257 Y72.760 E21.98777
G1 X34.920 Y69.663 E22.11959
G1 X34.710 Y69.032 E22.14557
G1 X34.391 Y67.711 E22.19867
G1 X34.286 Y66.959 E22.22832
G1 X34.235 Y65.715 E22.27697
G1 X34.250 Y63.025 E22.38209
G1 X34.428 Y60.928 E22.46429
G1 X34.554 Y60.223 E22.49229
G1 X35.146 Y58.067 E22.57963
G1 X35.426 Y57.340 E22.61007
G1 X36.268 Y55.668 E22.68321
G1 X37.460 Y53.396 E22.78349
G1 X37.856 Y52.787 E22.81184
G1 X39.204 Y51.079 E22.89686
G1 X39.670 Y50.584 E22.92343
G1 X40.948 Y49.444 E22.99034
G1 X41.332 Y49.142 E23.00943
G1 X46.928 Y45.279 E23.27510
G1 X47.660 Y45.664 E23.30743
G1 X47.771 Y45.676 E23.31177
G1 X50.886 Y45.291 E23.43440
G1 X51.766 Y45.284 E23.46880
G1 X53.142 Y45.427 E23.52286
G1 X54.130 Y45.661 E23.56252
G1 X57.463 Y46.926 E23.70180
G1 X58.576 Y47.694 E23.75466
G1 X58.752 Y47.668 E23.76162
G1 X58.867 Y48.060 F7800.000
G1 X59.280 Y47.538 E23.78762 F1080.000
G1 X60.883 Y45.809 E23.87974
G1 X61.270 Y45.448 E23.90042
G1 X62.851 Y44.177 E23.97968
G1 X64.896 Y42.769 E24.07669
G1 X74.951 Y36.414 E24.54144
G1 X76.529 Y35.852 E24.60691
G1 X80.360 Y35.387 E24.75770
G1 X82.177 Y35.607 E24.82922
G1 X85.433 Y36.842 E24.96528
G1 X86.249 Y37.271 E25.00128
G1 X94.561 Y43.040 E25.39661
G1 X95.256 Y43.435 E25.42786
G1 X97.349 Y44.891 E25.52746
G1 X99.055 Y46.283 E25.61349
G1 X99.478 Y46.691 E25.63646
G1 X100.596 Y47.954 E25.70237
G1 X100.819 Y47.981 E25.71113
G1 X103.394 Y46.204 E25.83337
G1 X104.995 Y45.570 E25.90063
G1 X106.232 Y45.386 E25.94953
G1 X109.083 Y45.039 E26.06174
G1 X110.505 Y45.136 E26.11741
G1 X111.947 Y45.513 E26.17565
G1 X112.329 Y45.635 E26.19133
G1 X114.704 Y46.536 E26.29057
G1 X115.129 Y46.728 E26.30880
G1 X116.380 Y47.389 E26.36408
G1 X116.971 Y47.776 E26.39168
G1 X118.976 Y49.376 E26.49191
G1 X119.448 Y49.824 E26.51732
G1 X121.143 Y51.738 E26.61721
G1 X122.465 Y53.434 E26.70124
G1 X122.863 Y54.070 E26.73054
G1 X123.815 Y55.995 E26.81447
G1 X124.069 Y56.656 E26.84215
G1 X124.568 Y58.450 E26.91491
G1 X125.183 Y60.935 E27.01493
G1 X125.277 Y61.497 E27.03717
G1 X125.468 Y63.600 E27.11970
G1 X125.470 Y64.269 E27.14581
G1 X125.322 Y65.972 E27.21261
G1 X125.226 Y66.549 E27.23548
G1 X124.607 Y69.063 E27.33662
G1 X124.498 Y69.426 E27.35145
G1 X123.944 Y70.981 E27.41593
G1 X121.419 Y76.686 E27.65970
G1 X118.583 Y82.536 E27.91372
G1 X115.614 Y88.220 E28.16426
G1 X112.892 Y93.011 E28.37957
G1 X112.417 Y96.001 E28.49787
G1 X111.652 Y99.416 E28.63460
G1 X111.044 Y101.865 E28.73318
G1 X110.058 Y105.117 E28.86596
G1 X108.754 Y108.448 E29.00574
G1 X108.607 Y108.773 E29.01969
G1 X107.203 Y111.527 E29.14047
G1 X106.983 Y111.903 E29.15747
G1 X105.366 Y114.334 E29.27153
G1 X105.049 Y114.746 E29.29187
G1 X101.741 Y118.451 E29.48591
G1 X101.208 Y118.940 E29.51418
G1 X99.051 Y120.567 E29.61976
G1 X98.359 Y120.982 E29.65127
G1 X95.711 Y122.194 E29.76505
G1 X93.189 Y123.138 E29.87028
G1 X90.621 Y123.882 E29.97476
G1 X90.000 Y124.007 E29.99950
G1 X86.829 Y124.370 E30.12421
G1 X82.793 Y124.535 E30.28203
G1 X78.736 Y124.552 E30.44055
G1 X77.696 Y124.487 E30.48127
G1 X71.233 Y123.929 E30.73471
G1 X68.547 Y123.606 E30.84044
G1 X67.760 Y123.423 E30.87200
G1 X64.704 Y122.360 E30.99841
G1 X64.001 Y122.031 E31.02873
G1 X61.651 Y120.620 E31.13585
G1 X59.364 Y119.051 E31.24421
G1 X58.887 Y118.661 E31.26828
G1 X56.757 Y116.605 E31.38396
G1 X56.306 Y116.083 E31.41088
G1 X54.409 Y113.429 E31.53837
G1 X54.138 Y112.988 E31.55859
G1 X51.254 Y107.448 E31.80263
G1 X51.066 Y107.023 E31.82078
G1 X49.517 Y102.839 E31.99512
G1 X49.404 Y102.481 E32.00978
G1 X48.214 Y97.916 E32.19411
G1 X48.143 Y97.583 E32.20742
G1 X47.409 Y93.232 E32.37979
G1 X45.139 Y89.373 E32.55474
G1 X42.459 Y84.475 E32.77287
G1 X41.413 Y82.482 E32.86086
G1 X38.780 Y77.358 E33.08594
G1 X36.525 Y72.635 E33.29041
G1 X35.197 Y69.557 E33.42139
G1 X34.995 Y68.950 E33.44639
G1 X34.682 Y67.655 E33.49845
G1 X34.580 Y66.932 E33.52697
G1 X34.531 Y65.712 E33.57469
G1 X34.545 Y63.043 E33.67895
G1 X34.722 Y60.967 E33.76038
G1 X34.843 Y60.288 E33.78732
G1 X35.427 Y58.160 E33.87356
G1 X35.697 Y57.460 E33.90285
G1 X36.532 Y55.803 E33.97537
G1 X37.716 Y53.545 E34.07497
G1 X38.096 Y52.960 E34.10225
G1 X39.428 Y51.273 E34.18623
G1 X39.877 Y50.796 E34.21180
G1 X41.138 Y49.670 E34.27785
G1 X41.507 Y49.380 E34.29621
G1 X46.948 Y45.624 E34.55454
G1 X47.625 Y45.979 E34.58439
G1 X47.735 Y45.991 E34.58873
G1 X47.873 Y45.955 E34.59430
G1 X50.905 Y45.587 E34.71362
G1 X51.752 Y45.580 E34.74672
G1 X53.092 Y45.719 E34.79939
G1 X54.043 Y45.945 E34.83755
G1 X57.324 Y47.189 E34.97468
G1 X58.636 Y48.095 E35.03696
G1 X58.812 Y48.068 E35.04392
G1 X58.960 Y48.463 F7800.000
G1 X59.152 Y48.177 E35.05741 F1080.000
G1 X59.505 Y47.731 E35.07963
G1 X61.093 Y46.018 E35.17089
G1 X61.464 Y45.670 E35.19076
G1 X63.023 Y44.417 E35.26893
G1 X65.056 Y43.017 E35.36537
G1 X75.081 Y36.682 E35.82871
G1 X76.597 Y36.141 E35.89162
G1 X80.360 Y35.684 E36.03972
G1 X82.106 Y35.896 E36.10844
G1 X85.312 Y37.112 E36.24238
G1 X86.095 Y37.524 E36.27697
G1 X94.408 Y43.294 E36.67235
G1 X95.096 Y43.684 E36.70323
G1 X97.175 Y45.130 E36.80219
G1 X98.858 Y46.504 E36.88707
G1 X99.264 Y46.896 E36.90914
G1 X100.549 Y48.346 E36.98483
G1 X100.771 Y48.373 E36.99359
G1 X103.534 Y46.466 E37.12474
G1 X105.072 Y45.858 E37.18937
G1 X106.270 Y45.679 E37.23670
G1 X109.091 Y45.336 E37.34774
G1 X110.457 Y45.429 E37.40122
G1 X111.864 Y45.797 E37.45807
G1 X112.231 Y45.914 E37.47313
G1 X114.590 Y46.809 E37.57170
G1 X114.999 Y46.994 E37.58921
G1 X116.230 Y47.644 E37.64360
G1 X116.797 Y48.016 E37.67012
G1 X118.782 Y49.599 E37.76931
G1 X119.235 Y50.029 E37.79372
G1 X120.918 Y51.930 E37.89292
G1 X122.222 Y53.603 E37.97580
G1 X122.604 Y54.214 E38.00395
G1 X123.544 Y56.113 E38.08676
G1 X123.788 Y56.749 E38.11336
G1 X124.283 Y58.527 E38.18549
G1 X124.893 Y60.995 E38.28481
G1 X124.983 Y61.535 E38.30618
G1 X125.173 Y63.614 E38.38777
G1 X125.174 Y64.256 E38.41285
G1 X125.028 Y65.935 E38.47869
G1 X124.937 Y66.490 E38.50066
G1 X124.322 Y68.985 E38.60107
G1 X124.217 Y69.334 E38.61531
G1 X123.667 Y70.876 E38.67928
G1 X121.150 Y76.564 E38.92230
G1 X118.318 Y82.405 E39.17594
G1 X115.353 Y88.080 E39.42612
G1 X112.608 Y92.912 E39.64325
G1 X112.128 Y95.942 E39.76310
G1 X111.364 Y99.350 E39.89956
G1 X110.760 Y101.783 E39.99751
G1 X109.777 Y105.025 E40.12990
G1 X108.481 Y108.333 E40.26869
