; generated by Slic3r 1.2.9 on 2018-09-30 at 09:21:35

; external perimeters extrusion width = 0.37mm
; perimeters extrusion width = 0.48mm
; infill extrusion width = 0.48mm
; solid infill extrusion width = 0.48mm
; top infill extrusion width = 0.48mm
; support material extrusion width = 0.37mm

M107
M190 S80 ; set bed temperature
M104 S230 ; set temperature
G28 ; home all axes
G1 Z5 F5000 ; lift nozzle
M109 S230 ; wait for temperature to be reached
G21 ; set units to millimeters
G90 ; use absolute coordinates
M82 ; use absolute distances for extrusion
G92 E0
G1 E-1.00000 F1800.00000
G92 E0
G1 Z0.300 F7800.000
G1 X42.218 Y50.002 F7800.000
G1 E1.00000 F1800.00000
G1 X43.227 Y49.209 E1.05012 F1080.000
G1 X45.725 Y47.505 E1.16825
G1 X47.436 Y46.585 E1.24419
G1 X48.096 Y46.307 E1.27217
G1 X48.691 Y46.078 E1.29707
G1 X75.025 Y36.859 E2.38723
G1 X77.186 Y36.356 E2.47391
G1 X79.086 Y36.125 E2.54871
G1 X81.949 Y36.179 E2.66057
G1 X83.567 Y36.573 E2.72566
G1 X110.370 Y45.459 E3.82897
G1 X112.571 Y46.284 E3.92080
G1 X113.732 Y46.808 E3.97055
G1 X114.398 Y47.160 E3.99998
G1 X116.008 Y48.215 E4.07520
G1 X117.349 Y49.285 E4.14223
G1 X118.634 Y50.506 E4.21149
G1 X119.904 Y51.939 E4.28629
G1 X120.341 Y52.467 E4.31310
G1 X121.119 Y53.473 E4.36279
G1 X122.203 Y55.206 E4.44263
G1 X122.775 Y56.362 E4.49303
G1 X123.465 Y58.165 E4.56848
G1 X123.898 Y59.735 E4.63209
G1 X124.356 Y61.594 E4.70690
G1 X124.613 Y63.125 E4.76755
G1 X124.736 Y64.477 E4.82060
G1 X124.740 Y66.298 E4.89176
G1 X124.655 Y67.279 E4.93024
G1 X124.394 Y68.855 E4.99263
G1 X123.936 Y70.713 E5.06744
G1 X123.637 Y71.706 E5.10791
G1 X123.078 Y73.246 E5.17195
G1 X109.368 Y107.058 E6.59752
G1 X108.999 Y107.866 E6.63222
G1 X107.886 Y110.049 E6.72796
G1 X107.287 Y111.074 E6.77435
G1 X106.058 Y112.922 E6.86106
G1 X105.192 Y114.048 E6.91657
G1 X102.544 Y117.013 E7.07190
G1 X101.091 Y118.346 E7.14892
G1 X99.685 Y119.407 E7.21774
G1 X97.801 Y120.535 E7.30358
G1 X96.058 Y121.340 E7.37860
G1 X95.391 Y121.620 E7.40682
G1 X93.601 Y122.299 E7.48163
G1 X92.816 Y122.561 E7.51400
G1 X90.890 Y123.119 E7.59234
G1 X89.197 Y123.459 E7.65981
G1 X86.736 Y123.741 E7.75660
G1 X85.963 Y123.800 E7.78687
G1 X82.485 Y123.930 E7.92288
G1 X79.218 Y123.950 E8.05053
G1 X78.526 Y123.931 E8.07756
G1 X77.567 Y123.869 E8.11512
G1 X71.794 Y123.371 E8.34152
G1 X69.537 Y123.103 E8.43030
G1 X67.395 Y122.606 E8.51624
G1 X65.297 Y121.876 E8.60303
G1 X63.381 Y120.980 E8.68565
G1 X61.640 Y119.935 E8.76499
G1 X61.090 Y119.581 E8.79056
G1 X59.515 Y118.493 E8.86536
G1 X58.214 Y117.429 E8.93101
G1 X56.704 Y115.972 E9.01299
G1 X55.478 Y114.550 E9.08638
G1 X54.071 Y112.583 E9.18085
G1 X53.331 Y111.381 E9.23600
G1 X50.907 Y106.723 E9.44116
G1 X50.569 Y106.005 E9.47219
G1 X36.199 Y72.081 E10.91169
G1 X35.671 Y70.479 E10.97756
G1 X35.533 Y69.907 E11.00055
G1 X35.256 Y67.937 E11.07830
G1 X35.222 Y66.937 E11.11740
G1 X35.222 Y65.022 E11.19221
G1 X35.259 Y64.147 E11.22644
G1 X35.381 Y62.717 E11.28251
G1 X35.711 Y60.866 E11.35596
G1 X36.069 Y59.562 E11.40879
G1 X36.803 Y57.656 E11.48862
G1 X37.474 Y56.327 E11.54680
G1 X38.364 Y54.631 E11.62160
G1 X39.401 Y53.035 E11.69597
G1 X40.231 Y51.984 E11.74829
G1 X41.453 Y50.685 E11.81801
G1 X42.177 Y50.039 E11.85591
G1 E10.85591 F1800.00000
G92 E0
G1 X60.564 Y49.259 F7800.000
G1 E1.00000 F1800.00000
G1 X61.716 Y48.017 E1.06618 F1080.000
G1 X62.132 Y47.627 E1.08849
G1 X63.664 Y46.397 E1.16522
G1 X65.576 Y45.081 E1.25591
G1 X74.848 Y39.222 E1.68446
G1 X76.550 Y38.615 E1.75507
G1 X80.327 Y38.156 E1.90375
G1 X82.287 Y38.394 E1.98088
G1 X85.465 Y39.599 E2.11367
G1 X86.344 Y40.062 E2.15250
G1 X93.894 Y45.301 E2.51153
G1 X94.563 Y45.687 E2.54171
G1 X96.522 Y47.050 E2.63497
G1 X98.174 Y48.395 E2.71820
G1 X98.630 Y48.836 E2.74297
G1 X98.921 Y49.164 E2.76010
G1 X99.143 Y49.191 E2.76886
G1 X100.662 Y48.143 E2.84097
G1 X102.388 Y47.460 E2.91351
G1 X103.685 Y47.266 E2.96472
G1 X106.405 Y46.936 E3.07180
G1 X107.938 Y47.040 E3.13184
G1 X109.399 Y47.422 E3.19082
G1 X109.811 Y47.554 E3.20773
G1 X112.039 Y48.398 E3.30082
G1 X112.497 Y48.606 E3.32048
G1 X113.722 Y49.253 E3.37462
G1 X114.359 Y49.670 E3.40438
G1 X116.272 Y51.197 E3.49999
G1 X116.780 Y51.679 E3.52738
G1 X118.545 Y53.685 E3.63176
G1 X119.653 Y55.118 E3.70254
G1 X120.082 Y55.804 E3.73414
G1 X121.003 Y57.665 E3.81526
G1 X121.276 Y58.378 E3.84512
G1 X121.749 Y60.076 E3.91398
G1 X122.326 Y62.410 E4.00792
G1 X122.428 Y63.015 E4.03190
G1 X122.611 Y65.031 E4.11100
G1 X122.613 Y65.752 E4.13916
G1 X122.469 Y67.407 E4.20405
G1 X122.366 Y68.030 E4.22872
G1 X121.783 Y70.394 E4.32385
G1 X121.666 Y70.786 E4.33985
G1 X121.143 Y72.252 E4.40066
G1 X118.816 Y77.516 E4.62553
G1 X116.219 Y82.871 E4.85809
G1 X113.503 Y88.074 E5.08740
G1 X111.130 Y92.252 E5.27514
G1 X110.721 Y94.804 E5.37615
G1 X109.999 Y98.020 E5.50493
G1 X109.448 Y100.231 E5.59395
G1 X108.540 Y103.229 E5.71635
G1 X107.316 Y106.360 E5.84768
G1 X107.157 Y106.711 E5.86272
G1 X105.850 Y109.274 E5.97515
G1 X105.613 Y109.679 E5.99348
G1 X104.099 Y111.956 E6.10033
G1 X103.756 Y112.401 E6.12227
G1 X100.673 Y115.854 E6.30317
G1 X100.098 Y116.382 E6.33364
G1 X98.033 Y117.940 E6.43470
G1 X97.287 Y118.386 E6.46868
G1 X94.757 Y119.544 E6.57741
G1 X92.370 Y120.435 E6.67696
G1 X89.959 Y121.134 E6.77504
G1 X89.289 Y121.268 E6.80172
G1 X86.328 Y121.607 E6.91818
G1 X82.561 Y121.763 E7.06549
G1 X78.794 Y121.777 E7.21267
G1 X77.803 Y121.715 E7.25145
G1 X71.909 Y121.207 E7.48260
G1 X69.366 Y120.900 E7.58269
G1 X68.518 Y120.704 E7.61672
G1 X65.613 Y119.693 E7.73688
G1 X64.855 Y119.338 E7.76958
G1 X62.644 Y118.011 E7.87032
G1 X60.472 Y116.522 E7.97325
G1 X59.958 Y116.101 E7.99921
G1 X57.941 Y114.155 E8.10869
G1 X57.456 Y113.593 E8.13772
G1 X55.671 Y111.096 E8.25761
G1 X55.379 Y110.621 E8.27941
G1 X52.715 Y105.505 E8.50479
G1 X52.513 Y105.047 E8.52436
G1 X51.080 Y101.176 E8.68563
G1 X50.958 Y100.790 E8.70145
G1 X49.861 Y96.581 E8.87138
G1 X49.784 Y96.222 E8.88574
G1 X49.151 Y92.470 E9.03439
G1 X47.193 Y89.142 E9.18525
G1 X44.750 Y84.676 E9.38416
G1 X43.786 Y82.842 E9.46511
G1 X41.380 Y78.156 E9.67093
G1 X39.320 Y73.844 E9.85766
G1 X38.076 Y70.961 E9.98032
G1 X37.858 Y70.307 E10.00728
G1 X37.546 Y69.017 E10.05914
G1 X37.437 Y68.237 E10.08991
G1 X37.388 Y67.024 E10.13732
G1 X37.388 Y64.849 E10.22231
G1 X37.403 Y64.504 E10.23583
G1 X37.571 Y62.531 E10.31319
G1 X37.702 Y61.799 E10.34225
G1 X38.265 Y59.746 E10.42541
G1 X38.556 Y58.991 E10.45700
G1 X39.377 Y57.363 E10.52825
G1 X40.457 Y55.305 E10.61909
G1 X40.867 Y54.673 E10.64851
G1 X42.149 Y53.050 E10.72933
G1 X42.633 Y52.536 E10.75691
G1 X43.850 Y51.449 E10.82067
G1 X44.249 Y51.136 E10.84048
G1 X46.060 Y49.885 E10.92649
G1 X47.245 Y49.095 E10.98215
G1 X47.923 Y48.731 E11.01219
G1 X49.458 Y48.084 E11.07730
G1 X50.552 Y47.793 E11.12149
G1 X53.467 Y47.439 E11.23624
G1 X54.381 Y47.432 E11.27194
G1 X55.753 Y47.574 E11.32585
G1 X56.778 Y47.818 E11.36701
G1 X59.983 Y49.033 E11.50096
G1 X60.345 Y49.283 E11.51812
G1 X60.509 Y49.265 E11.52456
G1 X60.607 Y49.647 F7800.000
G1 X61.925 Y48.225 E11.60034 F1080.000
G1 X62.327 Y47.849 E11.62183
G1 X63.837 Y46.637 E11.69748
G1 X65.737 Y45.330 E11.78759
G1 X74.978 Y39.489 E12.21474
G1 X76.618 Y38.905 E12.28278
G1 X80.327 Y38.454 E12.42877
G1 X82.216 Y38.684 E12.50310
G1 X85.343 Y39.869 E12.63378
G1 X86.191 Y40.316 E12.67120
G1 X93.742 Y45.556 E13.03031
G1 X94.402 Y45.935 E13.06008
G1 X96.348 Y47.289 E13.15271
G1 X97.977 Y48.616 E13.23478
G1 X98.416 Y49.040 E13.25865
G1 X98.873 Y49.556 E13.28557
G1 X99.096 Y49.583 E13.29433
G1 X100.802 Y48.405 E13.37535
G1 X102.466 Y47.747 E13.44525
G1 X103.722 Y47.559 E13.49489
G1 X106.413 Y47.233 E13.60081
G1 X107.890 Y47.333 E13.65865
G1 X109.316 Y47.706 E13.71624
G1 X109.713 Y47.833 E13.73253
G1 X111.925 Y48.672 E13.82496
G1 X112.367 Y48.871 E13.84390
G1 X113.572 Y49.508 E13.89714
G1 X114.186 Y49.910 E13.92583
G1 X116.078 Y51.420 E14.02039
G1 X116.568 Y51.885 E14.04679
G1 X118.314 Y53.870 E14.15009
G1 X119.410 Y55.287 E14.22011
G1 X119.824 Y55.948 E14.25056
G1 X120.732 Y57.783 E14.33056
G1 X120.995 Y58.471 E14.35933
G1 X121.464 Y60.153 E14.42756
G1 X122.036 Y62.470 E14.52081
G1 X122.134 Y63.053 E14.54392
G1 X122.316 Y65.045 E14.62207
G1 X122.317 Y65.740 E14.64920
G1 X122.176 Y67.370 E14.71314
G1 X122.076 Y67.970 E14.73691
G1 X121.498 Y70.316 E14.83130
G1 X121.385 Y70.693 E14.84671
G1 X120.867 Y72.147 E14.90702
G1 X118.547 Y77.393 E15.13114
G1 X115.954 Y82.740 E15.36331
G1 X113.242 Y87.934 E15.59227
G1 X110.846 Y92.153 E15.78183
G1 X110.431 Y94.745 E15.88438
G1 X109.712 Y97.951 E16.01278
G1 X109.164 Y100.149 E16.10128
G1 X108.258 Y103.138 E16.22329
G1 X107.043 Y106.244 E16.35364
G1 X106.891 Y106.582 E16.36813
G1 X105.591 Y109.132 E16.47995
G1 X105.362 Y109.522 E16.49761
G1 X103.858 Y111.784 E16.60373
G1 X103.528 Y112.213 E16.62487
G1 X100.462 Y115.646 E16.80473
G1 X99.908 Y116.154 E16.83410
G1 X97.868 Y117.694 E16.93398
G1 X97.149 Y118.125 E16.96673
G1 X94.647 Y119.270 E17.07423
G1 X92.282 Y120.153 E17.17288
G1 X89.888 Y120.846 E17.27024
G1 X89.243 Y120.976 E17.29595
G1 X86.300 Y121.313 E17.41169
G1 X82.556 Y121.468 E17.55811
G1 X78.807 Y121.482 E17.70458
G1 X77.827 Y121.420 E17.74296
G1 X71.937 Y120.912 E17.97393
G1 X69.417 Y120.609 E18.07311
G1 X68.600 Y120.419 E18.10590
G1 X65.725 Y119.419 E18.22484
G1 X64.994 Y119.077 E18.25636
G1 X62.801 Y117.760 E18.35632
G1 X60.650 Y116.285 E18.45822
G1 X60.154 Y115.880 E18.48324
G1 X58.156 Y113.952 E18.59172
G1 X57.688 Y113.410 E18.61970
G1 X55.918 Y110.933 E18.73866
G1 X55.636 Y110.475 E18.75967
G1 X52.982 Y105.377 E18.98423
G1 X52.787 Y104.935 E19.00309
G1 X51.359 Y101.080 E19.16372
G1 X51.242 Y100.708 E19.17896
G1 X50.148 Y96.513 E19.34835
G1 X50.075 Y96.167 E19.36218
G1 X49.433 Y92.368 E19.51272
G1 X47.452 Y88.998 E19.66545
G1 X45.010 Y84.536 E19.86422
G1 X44.049 Y82.706 E19.94495
G1 X41.645 Y78.027 E20.15048
G1 X39.588 Y73.719 E20.33702
G1 X38.352 Y70.856 E20.45885
G1 X38.142 Y70.225 E20.48483
G1 X37.837 Y68.961 E20.53564
G1 X37.731 Y68.210 E20.56529
G1 X37.684 Y67.021 E20.61176
G1 X37.698 Y64.522 E20.70940
G1 X37.865 Y62.569 E20.78599
G1 X37.990 Y61.864 E20.81399
G1 X38.546 Y59.839 E20.89605
G1 X38.826 Y59.111 E20.92650
G1 X39.639 Y57.499 E20.99703
G1 X40.712 Y55.454 E21.08728
G1 X41.108 Y54.846 E21.11563
G1 X42.373 Y53.243 E21.19542
G1 X42.839 Y52.748 E21.22199
G1 X44.040 Y51.676 E21.28489
G1 X44.424 Y51.374 E21.30398
G1 X46.227 Y50.129 E21.38959
G1 X47.398 Y49.349 E21.44455
G1 X48.050 Y48.998 E21.47351
G1 X49.554 Y48.364 E21.53726
G1 X50.608 Y48.084 E21.57985
G1 X53.486 Y47.735 E21.69315
G1 X54.367 Y47.727 E21.72754
G1 X55.703 Y47.866 E21.78006
G1 X56.691 Y48.101 E21.81972
G1 X59.845 Y49.297 E21.95152
G1 X60.388 Y49.672 E21.97727
G1 X60.551 Y49.654 E21.98372
G1 X60.649 Y50.036 F7800.000
G1 X62.135 Y48.434 E22.06909 F1080.000
G1 X62.521 Y48.072 E22.08977
G1 X64.009 Y46.877 E22.16433
G1 X65.897 Y45.578 E22.25387
G1 X75.108 Y39.757 E22.67961
G1 X76.687 Y39.194 E22.74509
G1 X80.327 Y38.752 E22.88839
G1 X82.145 Y38.973 E22.95992
G1 X85.221 Y40.139 E23.08849
G1 X86.037 Y40.569 E23.12450
G1 X93.589 Y45.810 E23.48368
G1 X94.242 Y46.183 E23.51306
G1 X96.174 Y47.528 E23.60506
G1 X97.780 Y48.837 E23.68596
G1 X98.202 Y49.245 E23.70893
G1 X98.825 Y49.948 E23.74563
G1 X99.048 Y49.975 E23.75439
G1 X100.942 Y48.668 E23.84432
G1 X102.543 Y48.034 E23.91159
G1 X103.760 Y47.853 E23.95967
G1 X106.421 Y47.529 E24.06441
G1 X107.842 Y47.626 E24.12007
G1 X109.234 Y47.990 E24.17626
G1 X109.616 Y48.112 E24.19194
G1 X111.812 Y48.945 E24.28370
G1 X112.237 Y49.137 E24.30192
G1 X113.421 Y49.763 E24.35427
G1 X114.012 Y50.150 E24.38187
G1 X115.883 Y51.643 E24.47540
G1 X116.355 Y52.091 E24.50080
G1 X118.083 Y54.055 E24.60302
G1 X119.168 Y55.457 E24.67227
G1 X119.565 Y56.092 E24.70158
G1 X120.461 Y57.902 E24.78046
G1 X120.714 Y58.564 E24.80815
G1 X121.178 Y60.230 E24.87575
G1 X121.747 Y62.530 E24.96830
G1 X121.841 Y63.091 E24.99053
G1 X122.020 Y65.059 E25.06774
G1 X122.021 Y65.727 E25.09385
G1 X121.882 Y67.333 E25.15682
G1 X121.787 Y67.911 E25.17970
G1 X121.213 Y70.238 E25.27335
G1 X121.104 Y70.601 E25.28818
G1 X120.590 Y72.043 E25.34797
G1 X118.278 Y77.271 E25.57134
G1 X115.689 Y82.609 E25.80314
G1 X112.981 Y87.795 E26.03173
G1 X110.562 Y92.055 E26.22313
G1 X110.142 Y94.685 E26.32721
G1 X109.442 Y97.804 E26.45211
G1 X108.880 Y100.067 E26.54321
G1 X107.977 Y103.046 E26.66483
G1 X106.771 Y106.129 E26.79419
G1 X106.624 Y106.454 E26.80813
G1 X105.331 Y108.990 E26.91935
G1 X105.112 Y109.366 E26.93634
G1 X103.618 Y111.612 E27.04173
G1 X103.300 Y112.024 E27.06207
G1 X100.252 Y115.438 E27.24089
G1 X99.719 Y115.927 E27.26915
G1 X97.703 Y117.449 E27.36786
G1 X97.011 Y117.863 E27.39937
G1 X94.537 Y118.995 E27.50565
G1 X92.194 Y119.871 E27.60339
G1 X89.818 Y120.559 E27.70004
G1 X89.197 Y120.684 E27.72478
G1 X86.272 Y121.019 E27.83981
G1 X82.551 Y121.172 E27.98534
G1 X78.820 Y121.186 E28.13110
G1 X77.850 Y121.126 E28.16907
G1 X71.965 Y120.618 E28.39987
G1 X69.469 Y120.317 E28.49812
G1 X68.682 Y120.135 E28.52967
G1 X65.836 Y119.145 E28.64740
G1 X65.133 Y118.816 E28.67773
G1 X62.957 Y117.509 E28.77691
G1 X60.828 Y116.049 E28.87780
G1 X60.351 Y115.659 E28.90187
G1 X58.371 Y113.749 E29.00935
G1 X57.921 Y113.227 E29.03627
G1 X56.164 Y110.769 E29.15431
G1 X55.893 Y110.329 E29.17453
G1 X53.249 Y105.249 E29.39827
G1 X53.061 Y104.824 E29.41642
G1 X51.639 Y100.984 E29.57640
G1 X51.527 Y100.626 E29.59107
G1 X50.436 Y96.445 E29.75991
G1 X50.365 Y96.112 E29.77322
G1 X49.716 Y92.265 E29.92564
G1 X47.710 Y88.854 E30.08025
G1 X45.270 Y84.395 E30.27888
G1 X44.312 Y82.571 E30.35938
G1 X41.911 Y77.898 E30.56464
G1 X39.856 Y73.594 E30.75098
G1 X38.629 Y70.751 E30.87198
G1 X38.427 Y70.144 E30.89698
G1 X38.128 Y68.906 E30.94674
G1 X38.026 Y68.183 E30.97527
G1 X37.979 Y67.018 E31.02081
G1 X37.993 Y64.541 E31.11759
G1 X38.158 Y62.608 E31.19340
G1 X38.279 Y61.929 E31.22035
G1 X38.828 Y59.931 E31.30130
G1 X39.097 Y59.231 E31.33060
G1 X39.901 Y57.636 E31.40041
G1 X40.968 Y55.604 E31.49008
G1 X41.348 Y55.018 E31.51736
G1 X42.597 Y53.436 E31.59612
G1 X43.046 Y52.960 E31.62168
G1 X44.230 Y51.902 E31.68372
G1 X44.600 Y51.612 E31.70209
G1 X46.394 Y50.373 E31.78729
G1 X47.550 Y49.602 E31.84157
G1 X48.178 Y49.265 E31.86943
G1 X49.650 Y48.645 E31.93183
G1 X50.664 Y48.375 E31.97281
G1 X53.505 Y48.030 E32.08466
G1 X54.352 Y48.023 E32.11776
G1 X55.654 Y48.158 E32.16887
G1 X56.604 Y48.384 E32.20704
G1 X59.707 Y49.561 E32.33669
G1 X60.430 Y50.060 E32.37104
G1 X60.594 Y50.042 E32.37748
G1 X60.718 Y50.424 F7800.000
G1 X60.868 Y50.236 E32.38688 F1080.000
G1 X62.345 Y48.643 E32.47176
G1 X62.716 Y48.295 E32.49163
G1 X64.182 Y47.117 E32.56511
G1 X66.057 Y45.826 E32.65407
G1 X75.238 Y40.024 E33.07841
G1 X76.755 Y39.484 E33.14132
G1 X80.327 Y39.050 E33.28194
G1 X82.073 Y39.262 E33.35066
G1 X85.100 Y40.409 E33.47712
G1 X85.883 Y40.822 E33.51171
G1 X93.437 Y46.064 E33.87097
G1 X94.081 Y46.432 E33.89995
G1 X96.001 Y47.768 E33.99132
G1 X97.582 Y49.057 E34.07106
G1 X97.989 Y49.450 E34.09313
G1 X98.778 Y50.340 E34.13961
G1 X99.000 Y50.367 E34.14838
G1 X101.082 Y48.930 E34.24722
G1 X102.620 Y48.321 E34.31185
G1 X103.798 Y48.146 E34.35836
G1 X106.429 Y47.826 E34.46192
G1 X107.795 Y47.919 E34.51541
G1 X109.151 Y48.274 E34.57020
G1 X109.518 Y48.391 E34.58526
G1 X111.698 Y49.218 E34.67635
G1 X112.107 Y49.403 E34.69387
G1 X113.271 Y50.018 E34.74531
G1 X113.839 Y50.390 E34.77183
G1 X115.689 Y51.866 E34.86432
G1 X116.142 Y52.296 E34.88873
G1 X117.853 Y54.239 E34.98988
G1 X118.925 Y55.626 E35.05836
G1 X119.307 Y56.237 E35.08651
G1 X120.190 Y58.021 E35.16428
G1 X120.433 Y58.656 E35.19088
G1 X120.893 Y60.308 E35.25785
G1 X121.457 Y62.590 E35.34970
G1 X121.547 Y63.129 E35.37107
G1 X121.724 Y65.073 E35.44733
G1 X121.726 Y65.715 E35.47241
G1 X121.589 Y67.296 E35.53442
G1 X121.497 Y67.851 E35.55640
G1 X120.928 Y70.160 E35.64932
G1 X120.823 Y70.509 E35.66356
G1 X120.313 Y71.938 E35.72285
G1 X118.009 Y77.149 E35.94546
G1 X115.424 Y82.478 E36.17688
G1 X112.720 Y87.656 E36.40512
G1 X110.278 Y91.956 E36.59834
G1 X109.852 Y94.625 E36.70396
G1 X109.154 Y97.738 E36.82860
G1 X108.596 Y99.985 E36.91906
G1 X107.696 Y102.954 E37.04029
