; generated by Slic3r 1.2.9 on 2018-12-21 at 19:07:30

; external perimeters extrusion width = 0.35mm
; perimeters extrusion width = 0.39mm
; infill extrusion width = 0.39mm
; solid infill extrusion width = 0.39mm
; top infill extrusion width = 0.39mm

M107
M190 S80 ; set bed temperature
M104 S230 ; set temperature
G28 ; home all axes
G1 Z5 F5000 ; lift nozzle
M109 S230 ; wait for temperature to be reached
G21 ; set units to millimeters
G90 ; use absolute coordinates
M82 ; use absolute distances for extrusion
G92 E0
G1 E-1.00000 F1800.00000
G92 E0
G1 Z0.350 F7800.000
G1 X54.833 Y53.727 F7800.000
G1 E1.00000 F1800.00000
G1 X57.691 Y51.711 E1.18603 F1080.000
G1 X60.351 Y50.568 E1.33997
G1 X68.730 Y47.873 E1.80806
G1 X73.686 Y47.138 E2.07449
G1 X100.702 Y47.590 E3.51147
G1 X104.170 Y48.047 E3.69749
G1 X107.445 Y49.277 E3.88352
G1 X110.355 Y51.217 E4.06955
G1 X112.751 Y53.766 E4.25558
G1 X114.116 Y55.962 E4.39307
G1 X114.188 Y56.104 E4.40155
G1 X115.527 Y59.880 E4.61462
G1 X117.918 Y71.116 E5.22550
G1 X118.205 Y73.088 E5.33151
G1 X120.635 Y103.509 E6.95451
G1 X120.663 Y105.530 E7.06199
G1 X120.073 Y116.842 E7.66437
G1 X119.494 Y120.291 E7.85040
G1 X118.149 Y123.520 E8.03643
G1 X116.107 Y126.361 E8.22245
G1 X113.475 Y128.665 E8.40848
G1 X110.390 Y130.313 E8.59451
G1 X107.012 Y131.220 E8.78054
G1 X104.749 Y131.387 E8.90118
G1 X77.518 Y131.387 E10.34940
G1 X74.283 Y131.043 E10.52239
G1 X65.679 Y129.187 E10.99048
G1 X62.366 Y128.065 E11.17651
G1 X59.393 Y126.222 E11.36254
G1 X56.915 Y123.753 E11.54857
G1 X55.060 Y120.787 E11.73459
G1 X53.932 Y117.506 E11.91912
G1 X53.603 Y115.438 E12.03048
G1 X51.959 Y97.148 E13.00711
G1 X49.744 Y66.274 E14.65322
G1 X49.894 Y62.779 E14.83925
G1 X50.830 Y59.409 E15.02528
G1 X52.506 Y56.339 E15.21131
G1 X54.798 Y53.766 E15.39454
G1 E14.39454 F1800.00000
G92 E0
G1 X83.757 Y55.422 F7800.000
G1 E1.00000 F1800.00000
G1 X95.076 Y51.826 E1.63163 F1080.000
G1 X98.413 Y49.696 E1.84213
G1 X108.888 Y52.537 E2.41935
G1 X111.789 Y58.226 E2.75898
G1 X112.326 Y59.740 E2.84442
G1 X115.051 Y72.546 E3.54069
G1 X115.178 Y74.146 E3.62608
G1 X114.398 Y89.111 E4.42302
G1 X114.756 Y90.162 E4.48203
G1 X117.481 Y102.967 E5.17830
G1 X117.608 Y104.568 E5.26369
G1 X116.681 Y122.342 E6.21022
G1 X107.663 Y129.217 E6.81327
G1 X95.240 Y126.491 E7.48967
G1 X92.246 Y126.622 E7.64906
G1 X88.166 Y123.498 E7.92233
G1 X87.933 Y123.498 E7.93474
G1 X80.432 Y129.217 E8.43637
G1 X68.008 Y126.491 E9.11277
G1 X65.014 Y126.622 E9.27216
G1 X57.925 Y121.194 E9.74701
G1 X56.758 Y115.927 E10.03389
G1 X56.619 Y114.328 E10.11927
G1 X56.970 Y106.189 E10.55251
G1 X54.283 Y94.057 E11.21334
G1 X56.127 Y90.855 E11.40984
G1 X56.076 Y90.601 E11.42365
G1 X55.710 Y90.320 E11.44816
G1 X54.544 Y85.054 E11.73504
G1 X54.404 Y83.454 E11.82042
G1 X54.755 Y75.315 E12.25365
G1 X52.068 Y63.183 E12.91449
G1 X56.813 Y54.947 E13.42001
G1 X68.060 Y51.373 E14.04759
G1 X71.396 Y49.244 E14.25809
G1 X81.872 Y52.085 E14.83531
G1 X83.523 Y55.324 E15.02869
G1 X83.708 Y55.402 E15.03936
G1 X83.884 Y55.996 F7800.000
G1 X84.061 Y55.687 E15.05831 F1080.000
G1 X95.224 Y52.140 E15.68119
G1 X98.470 Y50.069 E15.88598
G1 X108.650 Y52.830 E16.44694
G1 X111.471 Y58.363 E16.77723
G1 X111.993 Y59.834 E16.86027
G1 X114.709 Y72.596 E17.55413
G1 X114.832 Y74.151 E17.63712
G1 X114.050 Y89.162 E18.43651
G1 X114.423 Y90.256 E18.49796
G1 X117.139 Y103.017 E19.19183
G1 X117.262 Y104.572 E19.27481
G1 X116.345 Y122.164 E20.21165
G1 X107.581 Y128.846 E20.79771
G1 X95.270 Y126.144 E21.46803
G1 X92.356 Y126.272 E21.62315
G1 X88.167 Y123.064 E21.90374
G1 X87.933 Y123.064 E21.91616
G1 X80.350 Y128.846 E22.42330
G1 X68.038 Y126.144 E23.09363
G1 X65.124 Y126.272 E23.24874
G1 X58.235 Y120.996 E23.71022
G1 X57.100 Y115.874 E23.98921
G1 X56.964 Y114.320 E24.07218
G1 X57.317 Y106.159 E24.50663
G1 X54.649 Y94.113 E25.16276
G1 X56.577 Y90.765 E25.36822
G1 X56.526 Y90.511 E25.38203
G1 X56.020 Y90.123 E25.41594
G1 X54.885 Y85.001 E25.69493
G1 X54.750 Y83.447 E25.77790
G1 X55.102 Y75.285 E26.21235
G1 X52.434 Y63.240 E26.86848
G1 X57.045 Y55.235 E27.35977
G1 X68.208 Y51.688 E27.98264
G1 X71.453 Y49.617 E28.18743
G1 X81.634 Y52.378 E28.74839
G1 X83.473 Y55.985 E28.96375
G1 X83.831 Y55.994 E28.98279
G1 X83.865 Y56.719 F7800.000
G1 X84.293 Y55.975 E29.02843 F1080.000
G1 X95.372 Y52.455 E29.64660
G1 X98.527 Y50.442 E29.84568
G1 X108.412 Y53.123 E30.39038
G1 X111.154 Y58.499 E30.71135
G1 X111.661 Y59.928 E30.79198
G1 X114.367 Y72.645 E31.48343
G1 X114.487 Y74.156 E31.56401
G1 X113.702 Y89.213 E32.36585
G1 X113.711 Y89.280 E32.36946
G1 X114.091 Y90.349 E32.42982
G1 X116.797 Y103.066 E33.12127
G1 X116.917 Y104.577 E33.20185
G1 X116.009 Y121.987 E34.12900
G1 X107.499 Y128.474 E34.69807
G1 X95.299 Y125.798 E35.36232
G1 X92.466 Y125.922 E35.51316
G1 X88.167 Y122.630 E35.80108
G1 X87.934 Y122.630 E35.81349
G1 X80.268 Y128.474 E36.32616
G1 X68.068 Y125.798 E36.99040
G1 X65.234 Y125.922 E37.14125
G1 X58.544 Y120.799 E37.58934
G1 X57.442 Y115.822 E37.86045
G1 X57.310 Y114.313 E37.94101
G1 X57.663 Y106.128 E38.37668
G1 X55.014 Y94.169 E39.02810
G1 X57.027 Y90.675 E39.24253
G1 X56.976 Y90.421 E39.25633
G1 X56.330 Y89.926 E39.29964
G1 X55.227 Y84.949 E39.57074
G1 X55.095 Y83.439 E39.65131
G1 X55.448 Y75.255 E40.08697
G1 X52.800 Y63.296 E40.73839
G1 X57.277 Y55.523 E41.21544
G1 X68.355 Y52.003 E41.83361
G1 X71.511 Y49.989 E42.03268
G1 X81.396 Y52.670 E42.57739
G1 X83.455 Y56.708 E42.81842
G1 X83.813 Y56.717 E42.83746
G1 X83.847 Y57.442 F7800.000
G1 X84.525 Y56.263 E42.90980 F1080.000
G1 X95.519 Y52.770 E43.52327
G1 X98.584 Y50.814 E43.71663
G1 X108.174 Y53.415 E44.24507
G1 X110.836 Y58.636 E44.55671
G1 X111.328 Y60.022 E44.63493
G1 X114.025 Y72.695 E45.32398
G1 X114.141 Y74.160 E45.40216
G1 X113.354 Y89.263 E46.20644
G1 X113.363 Y89.330 E46.21006
G1 X113.758 Y90.443 E46.27286
G1 X116.455 Y103.116 E46.96191
G1 X116.571 Y104.582 E47.04008
G1 X115.673 Y121.809 E47.95753
G1 X107.417 Y128.103 E48.50962
G1 X95.329 Y125.451 E49.16778
G1 X92.575 Y125.571 E49.31435
G1 X88.168 Y122.196 E49.60960
G1 X87.934 Y122.196 E49.62201
G1 X80.185 Y128.103 E50.14020
G1 X68.097 Y125.451 E50.79837
G1 X65.344 Y125.571 E50.94493
G1 X58.854 Y120.602 E51.37966
G1 X57.783 Y115.769 E51.64287
G1 X57.656 Y114.305 E51.72103
G1 X58.010 Y106.098 E52.15791
G1 X55.380 Y94.225 E52.80462
G1 X57.477 Y90.585 E53.02802
G1 X57.426 Y90.331 E53.04182
G1 X56.639 Y89.728 E53.09452
G1 X55.569 Y84.896 E53.35774
G1 X55.441 Y83.432 E53.43590
G1 X55.795 Y75.225 E53.87277
G1 X53.165 Y63.352 E54.51949
G1 X57.509 Y55.811 E54.98230
G1 X68.503 Y52.318 E55.59577
G1 X71.568 Y50.362 E55.78913
G1 X81.158 Y52.963 E56.31757
G1 X83.436 Y57.431 E56.58428
G1 X83.794 Y57.440 E56.60333
G1 X83.828 Y58.165 F7800.000
G1 X84.758 Y56.551 E56.70234 F1080.000
G1 X95.667 Y53.085 E57.31111
G1 X98.642 Y51.187 E57.49875
G1 X107.937 Y53.708 E58.01094
G1 X110.519 Y58.772 E58.31325
G1 X110.995 Y60.116 E58.38907
G1 X113.683 Y72.745 E59.07571
G1 X113.795 Y74.165 E59.15148
G1 X113.006 Y89.314 E59.95821
G1 X113.015 Y89.381 E59.96183
G1 X113.425 Y90.537 E60.02707
G1 X116.113 Y103.166 E60.71372
G1 X116.225 Y104.586 E60.78949
G1 X115.337 Y121.632 E61.69724
G1 X107.335 Y127.732 E62.23234
G1 X95.358 Y125.105 E62.88443
G1 X92.685 Y125.221 E63.02672
G1 X88.168 Y121.762 E63.32930
G1 X87.935 Y121.762 E63.34171
G1 X80.103 Y127.732 E63.86542
G1 X68.127 Y125.105 E64.51750
G1 X65.454 Y125.221 E64.65980
G1 X59.163 Y120.404 E65.08114
G1 X58.125 Y115.717 E65.33647
G1 X58.001 Y114.298 E65.41222
G1 X58.356 Y106.068 E65.85031
G1 X55.746 Y94.281 E66.49232
G1 X57.927 Y90.495 E66.72468
G1 X57.876 Y90.241 E66.73849
G1 X56.949 Y89.531 E66.80059
G1 X55.910 Y84.844 E67.05591
G1 X55.786 Y83.424 E67.13167
G1 X56.142 Y75.194 E67.56976
G1 X53.531 Y63.408 E68.21177
G1 X57.741 Y56.099 E68.66033
G1 X68.651 Y52.633 E69.26910
G1 X71.625 Y50.735 E69.45674
G1 X80.920 Y53.256 E69.96893
G1 X83.418 Y58.154 E70.26132
G1 X83.776 Y58.163 E70.28036
G1 X83.781 Y58.937 F7800.000
G1 X84.990 Y56.839 E70.40911 F1080.000
G1 X95.815 Y53.400 E71.01318
G1 X98.699 Y51.560 E71.19511
G1 X107.699 Y54.001 E71.69103
G1 X110.201 Y58.909 E71.98402
G1 X110.663 Y60.210 E72.05743
G1 X113.341 Y72.794 E72.74166
G1 X113.450 Y74.169 E72.81503
G1 X112.658 Y89.364 E73.62421
G1 X112.667 Y89.432 E73.62783
G1 X113.093 Y90.631 E73.69552
G1 X115.771 Y103.216 E74.37976
G1 X115.880 Y104.591 E74.45312
G1 X115.001 Y121.455 E75.35118
G1 X107.253 Y127.361 E75.86929
G1 X95.388 Y124.758 E76.51530
G1 X92.795 Y124.871 E76.65332
G1 X88.169 Y121.328 E76.96322
G1 X87.935 Y121.328 E76.97563
G1 X80.021 Y127.361 E77.50486
G1 X68.156 Y124.758 E78.15087
G1 X65.563 Y124.871 E78.28889
G1 X59.473 Y120.207 E78.69686
G1 X58.467 Y115.664 E78.94430
G1 X58.347 Y114.290 E79.01765
G1 X58.703 Y106.038 E79.45695
G1 X56.111 Y94.338 E80.09425
G1 X58.376 Y90.405 E80.33558
G1 X58.325 Y90.151 E80.34938
G1 X57.258 Y89.334 E80.42088
G1 X56.252 Y84.791 E80.66831
G1 X56.132 Y83.417 E80.74166
G1 X56.488 Y75.164 E81.18096
G1 X53.897 Y63.464 E81.81827
G1 X57.973 Y56.387 E82.25260
G1 X68.798 Y52.948 E82.85666
G1 X71.682 Y51.108 E83.03859
G1 X80.682 Y53.549 E83.53451
G1 X83.185 Y58.457 E83.82750
G1 X83.341 Y58.897 E83.85235
G1 X83.729 Y58.933 E83.87304
G1 X83.706 Y59.758 F7800.000
G1 X85.222 Y57.128 E84.03449 F1080.000
G1 X95.963 Y53.715 E84.63385
G1 X98.756 Y51.933 E84.81007
G1 X107.461 Y54.294 E85.28973
G1 X109.884 Y59.046 E85.57339
G1 X110.330 Y60.304 E85.64439
G1 X112.999 Y72.844 E86.32623
G1 X113.104 Y74.174 E86.39718
G1 X112.310 Y89.415 E87.20882
G1 X112.319 Y89.482 E87.21243
G1 X112.760 Y90.725 E87.28257
G1 X115.429 Y103.265 E87.96440
G1 X115.534 Y104.595 E88.03536
G1 X114.664 Y121.277 E88.92373
G1 X107.171 Y126.990 E89.42485
G1 X95.417 Y124.411 E90.06478
G1 X92.905 Y124.521 E90.19853
G1 X87.835 Y120.638 E90.53813
G1 X87.457 Y120.813 E90.56027
G1 X87.433 Y121.277 E90.58500
G1 X79.939 Y126.990 E91.08612
G1 X68.186 Y124.411 E91.72605
G1 X65.673 Y124.521 E91.85980
G1 X59.782 Y120.010 E92.25439
G1 X58.808 Y115.612 E92.49394
G1 X58.692 Y114.283 E92.56488
G1 X59.049 Y106.007 E93.00539
G1 X56.477 Y94.394 E93.63800
G1 X58.826 Y90.316 E93.88829
G1 X58.775 Y90.061 E93.90209
G1 X57.568 Y89.136 E93.98298
G1 X56.594 Y84.738 E94.22253
G1 X56.478 Y83.409 E94.29347
G1 X56.835 Y75.134 E94.73399
G1 X54.262 Y63.520 E95.36659
G1 X58.205 Y56.676 E95.78667
G1 X68.946 Y53.263 E96.38603
G1 X71.740 Y51.481 E96.56225
G1 X80.445 Y53.842 E97.04191
G1 X82.868 Y58.594 E97.32557
G1 X83.266 Y59.718 E97.38903
G1 X83.654 Y59.753 E97.40973
G1 X83.586 Y60.659 F7800.000
G1 X85.454 Y57.416 E97.60875 F1080.000
G1 X96.110 Y54.030 E98.20340
G1 X98.813 Y52.306 E98.37391
G1 X107.223 Y54.587 E98.83731
G1 X109.567 Y59.182 E99.11164
G1 X109.998 Y60.398 E99.18024
G1 X112.657 Y72.894 E99.85967
G1 X112.759 Y74.179 E99.92822
G1 X111.961 Y89.482 E100.74316
G1 X112.428 Y90.819 E100.81850
G1 X115.087 Y103.315 E101.49792
G1 X115.189 Y104.600 E101.56647
G1 X114.328 Y121.100 E102.44515
G1 X107.089 Y126.619 E102.92928
G1 X95.447 Y124.065 E103.56313
G1 X93.015 Y124.170 E103.69261
G1 X87.525 Y119.966 E104.06035
G1 X87.147 Y120.141 E104.08249
G1 X87.097 Y121.100 E104.13356
G1 X79.857 Y126.619 E104.61770
G1 X68.215 Y124.065 E105.25155
G1 X65.783 Y124.170 E105.38102
G1 X60.092 Y119.812 E105.76224
G1 X59.150 Y115.559 E105.99389
G1 X59.038 Y114.275 E106.06243
G1 X59.396 Y105.977 E106.50416
G1 X56.843 Y94.450 E107.13206
G1 X59.276 Y90.226 E107.39131
G1 X59.225 Y89.971 E107.40512
G1 X57.877 Y88.939 E107.49541
G1 X56.935 Y84.686 E107.72706
G1 X56.823 Y83.402 E107.79560
G1 X57.181 Y75.104 E108.23733
G1 X54.628 Y63.576 E108.86522
G1 X58.437 Y56.964 E109.27107
G1 X69.094 Y53.578 E109.86572
G1 X71.797 Y51.854 E110.03623
G1 X80.207 Y54.135 E110.49963
G1 X82.550 Y58.730 E110.77396
G1 X82.981 Y59.946 E110.84256
G1 X83.117 Y60.585 E110.87730
G1 X83.534 Y60.650 E110.89973
G1 X83.436 Y61.610 F7800.000
G1 X85.686 Y57.704 E111.13946 F1080.000
G1 X96.258 Y54.345 E111.72941
G1 X98.871 Y52.679 E111.89421
G1 X106.985 Y54.880 E112.34135
G1 X109.249 Y59.319 E112.60635
G1 X109.665 Y60.492 E112.67254
G1 X112.315 Y72.943 E113.34956
G1 X112.413 Y74.183 E113.41571
G1 X111.612 Y89.556 E114.23437
G1 X112.095 Y90.913 E114.31098
G1 X114.745 Y103.365 E114.98800
G1 X114.843 Y104.605 E115.05414
G1 X113.992 Y120.922 E115.92312
G1 X107.007 Y126.248 E116.39027
G1 X95.477 Y123.718 E117.01804
G1 X93.125 Y123.820 E117.14324
G1 X87.633 Y119.615 E117.51108
G1 X87.466 Y118.860 E117.55222
G1 X86.865 Y118.910 E117.58425
G1 X86.761 Y120.922 E117.69143
G1 X79.775 Y126.248 E118.15858
G1 X68.245 Y123.718 E118.78635
G1 X65.893 Y123.820 E118.91155
G1 X60.401 Y119.615 E119.27939
G1 X59.491 Y115.507 E119.50316
G1 X59.383 Y114.268 E119.56929
G1 X59.742 Y105.947 E120.01223
G1 X57.208 Y94.506 E120.63542
G1 X59.726 Y90.136 E120.90364
G1 X59.675 Y89.881 E120.91745
G1 X58.187 Y88.741 E121.01714
G1 X57.277 Y84.633 E121.24090
G1 X57.169 Y83.395 E121.30703
G1 X57.528 Y75.073 E121.74997
G1 X54.994 Y63.633 E122.37316
G1 X58.669 Y57.252 E122.76477
G1 X69.242 Y53.893 E123.35472
G1 X71.854 Y52.227 E123.51951
G1 X79.969 Y54.428 E123.96666
G1 X82.233 Y58.867 E124.23166
G1 X82.649 Y60.040 E124.29785
G1 X82.967 Y61.536 E124.37922
G1 X83.384 Y61.602 E124.40165
G1 X83.285 Y62.562 F7800.000
G1 X85.918 Y57.992 E124.68210 F1080.000
G1 X96.406 Y54.660 E125.26734
G1 X98.928 Y53.052 E125.42642
G1 X106.748 Y55.173 E125.85731
G1 X108.932 Y59.455 E126.11298
G1 X109.332 Y60.586 E126.17676
G1 X109.465 Y61.207 E126.21054
G1 X111.973 Y72.993 E126.85138
G1 X112.067 Y74.188 E126.91512
G1 X111.262 Y89.631 E127.73750
G1 X111.281 Y89.719 E127.74233
G1 X111.361 Y89.877 E127.75172
G1 X111.762 Y91.007 E127.81550
G1 X114.403 Y103.414 E128.49012
G1 X114.497 Y104.609 E128.55386
G1 X113.656 Y120.745 E129.41314
G1 X106.925 Y125.877 E129.86330
G1 X95.506 Y123.372 E130.48499
G1 X93.234 Y123.470 E130.60592
G1 X87.943 Y119.417 E130.96038
G1 X87.253 Y116.307 E131.12984
G1 X86.653 Y116.356 E131.16187
G1 X86.424 Y120.745 E131.39557
G1 X79.693 Y125.877 E131.84573
G1 X68.274 Y123.372 E132.46742
G1 X66.003 Y123.470 E132.58835
G1 X60.711 Y119.417 E132.94281
G1 X59.833 Y115.454 E133.15869
G1 X59.729 Y114.260 E133.22242
G1 X60.089 Y105.917 E133.66657
G1 X57.574 Y94.562 E134.28506
G1 X60.176 Y90.046 E134.56224
G1 X60.125 Y89.791 E134.57605
G1 X58.496 Y88.544 E134.68513
G1 X57.618 Y84.581 E134.90100
G1 X57.514 Y83.387 E134.96473
G1 X57.874 Y75.043 E135.40889
G1 X55.360 Y63.689 E136.02737
G1 X58.901 Y57.540 E136.40474
G1 X69.389 Y54.208 E136.98998
G1 X71.912 Y52.600 E137.14906
G1 X79.731 Y54.720 E137.57995
G1 X81.915 Y59.003 E137.83562
G1 X82.316 Y60.134 E137.89940
G1 X82.817 Y62.488 E138.02740
G1 X83.234 Y62.554 E138.04983
G1 X83.135 Y63.513 F7800.000
G1 X86.150 Y58.280 E138.37100 F1080.000
G1 X96.554 Y54.975 E138.95154
G1 X98.985 Y53.425 E139.10490
G1 X106.510 Y55.465 E139.51953
G1 X108.614 Y59.592 E139.76587
G1 X109.000 Y60.680 E139.82725
G1 X109.127 Y61.279 E139.85983
G1 X111.631 Y73.043 E140.49946
G1 X111.722 Y74.192 E140.56079
G1 X110.913 Y89.705 E141.38689
G1 X110.932 Y89.794 E141.39172
G1 X111.044 Y90.013 E141.40482
G1 X111.430 Y91.101 E141.46620
G1 X114.061 Y103.464 E142.13841
G1 X114.152 Y104.614 E142.19974
G1 X113.320 Y120.567 E143.04933
G1 X106.843 Y125.506 E143.48251
G1 X95.536 Y123.025 E144.09812
G1 X93.344 Y123.119 E144.21477
G1 X88.252 Y119.220 E144.55586
G1 X87.406 Y115.402 E144.76385
G1 X87.306 Y114.253 E144.82517
G1 X87.671 Y105.931 E145.26815
G1 X87.493 Y105.098 E145.31349
G1 X86.892 Y105.148 E145.34552
G1 X86.088 Y120.567 E146.16667
G1 X79.611 Y125.506 E146.59984
G1 X68.304 Y123.025 E147.21546
G1 X66.113 Y123.119 E147.33211
G1 X61.020 Y119.220 E147.67320
G1 X60.175 Y115.402 E147.88118
G1 X60.074 Y114.253 E147.94251
G1 X60.435 Y105.886 E148.38787
G1 X57.940 Y94.618 E149.00165
G1 X60.625 Y89.956 E149.28780
G1 X60.575 Y89.701 E149.30161
G1 X58.806 Y88.347 E149.42009
G1 X57.960 Y84.528 E149.62808
G1 X57.860 Y83.380 E149.68940
G1 X58.221 Y75.013 E150.13476
G1 X55.725 Y63.745 E150.74854
G1 X59.133 Y57.828 E151.11167
G1 X69.537 Y54.523 E151.69221
G1 X71.969 Y52.973 E151.84558
G1 X79.493 Y55.013 E152.26020
G1 X81.598 Y59.140 E152.50655
