; generated by Slic3r 1.2.9 on 2020-03-08 at 15:51:39

; external perimeters extrusion width = 0.35mm
; perimeters extrusion width = 0.44mm
; infill extrusion width = 0.44mm
; solid infill extrusion width = 0.44mm
; top infill extrusion width = 0.44mm

M107
M190 S100 ; set bed temperature
M104 S240 ; set temperature
G28 ; home all axes
G1 Z5 F5000 ; lift nozzle
M109 S240 ; wait for temperature to be reached
G21 ; set units to millimeters
G90 ; use absolute coordinates
M82 ; use absolute distances for extrusion
G92 E0
G1 E-1.00000 F1800.00000
G92 E0
G1 Z0.300 F7800.000
G1 X27.739 Y57.329 F7800.000
G1 E1.00000 F1800.00000
G1 X28.650 Y56.954 E1.03849 F1080.000
G1 X131.350 Y56.954 E5.05119
G1 X132.271 Y57.339 E5.09019
G1 X132.646 Y58.250 E5.12868
G1 X132.646 Y101.750 E6.82831
G1 X132.261 Y102.671 E6.86732
G1 X131.350 Y103.046 E6.90580
G1 X28.650 Y103.046 E10.91851
G1 X27.729 Y102.661 E10.95751
G1 X27.354 Y101.750 E10.99600
G1 X27.354 Y58.250 E12.69563
G1 X27.719 Y57.377 E12.73258
G1 E11.73258 F1800.00000
G92 E0
G1 X130.579 Y74.379 F7800.000
G1 E1.00000 F1800.00000
G1 X85.621 Y74.379 E2.75658 F900.000
G1 X85.621 Y59.021 E3.35663
G1 X130.579 Y59.021 E5.11322
G1 X130.579 Y74.326 E5.71122
G1 X130.874 Y74.674 F7800.000
G1 X85.326 Y74.674 E7.49090 F900.000
G1 X85.326 Y58.726 E8.11405
G1 X130.874 Y58.726 E9.89374
G1 X130.874 Y74.622 E10.51484
G1 X131.170 Y74.970 F7800.000
G1 X85.030 Y74.970 E12.31763 F540.000
G1 X85.030 Y58.430 E12.96388
G1 X131.170 Y58.430 E14.76666
G1 X131.170 Y74.917 E15.41087
G1 X130.867 Y74.795 F7800.000
G1 X130.410 Y59.355 F7800.000
G1 X130.245 Y59.190 E15.42006 F360.000
G1 X129.824 Y59.190 E15.43660
G1 X130.410 Y59.776 E15.46918
G1 X130.410 Y60.196 E15.48572
G1 X129.404 Y59.190 E15.54169
G1 X128.983 Y59.190 E15.55822
G1 X130.410 Y60.617 E15.63758
G1 X130.410 Y61.038 E15.65411
G1 X128.562 Y59.190 E15.75685
G1 X128.142 Y59.190 E15.77339
G1 X130.410 Y61.458 E15.89952
G1 X130.410 Y61.879 E15.91605
G1 X127.721 Y59.190 E16.06556
G1 X127.300 Y59.190 E16.08210
G1 X130.410 Y62.300 E16.25500
G1 X130.410 Y62.720 E16.27153
G1 X126.880 Y59.190 E16.46782
G1 X126.459 Y59.190 E16.48435
G1 X130.410 Y63.141 E16.70402
G1 X130.410 Y63.562 E16.72056
G1 X126.038 Y59.190 E16.96361
G1 X125.618 Y59.190 E16.98015
G1 X130.410 Y63.982 E17.24659
G1 X130.410 Y64.403 E17.26313
G1 X125.197 Y59.190 E17.55295
G1 X124.776 Y59.190 E17.56949
G1 X130.410 Y64.824 E17.88270
G1 X130.410 Y65.244 E17.89924
G1 X124.356 Y59.190 E18.23584
G1 X123.935 Y59.190 E18.25237
G1 X130.410 Y65.665 E18.61236
G1 X130.410 Y66.085 E18.62889
G1 X123.515 Y59.190 E19.01227
G1 X123.094 Y59.190 E19.02880
G1 X130.410 Y66.506 E19.43556
G1 X130.410 Y66.927 E19.45209
G1 X122.673 Y59.190 E19.88224
G1 X122.253 Y59.190 E19.89877
G1 X130.410 Y67.347 E20.35230
G1 X130.410 Y67.768 E20.36884
G1 X121.832 Y59.190 E20.84575
G1 X121.411 Y59.190 E20.86229
G1 X130.410 Y68.189 E21.36259
G1 X130.410 Y68.609 E21.37912
G1 X120.991 Y59.190 E21.90281
G1 X120.570 Y59.190 E21.91934
G1 X130.410 Y69.030 E22.46641
G1 X130.410 Y69.451 E22.48295
G1 X120.149 Y59.190 E23.05341
G1 X119.729 Y59.190 E23.06994
G1 X130.410 Y69.871 E23.66379
G1 X130.410 Y70.292 E23.68032
G1 X119.308 Y59.190 E24.29755
G1 X118.888 Y59.190 E24.31409
G1 X130.410 Y70.712 E24.95470
G1 X130.410 Y71.133 E24.97124
G1 X118.467 Y59.190 E25.63524
G1 X118.046 Y59.190 E25.65177
G1 X130.410 Y71.554 E26.33916
G1 X130.410 Y71.974 E26.35570
G1 X117.626 Y59.190 E27.06647
G1 X117.205 Y59.190 E27.08301
G1 X130.410 Y72.395 E27.81716
G1 X130.410 Y72.816 E27.83370
G1 X116.784 Y59.190 E28.59124
G1 X116.364 Y59.190 E28.60778
G1 X130.410 Y73.236 E29.38871
G1 X130.410 Y73.657 E29.40524
G1 X115.943 Y59.190 E30.20956
G1 X115.522 Y59.190 E30.22610
G1 X130.410 Y74.078 E31.05380
G1 X130.122 Y74.210 E31.06626
G1 X115.102 Y59.190 E31.90134
G1 X114.681 Y59.190 E31.91787
G1 X129.702 Y74.210 E32.75295
G1 X129.281 Y74.210 E32.76949
G1 X114.261 Y59.190 E33.60456
G1 X113.840 Y59.190 E33.62110
G1 X128.860 Y74.210 E34.45617
G1 X128.440 Y74.210 E34.47271
G1 X113.419 Y59.190 E35.30779
G1 X112.999 Y59.190 E35.32432
G1 X128.019 Y74.210 E36.15940
G1 X127.598 Y74.210 E36.17593
G1 X112.578 Y59.190 E37.01101
G1 X112.157 Y59.190 E37.02755
G1 X127.178 Y74.210 E37.86262
G1 X126.757 Y74.210 E37.87916
G1 X111.737 Y59.190 E38.71423
G1 X111.316 Y59.190 E38.73077
G1 X126.336 Y74.210 E39.56585
G1 X125.916 Y74.210 E39.58238
G1 X110.895 Y59.190 E40.41746
G1 X110.475 Y59.190 E40.43399
G1 X125.495 Y74.210 E41.26907
G1 X125.075 Y74.210 E41.28561
G1 X110.054 Y59.190 E42.12068
G1 X109.633 Y59.190 E42.13722
G1 X124.654 Y74.210 E42.97229
G1 X124.233 Y74.210 E42.98883
G1 X109.213 Y59.190 E43.82391
G1 X108.792 Y59.190 E43.84044
G1 X123.813 Y74.210 E44.67552
G1 X123.392 Y74.210 E44.69205
G1 X108.372 Y59.190 E45.52713
G1 X107.951 Y59.190 E45.54367
G1 X122.971 Y74.210 E46.37874
G1 X122.551 Y74.210 E46.39528
G1 X107.530 Y59.190 E47.23035
G1 X107.110 Y59.190 E47.24689
G1 X122.130 Y74.210 E48.08197
G1 X121.709 Y74.210 E48.09850
G1 X106.689 Y59.190 E48.93358
G1 X106.268 Y59.190 E48.95011
G1 X121.289 Y74.210 E49.78519
G1 X120.868 Y74.210 E49.80173
G1 X105.848 Y59.190 E50.63680
G1 X105.427 Y59.190 E50.65334
G1 X120.448 Y74.210 E51.48841
G1 X120.027 Y74.210 E51.50495
G1 X105.006 Y59.190 E52.34002
G1 X104.586 Y59.190 E52.35656
G1 X119.606 Y74.210 E53.19164
G1 X119.186 Y74.210 E53.20817
G1 X104.165 Y59.190 E54.04325
G1 X103.745 Y59.190 E54.05978
G1 X118.765 Y74.210 E54.89486
G1 X118.344 Y74.210 E54.91140
G1 X103.324 Y59.190 E55.74647
G1 X102.903 Y59.190 E55.76301
G1 X117.924 Y74.210 E56.59808
G1 X117.503 Y74.210 E56.61462
G1 X102.483 Y59.190 E57.44970
G1 X102.062 Y59.190 E57.46623
G1 X117.082 Y74.210 E58.30131
G1 X116.662 Y74.210 E58.31784
G1 X101.641 Y59.190 E59.15292
G1 X101.221 Y59.190 E59.16946
G1 X116.241 Y74.210 E60.00453
G1 X115.820 Y74.210 E60.02107
G1 X100.800 Y59.190 E60.85614
G1 X100.379 Y59.190 E60.87268
G1 X115.400 Y74.210 E61.70776
G1 X114.979 Y74.210 E61.72429
G1 X99.959 Y59.190 E62.55937
G1 X99.538 Y59.190 E62.57590
G1 X114.559 Y74.210 E63.41098
G1 X114.138 Y74.210 E63.42752
G1 X99.117 Y59.190 E64.26259
G1 X98.697 Y59.190 E64.27913
G1 X113.717 Y74.210 E65.11420
G1 X113.297 Y74.210 E65.13074
G1 X98.276 Y59.190 E65.96582
G1 X97.856 Y59.190 E65.98235
G1 X112.876 Y74.210 E66.81743
G1 X112.455 Y74.210 E66.83396
G1 X97.435 Y59.190 E67.66904
G1 X97.014 Y59.190 E67.68558
G1 X112.035 Y74.210 E68.52065
G1 X111.614 Y74.210 E68.53719
G1 X96.594 Y59.190 E69.37226
G1 X96.173 Y59.190 E69.38880
G1 X111.193 Y74.210 E70.22388
G1 X110.773 Y74.210 E70.24041
G1 X95.752 Y59.190 E71.07549
G1 X95.332 Y59.190 E71.09202
G1 X110.352 Y74.210 E71.92710
G1 X109.932 Y74.210 E71.94364
G1 X94.911 Y59.190 E72.77871
G1 X94.490 Y59.190 E72.79525
G1 X109.511 Y74.210 E73.63032
G1 X109.090 Y74.210 E73.64686
G1 X94.070 Y59.190 E74.48194
G1 X93.649 Y59.190 E74.49847
G1 X108.670 Y74.210 E75.33355
G1 X108.249 Y74.210 E75.35008
G1 X93.229 Y59.190 E76.18516
G1 X92.808 Y59.190 E76.20170
G1 X107.828 Y74.210 E77.03677
G1 X107.408 Y74.210 E77.05331
G1 X92.387 Y59.190 E77.88838
G1 X91.967 Y59.190 E77.90492
G1 X106.987 Y74.210 E78.73999
G1 X106.566 Y74.210 E78.75653
G1 X91.546 Y59.190 E79.59161
G1 X91.125 Y59.190 E79.60814
G1 X106.146 Y74.210 E80.44322
G1 X105.725 Y74.210 E80.45975
G1 X90.705 Y59.190 E81.29483
G1 X90.284 Y59.190 E81.31137
G1 X105.305 Y74.210 E82.14644
G1 X104.884 Y74.210 E82.16298
G1 X89.863 Y59.190 E82.99805
G1 X89.443 Y59.190 E83.01459
G1 X104.463 Y74.210 E83.84967
G1 X104.043 Y74.210 E83.86620
G1 X89.022 Y59.190 E84.70128
G1 X88.602 Y59.190 E84.71781
G1 X103.622 Y74.210 E85.55289
G1 X103.201 Y74.210 E85.56943
G1 X88.181 Y59.190 E86.40450
G1 X87.760 Y59.190 E86.42104
G1 X102.781 Y74.210 E87.25611
G1 X102.360 Y74.210 E87.27265
G1 X87.340 Y59.190 E88.10773
G1 X86.919 Y59.190 E88.12426
G1 X101.939 Y74.210 E88.95934
G1 X101.519 Y74.210 E88.97587
G1 X86.498 Y59.190 E89.81095
G1 X86.078 Y59.190 E89.82749
G1 X101.098 Y74.210 E90.66256
G1 X100.677 Y74.210 E90.67910
G1 X85.790 Y59.323 E91.50679
G1 X85.790 Y59.743 E91.52333
G1 X100.257 Y74.210 E92.32764
G1 X99.836 Y74.210 E92.34418
G1 X85.790 Y60.164 E93.12510
G1 X85.790 Y60.584 E93.14164
G1 X99.416 Y74.210 E93.89918
G1 X98.995 Y74.210 E93.91571
G1 X85.790 Y61.005 E94.64986
G1 X85.790 Y61.426 E94.66640
G1 X98.574 Y74.210 E95.37717
G1 X98.154 Y74.210 E95.39370
G1 X85.790 Y61.846 E96.08108
G1 X85.790 Y62.267 E96.09762
G1 X97.733 Y74.210 E96.76162
G1 X97.312 Y74.210 E96.77815
G1 X85.790 Y62.688 E97.41876
G1 X85.790 Y63.108 E97.43530
G1 X96.892 Y74.210 E98.05252
G1 X96.471 Y74.210 E98.06906
G1 X85.790 Y63.529 E98.66290
G1 X85.790 Y63.950 E98.67943
G1 X96.050 Y74.210 E99.24988
G1 X95.630 Y74.210 E99.26642
G1 X85.790 Y64.370 E99.81349
G1 X85.790 Y64.791 E99.83002
G1 X95.209 Y74.210 E100.35370
G1 X94.789 Y74.210 E100.37024
G1 X85.790 Y65.211 E100.87053
G1 X85.790 Y65.632 E100.88707
G1 X94.368 Y74.210 E101.36398
G1 X93.947 Y74.210 E101.38051
G1 X85.790 Y66.053 E101.83404
G1 X85.790 Y66.473 E101.85057
G1 X93.527 Y74.210 E102.28071
G1 X93.106 Y74.210 E102.29724
G1 X85.790 Y66.894 E102.70400
G1 X85.790 Y67.315 E102.72053
G1 X92.685 Y74.210 E103.10390
G1 X92.265 Y74.210 E103.12043
G1 X85.790 Y67.735 E103.48041
G1 X85.790 Y68.156 E103.49695
G1 X91.844 Y74.210 E103.83354
G1 X91.423 Y74.210 E103.85008
G1 X85.790 Y68.577 E104.16329
G1 X85.790 Y68.997 E104.17982
G1 X91.003 Y74.210 E104.46964
G1 X90.582 Y74.210 E104.48618
G1 X85.790 Y69.418 E104.75262
G1 X85.790 Y69.838 E104.76915
G1 X90.162 Y74.210 E105.01220
G1 X89.741 Y74.210 E105.02874
G1 X85.790 Y70.259 E105.24840
G1 X85.790 Y70.680 E105.26494
G1 X89.320 Y74.210 E105.46122
G1 X88.900 Y74.210 E105.47775
G1 X85.790 Y71.100 E105.65065
G1 X85.790 Y71.521 E105.66718
G1 X88.479 Y74.210 E105.81669
G1 X88.058 Y74.210 E105.83323
G1 X85.790 Y71.942 E105.95935
G1 X85.790 Y72.362 E105.97588
G1 X87.638 Y74.210 E106.07862
G1 X87.217 Y74.210 E106.09515
G1 X85.790 Y72.783 E106.17450
G1 X85.790 Y73.204 E106.19104
G1 X86.796 Y74.210 E106.24700
G1 X86.376 Y74.210 E106.26354
G1 X85.790 Y73.624 E106.29612
G1 X85.790 Y74.045 E106.31265
G1 X85.955 Y74.210 E106.32184
G1 E105.32184 F1800.00000
G92 E0
G1 Z0.300 F7800.000
G1 X85.621 Y85.621 F7800.000
G1 E1.00000 F1800.00000
G1 X130.579 Y85.621 E2.75658 F900.000
G1 X130.579 Y100.979 E3.35663
G1 X85.621 Y100.979 E5.11322
G1 X85.621 Y85.674 E5.71122
G1 X85.326 Y85.326 F7800.000
G1 X130.874 Y85.326 E7.49090 F900.000
G1 X130.874 Y101.274 E8.11405
G1 X85.326 Y101.274 E9.89374
G1 X85.326 Y85.378 E10.51484
G1 X85.030 Y85.030 F7800.000
G1 X131.170 Y85.030 E12.31763 F540.000
G1 X131.170 Y101.570 E12.96388
G1 X85.030 Y101.570 E14.76666
G1 X85.030 Y85.082 E15.41087
G1 X85.333 Y85.205 F7800.000
G1 X85.955 Y100.810 F7800.000
G1 X85.790 Y100.645 E15.42006 F360.000
G1 X85.790 Y100.224 E15.43659
G1 X86.376 Y100.810 E15.46917
G1 X86.796 Y100.810 E15.48571
G1 X85.790 Y99.804 E15.54167
G1 X85.790 Y99.383 E15.55821
G1 X87.217 Y100.810 E15.63756
G1 X87.638 Y100.810 E15.65409
G1 X85.790 Y98.962 E15.75683
G1 X85.790 Y98.542 E15.77336
G1 X88.058 Y100.810 E15.89948
G1 X88.479 Y100.810 E15.91602
G1 X85.790 Y98.121 E16.06553
G1 X85.790 Y97.700 E16.08206
G1 X88.900 Y100.810 E16.25496
G1 X89.320 Y100.810 E16.27149
G1 X85.790 Y97.280 E16.46777
G1 X85.790 Y96.859 E16.48431
G1 X89.741 Y100.810 E16.70397
G1 X90.162 Y100.810 E16.72051
G1 X85.790 Y96.439 E16.96356
G1 X85.790 Y96.018 E16.98009
G1 X90.582 Y100.810 E17.24653
G1 X91.003 Y100.810 E17.26307
G1 X85.790 Y95.597 E17.55289
G1 X85.790 Y95.177 E17.56942
G1 X91.423 Y100.810 E17.88263
G1 X91.844 Y100.810 E17.89917
G1 X85.790 Y94.756 E18.23576
G1 X85.790 Y94.335 E18.25230
G1 X92.265 Y100.810 E18.61228
G1 X92.685 Y100.810 E18.62881
G1 X85.790 Y93.915 E19.01218
G1 X85.790 Y93.494 E19.02871
G1 X93.106 Y100.810 E19.43546
G1 X93.527 Y100.810 E19.45200
G1 X85.790 Y93.073 E19.88214
G1 X85.790 Y92.653 E19.89867
G1 X93.947 Y100.810 E20.35220
G1 X94.368 Y100.810 E20.36873
G1 X85.790 Y92.232 E20.84564
G1 X85.790 Y91.811 E20.86218
G1 X94.789 Y100.810 E21.36247
G1 X95.209 Y100.810 E21.37901
G1 X85.790 Y91.391 E21.90269
G1 X85.790 Y90.970 E21.91922
G1 X95.630 Y100.810 E22.46629
G1 X96.050 Y100.810 E22.48283
G1 X85.790 Y90.550 E23.05328
G1 X85.790 Y90.129 E23.06981
G1 X96.471 Y100.810 E23.66365
G1 X96.892 Y100.810 E23.68019
G1 X85.790 Y89.708 E24.29741
G1 X85.790 Y89.288 E24.31395
G1 X97.312 Y100.810 E24.95456
G1 X97.733 Y100.810 E24.97109
G1 X85.790 Y88.867 E25.63509
G1 X85.790 Y88.446 E25.65162
G1 X98.154 Y100.810 E26.33901
G1 X98.574 Y100.810 E26.35554
G1 X85.790 Y88.026 E27.06631
G1 X85.790 Y87.605 E27.08284
G1 X98.995 Y100.810 E27.81700
G1 X99.416 Y100.810 E27.83353
G1 X85.790 Y87.184 E28.59107
G1 X85.790 Y86.764 E28.60761
G1 X99.836 Y100.810 E29.38853
G1 X100.257 Y100.810 E29.40507
G1 X85.790 Y86.343 E30.20938
G1 X85.790 Y85.923 E30.22592
G1 X100.677 Y100.810 E31.05361
G1 X101.098 Y100.810 E31.07015
G1 X86.078 Y85.790 E31.90522
G1 X86.498 Y85.790 E31.92176
G1 X101.519 Y100.810 E32.75684
G1 X101.939 Y100.810 E32.77337
G1 X86.919 Y85.790 E33.60845
G1 X87.340 Y85.790 E33.62498
G1 X102.360 Y100.810 E34.46006
G1 X102.781 Y100.810 E34.47660
G1 X87.760 Y85.790 E35.31167
G1 X88.181 Y85.790 E35.32821
G1 X103.201 Y100.810 E36.16328
G1 X103.622 Y100.810 E36.17982
G1 X88.602 Y85.790 E37.01489
G1 X89.022 Y85.790 E37.03143
G1 X104.043 Y100.810 E37.86651
G1 X104.463 Y100.810 E37.88304
G1 X89.443 Y85.790 E38.71812
G1 X89.863 Y85.790 E38.73466
G1 X104.884 Y100.810 E39.56973
G1 X105.305 Y100.810 E39.58627
G1 X90.284 Y85.790 E40.42134
G1 X90.705 Y85.790 E40.43788
G1 X105.725 Y100.810 E41.27295
G1 X106.146 Y100.810 E41.28949
G1 X91.125 Y85.790 E42.12457
G1 X91.546 Y85.790 E42.14110
G1 X106.566 Y100.810 E42.97618
G1 X106.987 Y100.810 E42.99271
G1 X91.967 Y85.790 E43.82779
G1 X92.387 Y85.790 E43.84433
G1 X107.408 Y100.810 E44.67940
G1 X107.828 Y100.810 E44.69594
G1 X92.808 Y85.790 E45.53101
G1 X93.229 Y85.790 E45.54755
G1 X108.249 Y100.810 E46.38263
G1 X108.670 Y100.810 E46.39916
G1 X93.649 Y85.790 E47.23424
G1 X94.070 Y85.790 E47.25077
G1 X109.090 Y100.810 E48.08585
G1 X109.511 Y100.810 E48.10239
G1 X94.490 Y85.790 E48.93746
G1 X94.911 Y85.790 E48.95400
G1 X109.932 Y100.810 E49.78907
G1 X110.352 Y100.810 E49.80561
G1 X95.332 Y85.790 E50.64069
G1 X95.752 Y85.790 E50.65722
G1 X110.773 Y100.810 E51.49230
G1 X111.193 Y100.810 E51.50883
G1 X96.173 Y85.790 E52.34391
G1 X96.594 Y85.790 E52.36045
G1 X111.614 Y100.810 E53.19552
G1 X112.035 Y100.810 E53.21206
G1 X97.014 Y85.790 E54.04713
G1 X97.435 Y85.790 E54.06367
G1 X112.455 Y100.810 E54.89875
G1 X112.876 Y100.810 E54.91528
G1 X97.856 Y85.790 E55.75036
G1 X98.276 Y85.790 E55.76689
G1 X113.297 Y100.810 E56.60197
G1 X113.717 Y100.810 E56.61851
G1 X98.697 Y85.790 E57.45358
G1 X99.117 Y85.790 E57.47012
G1 X114.138 Y100.810 E58.30519
G1 X114.559 Y100.810 E58.32173
G1 X99.538 Y85.790 E59.15680
G1 X99.959 Y85.790 E59.17334
G1 X114.979 Y100.810 E60.00842
G1 X115.400 Y100.810 E60.02495
G1 X100.379 Y85.790 E60.86003
G1 X100.800 Y85.790 E60.87657
G1 X115.820 Y100.810 E61.71164
G1 X116.241 Y100.810 E61.72818
G1 X101.221 Y85.790 E62.56325
G1 X101.641 Y85.790 E62.57979
G1 X116.662 Y100.810 E63.41486
G1 X117.082 Y100.810 E63.43140
G1 X102.062 Y85.790 E64.26648
G1 X102.483 Y85.790 E64.28301
G1 X117.503 Y100.810 E65.11809
G1 X117.924 Y100.810 E65.13462
G1 X102.903 Y85.790 E65.96970
G1 X103.324 Y85.790 E65.98624
G1 X118.344 Y100.810 E66.82131
G1 X118.765 Y100.810 E66.83785
G1 X103.745 Y85.790 E67.67292
G1 X104.165 Y85.790 E67.68946
G1 X119.186 Y100.810 E68.52454
G1 X119.606 Y100.810 E68.54107
G1 X104.586 Y85.790 E69.37615
G1 X105.006 Y85.790 E69.39268
G1 X120.027 Y100.810 E70.22776
G1 X120.448 Y100.810 E70.24430
G1 X105.427 Y85.790 E71.07937
G1 X105.848 Y85.790 E71.09591
G1 X120.868 Y100.810 E71.93098
G1 X121.289 Y100.810 E71.94752
G1 X106.268 Y85.790 E72.78260
G1 X106.689 Y85.790 E72.79913
G1 X121.709 Y100.810 E73.63421
G1 X122.130 Y100.810 E73.65074
G1 X107.110 Y85.790 E74.48582
G1 X107.530 Y85.790 E74.50236
G1 X122.551 Y100.810 E75.33743
G1 X122.971 Y100.810 E75.35397
G1 X107.951 Y85.790 E76.18904
G1 X108.372 Y85.790 E76.20558
G1 X123.392 Y100.810 E77.04066
