; generated by Slic3r 1.2.9 on 2019-12-08 at 10:42:06

; external perimeters extrusion width = 0.35mm
; perimeters extrusion width = 0.44mm
; infill extrusion width = 0.44mm
; solid infill extrusion width = 0.44mm
; top infill extrusion width = 0.44mm

M107
M190 S100 ; set bed temperature
M104 S240 ; set temperature
G28 ; home all axes
G1 Z5 F5000 ; lift nozzle
M109 S240 ; wait for temperature to be reached
G21 ; set units to millimeters
G90 ; use absolute coordinates
M82 ; use absolute distances for extrusion
G92 E0
G1 E-1.00000 F1800.00000
G92 E0
G1 Z0.300 F7800.000
G1 X55.932 Y60.748 F7800.000
G1 E1.00000 F1800.00000
G1 X56.836 Y60.381 E1.03809 F1080.000
G1 X103.336 Y60.381 E2.85495
G1 X104.257 Y60.766 E2.89395
G1 X104.631 Y61.677 E2.93244
G1 X104.631 Y77.838 E3.56387
G1 X104.460 Y98.334 E4.36473
G1 X104.068 Y99.252 E4.40373
G1 X103.164 Y99.619 E4.44183
G1 X56.664 Y99.619 E6.25868
G1 X55.743 Y99.234 E6.29768
G1 X55.369 Y98.323 E6.33617
G1 X55.369 Y82.162 E6.96760
G1 X55.540 Y61.666 E7.76846
G1 X55.912 Y60.796 E7.80541
G1 E6.80541 F1800.00000
G92 E0
G1 X102.564 Y77.056 F7800.000
G1 E1.00000 F1800.00000
G1 X57.607 Y77.056 E2.75658 F900.000
G1 X57.607 Y62.448 E3.32733
G1 X102.564 Y62.448 E5.08391
G1 X102.564 Y77.003 E5.65261
G1 X102.860 Y77.351 F7800.000
G1 X57.311 Y77.351 E7.43229 F900.000
G1 X57.311 Y62.153 E8.02614
G1 X102.860 Y62.153 E9.80583
G1 X102.860 Y77.299 E10.39762
G1 X103.156 Y77.647 F7800.000
G1 X57.016 Y77.647 E12.20041 F540.000
G1 X57.016 Y61.857 E12.81736
G1 X103.156 Y61.857 E14.62014
G1 X103.156 Y77.594 E15.23504
G1 X102.853 Y77.472 F7800.000
G1 X102.396 Y62.782 F7800.000
G1 X102.230 Y62.617 E15.24418 F360.000
G1 X101.812 Y62.617 E15.26054
G1 X102.396 Y63.200 E15.29281
G1 X102.396 Y63.619 E15.30916
G1 X101.394 Y62.617 E15.36455
G1 X100.976 Y62.617 E15.38091
G1 X102.396 Y64.037 E15.45943
G1 X102.396 Y64.455 E15.47578
G1 X100.557 Y62.617 E15.57742
G1 X100.139 Y62.617 E15.59377
G1 X102.396 Y64.874 E15.71854
G1 X102.396 Y65.292 E15.73490
G1 X99.721 Y62.617 E15.88279
G1 X99.302 Y62.617 E15.89914
G1 X102.396 Y65.710 E16.07016
G1 X102.396 Y66.128 E16.08652
G1 X98.884 Y62.617 E16.28066
G1 X98.466 Y62.617 E16.29701
G1 X102.396 Y66.547 E16.51428
G1 X102.396 Y66.965 E16.53063
G1 X98.048 Y62.617 E16.77103
G1 X97.629 Y62.617 E16.78738
G1 X102.396 Y67.383 E17.05090
G1 X102.396 Y67.802 E17.06725
G1 X97.211 Y62.617 E17.35390
G1 X96.793 Y62.617 E17.37025
G1 X102.396 Y68.220 E17.68002
G1 X102.396 Y68.638 E17.69637
G1 X96.374 Y62.617 E18.02927
G1 X95.956 Y62.617 E18.04562
G1 X102.396 Y69.056 E18.40164
G1 X102.396 Y69.475 E18.41799
G1 X95.538 Y62.617 E18.79713
G1 X95.120 Y62.617 E18.81349
G1 X102.396 Y69.893 E19.21576
G1 X102.396 Y70.311 E19.23211
G1 X94.701 Y62.617 E19.65750
G1 X94.283 Y62.617 E19.67386
G1 X102.396 Y70.730 E20.12237
G1 X102.396 Y71.148 E20.13873
G1 X93.865 Y62.617 E20.61037
G1 X93.446 Y62.617 E20.62672
G1 X102.396 Y71.566 E21.12149
G1 X102.396 Y71.984 E21.13784
G1 X93.028 Y62.617 E21.65574
G1 X92.610 Y62.617 E21.67209
G1 X102.396 Y72.403 E22.21311
G1 X102.396 Y72.821 E22.22946
G1 X92.192 Y62.617 E22.79361
G1 X91.773 Y62.617 E22.80996
G1 X102.396 Y73.239 E23.39723
G1 X102.396 Y73.658 E23.41358
G1 X91.355 Y62.617 E24.02397
G1 X90.937 Y62.617 E24.04033
G1 X102.396 Y74.076 E24.67385
G1 X102.396 Y74.494 E24.69020
G1 X90.518 Y62.617 E25.34684
G1 X90.100 Y62.617 E25.36319
G1 X102.396 Y74.912 E26.04296
G1 X102.396 Y75.331 E26.05932
G1 X89.682 Y62.617 E26.76221
G1 X89.264 Y62.617 E26.77856
G1 X102.396 Y75.749 E27.50458
G1 X102.396 Y76.167 E27.52093
G1 X88.845 Y62.617 E28.27008
G1 X88.427 Y62.617 E28.28643
G1 X102.396 Y76.586 E29.05870
G1 X102.279 Y76.887 E29.07134
G1 X88.009 Y62.617 E29.86028
G1 X87.590 Y62.617 E29.87663
G1 X101.861 Y76.887 E30.66557
G1 X101.443 Y76.887 E30.68193
G1 X87.172 Y62.617 E31.47087
G1 X86.754 Y62.617 E31.48722
G1 X101.024 Y76.887 E32.27616
G1 X100.606 Y76.887 E32.29251
G1 X86.336 Y62.617 E33.08145
G1 X85.917 Y62.617 E33.09780
G1 X100.188 Y76.887 E33.88674
G1 X99.769 Y76.887 E33.90310
G1 X85.499 Y62.617 E34.69204
G1 X85.081 Y62.617 E34.70839
G1 X99.351 Y76.887 E35.49733
G1 X98.933 Y76.887 E35.51368
G1 X84.662 Y62.617 E36.30262
G1 X84.244 Y62.617 E36.31897
G1 X98.515 Y76.887 E37.10791
G1 X98.096 Y76.887 E37.12427
G1 X83.826 Y62.617 E37.91321
G1 X83.408 Y62.617 E37.92956
G1 X97.678 Y76.887 E38.71850
G1 X97.260 Y76.887 E38.73485
G1 X82.989 Y62.617 E39.52379
G1 X82.571 Y62.617 E39.54014
G1 X96.841 Y76.887 E40.32909
G1 X96.423 Y76.887 E40.34544
G1 X82.153 Y62.617 E41.13438
G1 X81.734 Y62.617 E41.15073
G1 X96.005 Y76.887 E41.93967
G1 X95.587 Y76.887 E41.95602
G1 X81.316 Y62.617 E42.74496
G1 X80.898 Y62.617 E42.76132
G1 X95.168 Y76.887 E43.55026
G1 X94.750 Y76.887 E43.56661
G1 X80.480 Y62.617 E44.35555
G1 X80.061 Y62.617 E44.37190
G1 X94.332 Y76.887 E45.16084
G1 X93.913 Y76.887 E45.17719
G1 X79.643 Y62.617 E45.96613
G1 X79.225 Y62.617 E45.98249
G1 X93.495 Y76.887 E46.77143
G1 X93.077 Y76.887 E46.78778
G1 X78.806 Y62.617 E47.57672
G1 X78.388 Y62.617 E47.59307
G1 X92.659 Y76.887 E48.38201
G1 X92.240 Y76.887 E48.39836
G1 X77.970 Y62.617 E49.18730
G1 X77.552 Y62.617 E49.20366
G1 X91.822 Y76.887 E49.99260
G1 X91.404 Y76.887 E50.00895
G1 X77.133 Y62.617 E50.79789
G1 X76.715 Y62.617 E50.81424
G1 X90.985 Y76.887 E51.60318
G1 X90.567 Y76.887 E51.61953
G1 X76.297 Y62.617 E52.40848
G1 X75.878 Y62.617 E52.42483
G1 X90.149 Y76.887 E53.21377
G1 X89.731 Y76.887 E53.23012
G1 X75.460 Y62.617 E54.01906
G1 X75.042 Y62.617 E54.03541
G1 X89.312 Y76.887 E54.82435
G1 X88.894 Y76.887 E54.84071
G1 X74.624 Y62.617 E55.62965
G1 X74.205 Y62.617 E55.64600
G1 X88.476 Y76.887 E56.43494
G1 X88.057 Y76.887 E56.45129
G1 X73.787 Y62.617 E57.24023
G1 X73.369 Y62.617 E57.25658
G1 X87.639 Y76.887 E58.04553
G1 X87.221 Y76.887 E58.06188
G1 X72.950 Y62.617 E58.85082
G1 X72.532 Y62.617 E58.86717
G1 X86.803 Y76.887 E59.65611
G1 X86.384 Y76.887 E59.67246
G1 X72.114 Y62.617 E60.46140
G1 X71.696 Y62.617 E60.47776
G1 X85.966 Y76.887 E61.26670
G1 X85.548 Y76.887 E61.28305
G1 X71.277 Y62.617 E62.07199
G1 X70.859 Y62.617 E62.08834
G1 X85.129 Y76.887 E62.87728
G1 X84.711 Y76.887 E62.89363
G1 X70.441 Y62.617 E63.68257
G1 X70.022 Y62.617 E63.69893
G1 X84.293 Y76.887 E64.48787
G1 X83.875 Y76.887 E64.50422
G1 X69.604 Y62.617 E65.29316
G1 X69.186 Y62.617 E65.30951
G1 X83.456 Y76.887 E66.09845
G1 X83.038 Y76.887 E66.11480
G1 X68.768 Y62.617 E66.90375
G1 X68.349 Y62.617 E66.92010
G1 X82.620 Y76.887 E67.70904
G1 X82.201 Y76.887 E67.72539
G1 X67.931 Y62.617 E68.51433
G1 X67.513 Y62.617 E68.53068
G1 X81.783 Y76.887 E69.31962
G1 X81.365 Y76.887 E69.33598
G1 X67.094 Y62.617 E70.12492
G1 X66.676 Y62.617 E70.14127
G1 X80.947 Y76.887 E70.93021
G1 X80.528 Y76.887 E70.94656
G1 X66.258 Y62.617 E71.73550
G1 X65.840 Y62.617 E71.75185
G1 X80.110 Y76.887 E72.54079
G1 X79.692 Y76.887 E72.55715
G1 X65.421 Y62.617 E73.34609
G1 X65.003 Y62.617 E73.36244
G1 X79.273 Y76.887 E74.15138
G1 X78.855 Y76.887 E74.16773
G1 X64.585 Y62.617 E74.95667
G1 X64.166 Y62.617 E74.97302
G1 X78.437 Y76.887 E75.76197
G1 X78.019 Y76.887 E75.77832
G1 X63.748 Y62.617 E76.56726
G1 X63.330 Y62.617 E76.58361
G1 X77.600 Y76.887 E77.37255
G1 X77.182 Y76.887 E77.38890
G1 X62.912 Y62.617 E78.17784
G1 X62.493 Y62.617 E78.19420
G1 X76.764 Y76.887 E78.98314
G1 X76.345 Y76.887 E78.99949
G1 X62.075 Y62.617 E79.78843
G1 X61.657 Y62.617 E79.80478
G1 X75.927 Y76.887 E80.59372
G1 X75.509 Y76.887 E80.61007
G1 X61.238 Y62.617 E81.39902
G1 X60.820 Y62.617 E81.41537
G1 X75.091 Y76.887 E82.20431
G1 X74.672 Y76.887 E82.22066
G1 X60.402 Y62.617 E83.00960
G1 X59.984 Y62.617 E83.02595
G1 X74.254 Y76.887 E83.81489
G1 X73.836 Y76.887 E83.83125
G1 X59.565 Y62.617 E84.62019
G1 X59.147 Y62.617 E84.63654
G1 X73.417 Y76.887 E85.42548
G1 X72.999 Y76.887 E85.44183
G1 X58.729 Y62.617 E86.23077
G1 X58.310 Y62.617 E86.24712
G1 X72.581 Y76.887 E87.03606
G1 X72.163 Y76.887 E87.05242
G1 X57.892 Y62.617 E87.84136
G1 X57.775 Y62.918 E87.85400
G1 X71.744 Y76.887 E88.62626
G1 X71.326 Y76.887 E88.64262
G1 X57.775 Y63.337 E89.39176
G1 X57.775 Y63.755 E89.40811
G1 X70.908 Y76.887 E90.13412
G1 X70.489 Y76.887 E90.15047
G1 X57.775 Y64.173 E90.85336
G1 X57.775 Y64.591 E90.86971
G1 X70.071 Y76.887 E91.54948
G1 X69.653 Y76.887 E91.56583
G1 X57.775 Y65.010 E92.22247
G1 X57.775 Y65.428 E92.23882
G1 X69.235 Y76.887 E92.87234
G1 X68.816 Y76.887 E92.88869
G1 X57.775 Y65.846 E93.49908
G1 X57.775 Y66.265 E93.51543
G1 X68.398 Y76.887 E94.10269
G1 X67.980 Y76.887 E94.11905
G1 X57.775 Y66.683 E94.68319
G1 X57.775 Y67.101 E94.69954
G1 X67.561 Y76.887 E95.24055
G1 X67.143 Y76.887 E95.25690
G1 X57.775 Y67.520 E95.77479
G1 X57.775 Y67.938 E95.79115
G1 X66.725 Y76.887 E96.28591
G1 X66.307 Y76.887 E96.30226
G1 X57.775 Y68.356 E96.77390
G1 X57.775 Y68.774 E96.79025
G1 X65.888 Y76.887 E97.23877
G1 X65.470 Y76.887 E97.25512
G1 X57.775 Y69.193 E97.68051
G1 X57.775 Y69.611 E97.69686
G1 X65.052 Y76.887 E98.09913
G1 X64.633 Y76.887 E98.11548
G1 X57.775 Y70.029 E98.49462
G1 X57.775 Y70.448 E98.51097
G1 X64.215 Y76.887 E98.86698
G1 X63.797 Y76.887 E98.88334
G1 X57.775 Y70.866 E99.21623
G1 X57.775 Y71.284 E99.23258
G1 X63.379 Y76.887 E99.54234
G1 X62.960 Y76.887 E99.55869
G1 X57.775 Y71.702 E99.84533
G1 X57.775 Y72.121 E99.86169
G1 X62.542 Y76.887 E100.12520
G1 X62.124 Y76.887 E100.14155
G1 X57.775 Y72.539 E100.38194
G1 X57.775 Y72.957 E100.39829
G1 X61.705 Y76.887 E100.61556
G1 X61.287 Y76.887 E100.63191
G1 X57.775 Y73.376 E100.82605
G1 X57.775 Y73.794 E100.84240
G1 X60.869 Y76.887 E101.01342
G1 X60.451 Y76.887 E101.02977
G1 X57.775 Y74.212 E101.17766
G1 X57.775 Y74.630 E101.19401
G1 X60.032 Y76.887 E101.31878
G1 X59.614 Y76.887 E101.33513
G1 X57.775 Y75.049 E101.43677
G1 X57.775 Y75.467 E101.45312
G1 X59.196 Y76.887 E101.53164
G1 X58.777 Y76.887 E101.54799
G1 X57.775 Y75.885 E101.60338
G1 X57.775 Y76.304 E101.61973
G1 X58.359 Y76.887 E101.65200
G1 X57.941 Y76.887 E101.66835
G1 X57.775 Y76.722 E101.67749
G1 E100.67749 F1800.00000
G92 E0
G1 Z0.300 F7800.000
G1 X57.436 Y82.944 F7800.000
G1 E1.00000 F1800.00000
G1 X102.393 Y82.944 E2.75658 F900.000
G1 X102.393 Y97.552 E3.32733
G1 X57.436 Y97.552 E5.08391
G1 X57.436 Y82.997 E5.65261
G1 X57.140 Y82.649 F7800.000
G1 X102.689 Y82.649 E7.43229 F900.000
G1 X102.689 Y97.847 E8.02614
G1 X57.140 Y97.847 E9.80583
G1 X57.140 Y82.701 E10.39762
G1 X56.844 Y82.353 F7800.000
G1 X102.984 Y82.353 E12.20041 F540.000
G1 X102.984 Y98.143 E12.81736
G1 X56.844 Y98.143 E14.62014
G1 X56.844 Y82.406 E15.23504
G1 X57.147 Y82.528 F7800.000
G1 X57.604 Y97.218 F7800.000
G1 X57.769 Y97.383 E15.24418 F360.000
G1 X58.188 Y97.383 E15.26053
G1 X57.604 Y96.800 E15.29280
G1 X57.604 Y96.381 E15.30915
G1 X58.606 Y97.383 E15.36454
G1 X59.024 Y97.383 E15.38089
G1 X57.604 Y95.963 E15.45941
G1 X57.604 Y95.545 E15.47576
G1 X59.443 Y97.383 E15.57740
G1 X59.861 Y97.383 E15.59375
G1 X57.604 Y95.127 E15.71851
G1 X57.604 Y94.708 E15.73487
G1 X60.279 Y97.383 E15.88276
G1 X60.697 Y97.383 E15.89911
G1 X57.604 Y94.290 E16.07012
G1 X57.604 Y93.872 E16.08647
G1 X61.116 Y97.383 E16.28061
G1 X61.534 Y97.383 E16.29697
G1 X57.604 Y93.453 E16.51423
G1 X57.604 Y93.035 E16.53058
G1 X61.952 Y97.383 E16.77097
G1 X62.371 Y97.383 E16.78732
G1 X57.604 Y92.617 E17.05084
G1 X57.604 Y92.199 E17.06719
G1 X62.789 Y97.383 E17.35383
G1 X63.207 Y97.383 E17.37018
G1 X57.604 Y91.780 E17.67995
G1 X57.604 Y91.362 E17.69630
G1 X63.625 Y97.383 E18.02919
G1 X64.044 Y97.383 E18.04554
G1 X57.604 Y90.944 E18.40156
G1 X57.604 Y90.525 E18.41791
G1 X64.462 Y97.383 E18.79705
G1 X64.880 Y97.383 E18.81340
G1 X57.604 Y90.107 E19.21566
G1 X57.604 Y89.689 E19.23202
G1 X65.299 Y97.383 E19.65741
G1 X65.717 Y97.383 E19.67376
G1 X57.604 Y89.271 E20.12227
G1 X57.604 Y88.852 E20.13862
G1 X66.135 Y97.383 E20.61026
G1 X66.553 Y97.383 E20.62662
G1 X57.604 Y88.434 E21.12138
G1 X57.604 Y88.016 E21.13773
G1 X66.972 Y97.383 E21.65562
G1 X67.390 Y97.383 E21.67197
G1 X57.604 Y87.597 E22.21299
G1 X57.604 Y87.179 E22.22934
G1 X67.808 Y97.383 E22.79348
G1 X68.227 Y97.383 E22.80983
G1 X57.604 Y86.761 E23.39710
G1 X57.604 Y86.343 E23.41345
G1 X68.645 Y97.383 E24.02384
G1 X69.063 Y97.383 E24.04019
G1 X57.604 Y85.924 E24.67370
G1 X57.604 Y85.506 E24.69006
G1 X69.481 Y97.383 E25.34670
G1 X69.900 Y97.383 E25.36305
G1 X57.604 Y85.088 E26.04281
G1 X57.604 Y84.669 E26.05916
G1 X70.318 Y97.383 E26.76205
G1 X70.736 Y97.383 E26.77840
G1 X57.604 Y84.251 E27.50442
G1 X57.604 Y83.833 E27.52077
G1 X71.155 Y97.383 E28.26991
G1 X71.573 Y97.383 E28.28626
G1 X57.604 Y83.415 E29.05853
G1 X57.721 Y83.113 E29.07117
G1 X71.991 Y97.383 E29.86011
G1 X72.409 Y97.383 E29.87646
G1 X58.139 Y83.113 E30.66540
G1 X58.557 Y83.113 E30.68176
G1 X72.828 Y97.383 E31.47070
G1 X73.246 Y97.383 E31.48705
G1 X58.976 Y83.113 E32.27599
G1 X59.394 Y83.113 E32.29234
G1 X73.664 Y97.383 E33.08128
G1 X74.083 Y97.383 E33.09763
G1 X59.812 Y83.113 E33.88657
G1 X60.230 Y83.113 E33.90293
G1 X74.501 Y97.383 E34.69187
G1 X74.919 Y97.383 E34.70822
G1 X60.649 Y83.113 E35.49716
G1 X61.067 Y83.113 E35.51351
G1 X75.337 Y97.383 E36.30245
G1 X75.756 Y97.383 E36.31880
G1 X61.485 Y83.113 E37.10775
G1 X61.904 Y83.113 E37.12410
G1 X76.174 Y97.383 E37.91304
G1 X76.592 Y97.383 E37.92939
G1 X62.322 Y83.113 E38.71833
G1 X62.740 Y83.113 E38.73468
G1 X77.011 Y97.383 E39.52362
G1 X77.429 Y97.383 E39.53998
G1 X63.158 Y83.113 E40.32892
G1 X63.577 Y83.113 E40.34527
G1 X77.847 Y97.383 E41.13421
G1 X78.265 Y97.383 E41.15056
G1 X63.995 Y83.113 E41.93950
G1 X64.413 Y83.113 E41.95585
G1 X78.684 Y97.383 E42.74479
G1 X79.102 Y97.383 E42.76115
G1 X64.832 Y83.113 E43.55009
G1 X65.250 Y83.113 E43.56644
G1 X79.520 Y97.383 E44.35538
G1 X79.939 Y97.383 E44.37173
G1 X65.668 Y83.113 E45.16067
G1 X66.086 Y83.113 E45.17702
G1 X80.357 Y97.383 E45.96597
G1 X80.775 Y97.383 E45.98232
G1 X66.505 Y83.113 E46.77126
G1 X66.923 Y83.113 E46.78761
G1 X81.193 Y97.383 E47.57655
G1 X81.612 Y97.383 E47.59290
G1 X67.341 Y83.113 E48.38184
G1 X67.760 Y83.113 E48.39820
G1 X82.030 Y97.383 E49.18714
G1 X82.448 Y97.383 E49.20349
G1 X68.178 Y83.113 E49.99243
G1 X68.596 Y83.113 E50.00878
G1 X82.867 Y97.383 E50.79772
G1 X83.285 Y97.383 E50.81407
G1 X69.014 Y83.113 E51.60302
G1 X69.433 Y83.113 E51.61937
G1 X83.703 Y97.383 E52.40831
G1 X84.121 Y97.383 E52.42466
G1 X69.851 Y83.113 E53.21360
G1 X70.269 Y83.113 E53.22995
G1 X84.540 Y97.383 E54.01889
G1 X84.958 Y97.383 E54.03525
G1 X70.688 Y83.113 E54.82419
G1 X71.106 Y83.113 E54.84054
G1 X85.376 Y97.383 E55.62948
G1 X85.795 Y97.383 E55.64583
G1 X71.524 Y83.113 E56.43477
G1 X71.942 Y83.113 E56.45112
G1 X86.213 Y97.383 E57.24006
G1 X86.631 Y97.383 E57.25642
G1 X72.361 Y83.113 E58.04536
G1 X72.779 Y83.113 E58.06171
G1 X87.049 Y97.383 E58.85065
G1 X87.468 Y97.383 E58.86700
G1 X73.197 Y83.113 E59.65594
G1 X73.616 Y83.113 E59.67229
G1 X87.886 Y97.383 E60.46124
G1 X88.304 Y97.383 E60.47759
G1 X74.034 Y83.113 E61.26653
G1 X74.452 Y83.113 E61.28288
G1 X88.723 Y97.383 E62.07182
G1 X89.141 Y97.383 E62.08817
G1 X74.870 Y83.113 E62.87711
G1 X75.289 Y83.113 E62.89347
G1 X89.559 Y97.383 E63.68241
G1 X89.977 Y97.383 E63.69876
G1 X75.707 Y83.113 E64.48770
G1 X76.125 Y83.113 E64.50405
G1 X90.396 Y97.383 E65.29299
G1 X90.814 Y97.383 E65.30934
G1 X76.544 Y83.113 E66.09828
G1 X76.962 Y83.113 E66.11464
G1 X91.232 Y97.383 E66.90358
G1 X91.651 Y97.383 E66.91993
G1 X77.380 Y83.113 E67.70887
G1 X77.798 Y83.113 E67.72522
G1 X92.069 Y97.383 E68.51416
G1 X92.487 Y97.383 E68.53052
G1 X78.217 Y83.113 E69.31946
G1 X78.635 Y83.113 E69.33581
G1 X92.905 Y97.383 E70.12475
G1 X93.324 Y97.383 E70.14110
G1 X79.053 Y83.113 E70.93004
G1 X79.472 Y83.113 E70.94639
G1 X93.742 Y97.383 E71.73533
G1 X94.160 Y97.383 E71.75169
G1 X79.890 Y83.113 E72.54063
G1 X80.308 Y83.113 E72.55698
G1 X94.579 Y97.383 E73.34592
G1 X94.997 Y97.383 E73.36227
G1 X80.726 Y83.113 E74.15121
G1 X81.145 Y83.113 E74.16756
G1 X95.415 Y97.383 E74.95651
G1 X95.833 Y97.383 E74.97286
G1 X81.563 Y83.113 E75.76180
G1 X81.981 Y83.113 E75.77815
G1 X96.252 Y97.383 E76.56709
G1 X96.670 Y97.383 E76.58344
G1 X82.400 Y83.113 E77.37238
G1 X82.818 Y83.113 E77.38874
G1 X97.088 Y97.383 E78.17768
G1 X97.507 Y97.383 E78.19403
G1 X83.236 Y83.113 E78.98297
