; generated by Slic3r 1.2.9 on 2019-12-08 at 09:29:00

; external perimeters extrusion width = 0.35mm
; perimeters extrusion width = 0.44mm
; infill extrusion width = 0.44mm
; solid infill extrusion width = 0.44mm
; top infill extrusion width = 0.44mm

M107
M190 S100 ; set bed temperature
M104 S240 ; set temperature
G28 ; home all axes
G1 Z5 F5000 ; lift nozzle
M109 S240 ; wait for temperature to be reached
G21 ; set units to millimeters
G90 ; use absolute coordinates
M82 ; use absolute distances for extrusion
G92 E0
G1 E-1.00000 F1800.00000
G92 E0
G1 Z0.300 F7800.000
G1 X55.839 Y60.929 F7800.000
G1 E1.00000 F1800.00000
G1 X56.750 Y60.554 E1.03849 F1080.000
G1 X103.250 Y60.554 E2.85534
G1 X104.171 Y60.939 E2.89434
G1 X104.546 Y61.850 E2.93283
G1 X104.546 Y98.150 E4.35114
G1 X104.161 Y99.071 E4.39015
G1 X103.250 Y99.446 E4.42863
G1 X56.750 Y99.446 E6.24548
G1 X55.829 Y99.061 E6.28449
G1 X55.454 Y98.150 E6.32297
G1 X55.454 Y61.850 E7.74129
G1 X55.819 Y60.977 E7.77824
G1 E6.77824 F1800.00000
G92 E0
G1 X102.479 Y76.229 F7800.000
G1 E1.00000 F1800.00000
G1 X57.521 Y76.229 E2.75658 F900.000
G1 X57.521 Y62.621 E3.28826
G1 X102.479 Y62.621 E5.04484
G1 X102.479 Y76.176 E5.57447
G1 X102.774 Y76.524 F7800.000
G1 X57.226 Y76.524 E7.35415 F900.000
G1 X57.226 Y62.326 E7.90893
G1 X102.774 Y62.326 E9.68861
G1 X102.774 Y76.472 E10.24133
G1 X103.070 Y76.820 F7800.000
G1 X56.930 Y76.820 E12.04412 F540.000
G1 X56.930 Y62.030 E12.62200
G1 X103.070 Y62.030 E14.42478
G1 X103.070 Y76.768 E15.00061
G1 X102.767 Y76.645 F7800.000
G1 X102.310 Y62.955 F7800.000
G1 X102.145 Y62.790 E15.00979 F360.000
G1 X101.725 Y62.790 E15.02629
G1 X102.310 Y63.375 E15.05881
G1 X102.310 Y63.795 E15.07530
G1 X101.304 Y62.790 E15.13115
G1 X100.884 Y62.790 E15.14765
G1 X102.310 Y64.216 E15.22683
G1 X102.310 Y64.636 E15.24333
G1 X100.464 Y62.790 E15.34584
G1 X100.044 Y62.790 E15.36234
G1 X102.310 Y65.056 E15.48818
G1 X102.310 Y65.476 E15.50467
G1 X99.624 Y62.790 E15.65385
G1 X99.204 Y62.790 E15.67035
G1 X102.310 Y65.896 E15.84285
G1 X102.310 Y66.316 E15.85935
G1 X98.784 Y62.790 E16.05518
G1 X98.363 Y62.790 E16.07168
G1 X102.310 Y66.737 E16.29085
G1 X102.310 Y67.157 E16.30734
G1 X97.943 Y62.790 E16.54984
G1 X97.523 Y62.790 E16.56634
G1 X102.310 Y67.577 E16.83217
G1 X102.310 Y67.997 E16.84866
G1 X97.103 Y62.790 E17.13782
G1 X96.683 Y62.790 E17.15432
G1 X102.310 Y68.417 E17.46681
G1 X102.310 Y68.837 E17.48331
G1 X96.263 Y62.790 E17.81913
G1 X95.843 Y62.790 E17.83563
G1 X102.310 Y69.257 E18.19478
G1 X102.310 Y69.678 E18.21128
G1 X95.422 Y62.790 E18.59376
G1 X95.002 Y62.790 E18.61026
G1 X102.310 Y70.098 E19.01607
G1 X102.310 Y70.518 E19.03257
G1 X94.582 Y62.790 E19.46172
G1 X94.162 Y62.790 E19.47822
G1 X102.310 Y70.938 E19.93069
G1 X102.310 Y71.358 E19.94719
G1 X93.742 Y62.790 E20.42300
G1 X93.322 Y62.790 E20.43950
G1 X102.310 Y71.778 E20.93864
G1 X102.310 Y72.198 E20.95513
G1 X92.902 Y62.790 E21.47760
G1 X92.481 Y62.790 E21.49410
G1 X102.310 Y72.619 E22.03990
G1 X102.310 Y73.039 E22.05640
G1 X92.061 Y62.790 E22.62553
G1 X91.641 Y62.790 E22.64203
G1 X102.310 Y73.459 E23.23450
G1 X102.310 Y73.879 E23.25099
G1 X91.221 Y62.790 E23.86679
G1 X90.801 Y62.790 E23.88329
G1 X102.310 Y74.299 E24.52241
G1 X102.310 Y74.719 E24.53891
G1 X90.381 Y62.790 E25.20137
G1 X89.961 Y62.790 E25.21786
G1 X102.310 Y75.139 E25.90365
G1 X102.310 Y75.560 E25.92015
G1 X89.540 Y62.790 E26.62927
G1 X89.120 Y62.790 E26.64577
G1 X102.310 Y75.980 E27.37822
G1 X101.971 Y76.060 E27.39193
G1 X88.700 Y62.790 E28.12884
G1 X88.280 Y62.790 E28.14534
G1 X101.550 Y76.060 E28.88226
G1 X101.130 Y76.060 E28.89876
G1 X87.860 Y62.790 E29.63568
G1 X87.440 Y62.790 E29.65217
G1 X100.710 Y76.060 E30.38909
G1 X100.290 Y76.060 E30.40559
G1 X87.020 Y62.790 E31.14251
G1 X86.599 Y62.790 E31.15901
G1 X99.870 Y76.060 E31.89593
G1 X99.450 Y76.060 E31.91242
G1 X86.179 Y62.790 E32.64934
G1 X85.759 Y62.790 E32.66584
G1 X99.029 Y76.060 E33.40276
G1 X98.609 Y76.060 E33.41926
G1 X85.339 Y62.790 E34.15617
G1 X84.919 Y62.790 E34.17267
G1 X98.189 Y76.060 E34.90959
G1 X97.769 Y76.060 E34.92609
G1 X84.499 Y62.790 E35.66301
G1 X84.078 Y62.790 E35.67950
G1 X97.349 Y76.060 E36.41642
G1 X96.929 Y76.060 E36.43292
G1 X83.658 Y62.790 E37.16984
G1 X83.238 Y62.790 E37.18634
G1 X96.509 Y76.060 E37.92326
G1 X96.088 Y76.060 E37.93975
G1 X82.818 Y62.790 E38.67667
G1 X82.398 Y62.790 E38.69317
G1 X95.668 Y76.060 E39.43009
G1 X95.248 Y76.060 E39.44659
G1 X81.978 Y62.790 E40.18350
G1 X81.558 Y62.790 E40.20000
G1 X94.828 Y76.060 E40.93692
G1 X94.408 Y76.060 E40.95342
G1 X81.137 Y62.790 E41.69034
G1 X80.717 Y62.790 E41.70683
G1 X93.988 Y76.060 E42.44375
G1 X93.568 Y76.060 E42.46025
G1 X80.297 Y62.790 E43.19717
G1 X79.877 Y62.790 E43.21367
G1 X93.147 Y76.060 E43.95059
G1 X92.727 Y76.060 E43.96708
G1 X79.457 Y62.790 E44.70400
G1 X79.037 Y62.790 E44.72050
G1 X92.307 Y76.060 E45.45742
G1 X91.887 Y76.060 E45.47392
G1 X78.617 Y62.790 E46.21084
G1 X78.196 Y62.790 E46.22733
G1 X91.467 Y76.060 E46.96425
G1 X91.047 Y76.060 E46.98075
G1 X77.776 Y62.790 E47.71767
G1 X77.356 Y62.790 E47.73417
G1 X90.627 Y76.060 E48.47108
G1 X90.206 Y76.060 E48.48758
G1 X76.936 Y62.790 E49.22450
G1 X76.516 Y62.790 E49.24100
G1 X89.786 Y76.060 E49.97792
G1 X89.366 Y76.060 E49.99441
G1 X76.096 Y62.790 E50.73133
G1 X75.676 Y62.790 E50.74783
G1 X88.946 Y76.060 E51.48475
G1 X88.526 Y76.060 E51.50125
G1 X75.255 Y62.790 E52.23817
G1 X74.835 Y62.790 E52.25466
G1 X88.106 Y76.060 E52.99158
G1 X87.686 Y76.060 E53.00808
G1 X74.415 Y62.790 E53.74500
G1 X73.995 Y62.790 E53.76150
G1 X87.265 Y76.060 E54.49841
G1 X86.845 Y76.060 E54.51491
G1 X73.575 Y62.790 E55.25183
G1 X73.155 Y62.790 E55.26833
G1 X86.425 Y76.060 E56.00525
G1 X86.005 Y76.060 E56.02174
G1 X72.735 Y62.790 E56.75866
G1 X72.314 Y62.790 E56.77516
G1 X85.585 Y76.060 E57.51208
G1 X85.165 Y76.060 E57.52858
G1 X71.894 Y62.790 E58.26550
G1 X71.474 Y62.790 E58.28199
G1 X84.745 Y76.060 E59.01891
G1 X84.324 Y76.060 E59.03541
G1 X71.054 Y62.790 E59.77233
G1 X70.634 Y62.790 E59.78883
G1 X83.904 Y76.060 E60.52574
G1 X83.484 Y76.060 E60.54224
G1 X70.214 Y62.790 E61.27916
G1 X69.793 Y62.790 E61.29566
G1 X83.064 Y76.060 E62.03258
G1 X82.644 Y76.060 E62.04907
G1 X69.373 Y62.790 E62.78599
G1 X68.953 Y62.790 E62.80249
G1 X82.224 Y76.060 E63.53941
G1 X81.803 Y76.060 E63.55591
G1 X68.533 Y62.790 E64.29283
G1 X68.113 Y62.790 E64.30932
G1 X81.383 Y76.060 E65.04624
G1 X80.963 Y76.060 E65.06274
G1 X67.693 Y62.790 E65.79966
G1 X67.273 Y62.790 E65.81616
G1 X80.543 Y76.060 E66.55308
G1 X80.123 Y76.060 E66.56957
G1 X66.852 Y62.790 E67.30649
G1 X66.432 Y62.790 E67.32299
G1 X79.703 Y76.060 E68.05991
G1 X79.283 Y76.060 E68.07641
G1 X66.012 Y62.790 E68.81332
G1 X65.592 Y62.790 E68.82982
G1 X78.862 Y76.060 E69.56674
G1 X78.442 Y76.060 E69.58324
G1 X65.172 Y62.790 E70.32016
G1 X64.752 Y62.790 E70.33665
G1 X78.022 Y76.060 E71.07357
G1 X77.602 Y76.060 E71.09007
G1 X64.332 Y62.790 E71.82699
G1 X63.911 Y62.790 E71.84349
G1 X77.182 Y76.060 E72.58041
G1 X76.762 Y76.060 E72.59690
G1 X63.491 Y62.790 E73.33382
G1 X63.071 Y62.790 E73.35032
G1 X76.342 Y76.060 E74.08724
G1 X75.921 Y76.060 E74.10374
G1 X62.651 Y62.790 E74.84065
G1 X62.231 Y62.790 E74.85715
G1 X75.501 Y76.060 E75.59407
G1 X75.081 Y76.060 E75.61057
G1 X61.811 Y62.790 E76.34749
G1 X61.391 Y62.790 E76.36398
G1 X74.661 Y76.060 E77.10090
G1 X74.241 Y76.060 E77.11740
G1 X60.970 Y62.790 E77.85432
G1 X60.550 Y62.790 E77.87082
G1 X73.821 Y76.060 E78.60774
G1 X73.401 Y76.060 E78.62423
G1 X60.130 Y62.790 E79.36115
G1 X59.710 Y62.790 E79.37765
G1 X72.980 Y76.060 E80.11457
G1 X72.560 Y76.060 E80.13107
G1 X59.290 Y62.790 E80.86798
G1 X58.870 Y62.790 E80.88448
G1 X72.140 Y76.060 E81.62140
G1 X71.720 Y76.060 E81.63790
G1 X58.450 Y62.790 E82.37482
G1 X58.029 Y62.790 E82.39131
G1 X71.300 Y76.060 E83.12823
G1 X70.880 Y76.060 E83.14473
G1 X57.690 Y62.870 E83.87718
G1 X57.690 Y63.290 E83.89367
G1 X70.460 Y76.060 E84.60279
G1 X70.039 Y76.060 E84.61929
G1 X57.690 Y63.711 E85.30507
G1 X57.690 Y64.131 E85.32157
G1 X69.619 Y76.060 E85.98402
G1 X69.199 Y76.060 E86.00052
G1 X57.690 Y64.551 E86.63964
G1 X57.690 Y64.971 E86.65614
G1 X68.779 Y76.060 E87.27193
G1 X68.359 Y76.060 E87.28842
G1 X57.690 Y65.391 E87.88088
G1 X57.690 Y65.811 E87.89738
G1 X67.939 Y76.060 E88.46651
G1 X67.518 Y76.060 E88.48301
G1 X57.690 Y66.232 E89.02880
G1 X57.690 Y66.652 E89.04530
G1 X67.098 Y76.060 E89.56777
G1 X66.678 Y76.060 E89.58426
G1 X57.690 Y67.072 E90.08340
G1 X57.690 Y67.492 E90.09990
G1 X66.258 Y76.060 E90.57570
G1 X65.838 Y76.060 E90.59220
G1 X57.690 Y67.912 E91.04467
G1 X57.690 Y68.332 E91.06117
G1 X65.418 Y76.060 E91.49031
G1 X64.998 Y76.060 E91.50680
G1 X57.690 Y68.752 E91.91262
G1 X57.690 Y69.173 E91.92911
G1 X64.577 Y76.060 E92.31159
G1 X64.157 Y76.060 E92.32809
G1 X57.690 Y69.593 E92.68724
G1 X57.690 Y70.013 E92.70373
G1 X63.737 Y76.060 E93.03955
G1 X63.317 Y76.060 E93.05605
G1 X57.690 Y70.433 E93.36853
G1 X57.690 Y70.853 E93.38503
G1 X62.897 Y76.060 E93.67419
G1 X62.477 Y76.060 E93.69068
G1 X57.690 Y71.273 E93.95651
G1 X57.690 Y71.693 E93.97300
G1 X62.057 Y76.060 E94.21550
G1 X61.636 Y76.060 E94.23199
G1 X57.690 Y72.114 E94.45116
G1 X57.690 Y72.534 E94.46765
G1 X61.216 Y76.060 E94.66348
G1 X60.796 Y76.060 E94.67998
G1 X57.690 Y72.954 E94.85248
G1 X57.690 Y73.374 E94.86898
G1 X60.376 Y76.060 E95.01814
G1 X59.956 Y76.060 E95.03464
G1 X57.690 Y73.794 E95.16048
G1 X57.690 Y74.214 E95.17698
G1 X59.536 Y76.060 E95.27948
G1 X59.116 Y76.060 E95.29598
G1 X57.690 Y74.634 E95.37515
G1 X57.690 Y75.055 E95.39165
G1 X58.695 Y76.060 E95.44749
G1 X58.275 Y76.060 E95.46399
G1 X57.690 Y75.475 E95.49650
G1 X57.690 Y75.895 E95.51300
G1 X57.855 Y76.060 E95.52218
G1 E94.52218 F1800.00000
G92 E0
G1 Z0.300 F7800.000
G1 X57.521 Y83.771 F7800.000
G1 E1.00000 F1800.00000
G1 X102.479 Y83.771 E2.75658 F900.000
G1 X102.479 Y97.379 E3.28826
G1 X57.521 Y97.379 E5.04484
G1 X57.521 Y83.824 E5.57447
G1 X57.226 Y83.476 F7800.000
G1 X102.774 Y83.476 E7.35415 F900.000
G1 X102.774 Y97.674 E7.90893
G1 X57.226 Y97.674 E9.68861
G1 X57.226 Y83.528 E10.24133
G1 X56.930 Y83.180 F7800.000
G1 X103.070 Y83.180 E12.04412 F540.000
G1 X103.070 Y97.970 E12.62200
G1 X56.930 Y97.970 E14.42478
G1 X56.930 Y83.233 E15.00061
G1 X57.233 Y83.355 F7800.000
G1 X57.855 Y97.210 F7800.000
G1 X57.690 Y97.045 E15.00979 F360.000
G1 X57.690 Y96.625 E15.02628
G1 X58.275 Y97.210 E15.05880
G1 X58.695 Y97.210 E15.07529
G1 X57.690 Y96.205 E15.13114
G1 X57.690 Y95.784 E15.14764
G1 X59.116 Y97.210 E15.22681
G1 X59.536 Y97.210 E15.24331
G1 X57.690 Y95.364 E15.34581
G1 X57.690 Y94.944 E15.36231
G1 X59.956 Y97.210 E15.48815
G1 X60.376 Y97.210 E15.50464
G1 X57.690 Y94.524 E15.65381
G1 X57.690 Y94.104 E15.67031
G1 X60.796 Y97.210 E15.84281
G1 X61.216 Y97.210 E15.85931
G1 X57.690 Y93.684 E16.05514
G1 X57.690 Y93.264 E16.07163
G1 X61.636 Y97.210 E16.29079
G1 X62.057 Y97.210 E16.30729
G1 X57.690 Y92.843 E16.54978
G1 X57.690 Y92.423 E16.56628
G1 X62.477 Y97.210 E16.83211
G1 X62.897 Y97.210 E16.84860
G1 X57.690 Y92.003 E17.13776
G1 X57.690 Y91.583 E17.15426
G1 X63.317 Y97.210 E17.46674
G1 X63.737 Y97.210 E17.48324
G1 X57.690 Y91.163 E17.81906
G1 X57.690 Y90.743 E17.83555
G1 X64.157 Y97.210 E18.19470
G1 X64.577 Y97.210 E18.21120
G1 X57.690 Y90.323 E18.59368
G1 X57.690 Y89.902 E18.61017
G1 X64.998 Y97.210 E19.01598
G1 X65.418 Y97.210 E19.03248
G1 X57.690 Y89.482 E19.46162
G1 X57.690 Y89.062 E19.47812
G1 X65.838 Y97.210 E19.93059
G1 X66.258 Y97.210 E19.94709
G1 X57.690 Y88.642 E20.42289
G1 X57.690 Y88.222 E20.43939
G1 X66.678 Y97.210 E20.93853
G1 X67.098 Y97.210 E20.95502
G1 X57.690 Y87.802 E21.47749
G1 X57.690 Y87.382 E21.49399
G1 X67.518 Y97.210 E22.03978
G1 X67.939 Y97.210 E22.05628
G1 X57.690 Y86.961 E22.62541
G1 X57.690 Y86.541 E22.64191
G1 X68.359 Y97.210 E23.23437
G1 X68.779 Y97.210 E23.25086
G1 X57.690 Y86.121 E23.86665
G1 X57.690 Y85.701 E23.88315
G1 X69.199 Y97.210 E24.52227
G1 X69.619 Y97.210 E24.53877
G1 X57.690 Y85.281 E25.20122
G1 X57.690 Y84.861 E25.21772
G1 X70.039 Y97.210 E25.90350
G1 X70.460 Y97.210 E25.92000
G1 X57.690 Y84.440 E26.62912
G1 X57.690 Y84.020 E26.64561
G1 X70.880 Y97.210 E27.37806
G1 X71.300 Y97.210 E27.39456
G1 X58.029 Y83.940 E28.13148
G1 X58.450 Y83.940 E28.14797
G1 X71.720 Y97.210 E28.88489
G1 X72.140 Y97.210 E28.90139
G1 X58.870 Y83.940 E29.63831
G1 X59.290 Y83.940 E29.65481
G1 X72.560 Y97.210 E30.39173
G1 X72.980 Y97.210 E30.40822
G1 X59.710 Y83.940 E31.14514
G1 X60.130 Y83.940 E31.16164
G1 X73.401 Y97.210 E31.89856
G1 X73.821 Y97.210 E31.91506
G1 X60.550 Y83.940 E32.65197
G1 X60.970 Y83.940 E32.66847
G1 X74.241 Y97.210 E33.40539
G1 X74.661 Y97.210 E33.42189
G1 X61.391 Y83.940 E34.15881
G1 X61.811 Y83.940 E34.17531
G1 X75.081 Y97.210 E34.91222
G1 X75.501 Y97.210 E34.92872
G1 X62.231 Y83.940 E35.66564
G1 X62.651 Y83.940 E35.68214
G1 X75.921 Y97.210 E36.41906
G1 X76.342 Y97.210 E36.43555
G1 X63.071 Y83.940 E37.17247
G1 X63.491 Y83.940 E37.18897
G1 X76.762 Y97.210 E37.92589
G1 X77.182 Y97.210 E37.94239
G1 X63.911 Y83.940 E38.67931
G1 X64.332 Y83.940 E38.69580
G1 X77.602 Y97.210 E39.43272
G1 X78.022 Y97.210 E39.44922
G1 X64.752 Y83.940 E40.18614
G1 X65.172 Y83.940 E40.20264
G1 X78.442 Y97.210 E40.93956
G1 X78.862 Y97.210 E40.95605
G1 X65.592 Y83.940 E41.69297
G1 X66.012 Y83.940 E41.70947
G1 X79.283 Y97.210 E42.44639
G1 X79.703 Y97.210 E42.46289
G1 X66.432 Y83.940 E43.19980
G1 X66.852 Y83.940 E43.21630
G1 X80.123 Y97.210 E43.95322
G1 X80.543 Y97.210 E43.96972
G1 X67.273 Y83.940 E44.70664
G1 X67.693 Y83.940 E44.72313
G1 X80.963 Y97.210 E45.46005
G1 X81.383 Y97.210 E45.47655
G1 X68.113 Y83.940 E46.21347
G1 X68.533 Y83.940 E46.22997
G1 X81.803 Y97.210 E46.96689
G1 X82.224 Y97.210 E46.98338
G1 X68.953 Y83.940 E47.72030
G1 X69.373 Y83.940 E47.73680
G1 X82.644 Y97.210 E48.47372
G1 X83.064 Y97.210 E48.49022
G1 X69.793 Y83.940 E49.22714
G1 X70.214 Y83.940 E49.24363
G1 X83.484 Y97.210 E49.98055
G1 X83.904 Y97.210 E49.99705
G1 X70.634 Y83.940 E50.73397
G1 X71.054 Y83.940 E50.75047
G1 X84.324 Y97.210 E51.48738
G1 X84.745 Y97.210 E51.50388
G1 X71.474 Y83.940 E52.24080
G1 X71.894 Y83.940 E52.25730
G1 X85.165 Y97.210 E52.99422
G1 X85.585 Y97.210 E53.01071
G1 X72.314 Y83.940 E53.74763
G1 X72.735 Y83.940 E53.76413
G1 X86.005 Y97.210 E54.50105
G1 X86.425 Y97.210 E54.51755
G1 X73.155 Y83.940 E55.25447
G1 X73.575 Y83.940 E55.27096
G1 X86.845 Y97.210 E56.00788
G1 X87.265 Y97.210 E56.02438
G1 X73.995 Y83.940 E56.76130
G1 X74.415 Y83.940 E56.77780
G1 X87.686 Y97.210 E57.51472
G1 X88.106 Y97.210 E57.53121
G1 X74.835 Y83.940 E58.26813
G1 X75.255 Y83.940 E58.28463
G1 X88.526 Y97.210 E59.02155
G1 X88.946 Y97.210 E59.03805
G1 X75.676 Y83.940 E59.77496
G1 X76.096 Y83.940 E59.79146
G1 X89.366 Y97.210 E60.52838
G1 X89.786 Y97.210 E60.54488
G1 X76.516 Y83.940 E61.28180
G1 X76.936 Y83.940 E61.29829
G1 X90.206 Y97.210 E62.03521
G1 X90.627 Y97.210 E62.05171
G1 X77.356 Y83.940 E62.78863
G1 X77.776 Y83.940 E62.80513
G1 X91.047 Y97.210 E63.54205
G1 X91.467 Y97.210 E63.55854
G1 X78.196 Y83.940 E64.29546
G1 X78.617 Y83.940 E64.31196
G1 X91.887 Y97.210 E65.04888
G1 X92.307 Y97.210 E65.06538
G1 X79.037 Y83.940 E65.80230
G1 X79.457 Y83.940 E65.81879
G1 X92.727 Y97.210 E66.55571
G1 X93.147 Y97.210 E66.57221
G1 X79.877 Y83.940 E67.30913
G1 X80.297 Y83.940 E67.32563
G1 X93.568 Y97.210 E68.06254
G1 X93.988 Y97.210 E68.07904
G1 X80.717 Y83.940 E68.81596
G1 X81.137 Y83.940 E68.83246
G1 X94.408 Y97.210 E69.56938
G1 X94.828 Y97.210 E69.58588
G1 X81.558 Y83.940 E70.32279
G1 X81.978 Y83.940 E70.33929
G1 X95.248 Y97.210 E71.07621
G1 X95.668 Y97.210 E71.09271
G1 X82.398 Y83.940 E71.82963
G1 X82.818 Y83.940 E71.84612
G1 X96.088 Y97.210 E72.58304
G1 X96.509 Y97.210 E72.59954
G1 X83.238 Y83.940 E73.33646
G1 X83.658 Y83.940 E73.35296
G1 X96.929 Y97.210 E74.08988
G1 X97.349 Y97.210 E74.10637
G1 X84.078 Y83.940 E74.84329
G1 X84.499 Y83.940 E74.85979
G1 X97.769 Y97.210 E75.59671
G1 X98.189 Y97.210 E75.61321
G1 X84.919 Y83.940 E76.35013
G1 X85.339 Y83.940 E76.36662
G1 X98.609 Y97.210 E77.10354
G1 X99.029 Y97.210 E77.12004
G1 X85.759 Y83.940 E77.85696
G1 X86.179 Y83.940 E77.87346
G1 X99.450 Y97.210 E78.61037
G1 X99.870 Y97.210 E78.62687
