; generated by Slic3r 1.2.9 on 2020-03-01 at 10:19:55

; external perimeters extrusion width = 0.35mm
; perimeters extrusion width = 0.44mm
; infill extrusion width = 0.44mm
; solid infill extrusion width = 0.44mm
; top infill extrusion width = 0.44mm

M107
M190 S100 ; set bed temperature
M104 S240 ; set temperature
G28 ; home all axes
G1 Z5 F5000 ; lift nozzle
M109 S240 ; wait for temperature to be reached
G21 ; set units to millimeters
G90 ; use absolute coordinates
M82 ; use absolute distances for extrusion
G92 E0
G1 E-1.00000 F1800.00000
G92 E0
G1 Z0.300 F7800.000
G1 X26.909 Y38.320 F7800.000
G1 E1.00000 F1800.00000
G1 X27.820 Y37.946 E1.03849 F1080.000
G1 X74.328 Y37.946 E2.85568
G1 X131.340 Y38.334 E5.08329
G1 X132.258 Y38.724 E5.12229
G1 X132.627 Y39.612 E5.15984
G1 X133.476 Y104.172 E7.68254
G1 X133.476 Y120.339 E8.31422
G1 X133.091 Y121.260 E8.35322
G1 X132.190 Y121.634 E8.39136
G1 X75.494 Y122.054 E10.60664
G1 X28.985 Y122.054 E12.42386
G1 X28.063 Y121.669 E12.46287
G1 X27.689 Y120.781 E12.50052
G1 X26.524 Y55.415 E15.05494
G1 X26.524 Y39.242 E15.68686
G1 X26.888 Y38.369 E15.72381
G1 E14.72381 F1800.00000
G92 E0
G1 X130.560 Y55.008 F7800.000
G1 E1.00000 F1800.00000
G1 X85.602 Y55.008 E2.75658 F900.000
G1 X85.602 Y40.400 E3.32733
G1 X130.560 Y40.400 E5.08391
G1 X130.560 Y54.955 E5.65261
G1 X130.855 Y55.304 F7800.000
G1 X85.307 Y55.304 E7.43229 F900.000
G1 X85.307 Y40.105 E8.02614
G1 X130.855 Y40.105 E9.80583
G1 X130.855 Y55.251 E10.39762
G1 X131.151 Y55.599 F7800.000
G1 X85.011 Y55.599 E12.20041 F540.000
G1 X85.011 Y39.809 E12.81736
G1 X131.151 Y39.809 E14.62014
G1 X131.151 Y55.547 E15.23504
G1 X130.848 Y55.424 F7800.000
G1 X130.391 Y40.734 F7800.000
G1 X130.226 Y40.569 E15.24418 F360.000
G1 X129.808 Y40.569 E15.26054
G1 X130.391 Y41.153 E15.29281
G1 X130.391 Y41.571 E15.30916
G1 X129.389 Y40.569 E15.36455
G1 X128.971 Y40.569 E15.38091
G1 X130.391 Y41.989 E15.45943
G1 X130.391 Y42.408 E15.47578
G1 X128.553 Y40.569 E15.57742
G1 X128.134 Y40.569 E15.59377
G1 X130.391 Y42.826 E15.71854
G1 X130.391 Y43.244 E15.73490
G1 X127.716 Y40.569 E15.88279
G1 X127.298 Y40.569 E15.89914
G1 X130.391 Y43.662 E16.07016
G1 X130.391 Y44.081 E16.08652
G1 X126.880 Y40.569 E16.28066
G1 X126.461 Y40.569 E16.29701
G1 X130.391 Y44.499 E16.51428
G1 X130.391 Y44.917 E16.53063
G1 X126.043 Y40.569 E16.77103
G1 X125.625 Y40.569 E16.78738
G1 X130.391 Y45.336 E17.05090
G1 X130.391 Y45.754 E17.06725
G1 X125.206 Y40.569 E17.35390
G1 X124.788 Y40.569 E17.37025
G1 X130.391 Y46.172 E17.68002
G1 X130.391 Y46.590 E17.69637
G1 X124.370 Y40.569 E18.02927
G1 X123.952 Y40.569 E18.04562
G1 X130.391 Y47.009 E18.40164
G1 X130.391 Y47.427 E18.41799
G1 X123.533 Y40.569 E18.79713
G1 X123.115 Y40.569 E18.81349
G1 X130.391 Y47.845 E19.21576
G1 X130.391 Y48.264 E19.23211
G1 X122.697 Y40.569 E19.65750
G1 X122.278 Y40.569 E19.67386
G1 X130.391 Y48.682 E20.12237
G1 X130.391 Y49.100 E20.13873
G1 X121.860 Y40.569 E20.61037
G1 X121.442 Y40.569 E20.62672
G1 X130.391 Y49.518 E21.12149
G1 X130.391 Y49.937 E21.13784
G1 X121.024 Y40.569 E21.65574
G1 X120.605 Y40.569 E21.67209
G1 X130.391 Y50.355 E22.21311
G1 X130.391 Y50.773 E22.22946
G1 X120.187 Y40.569 E22.79361
G1 X119.769 Y40.569 E22.80996
G1 X130.391 Y51.192 E23.39723
G1 X130.391 Y51.610 E23.41358
G1 X119.350 Y40.569 E24.02397
G1 X118.932 Y40.569 E24.04033
G1 X130.391 Y52.028 E24.67385
G1 X130.391 Y52.446 E24.69020
G1 X118.514 Y40.569 E25.34684
G1 X118.096 Y40.569 E25.36319
G1 X130.391 Y52.865 E26.04296
G1 X130.391 Y53.283 E26.05932
G1 X117.677 Y40.569 E26.76221
G1 X117.259 Y40.569 E26.77856
G1 X130.391 Y53.701 E27.50458
G1 X130.391 Y54.120 E27.52093
G1 X116.841 Y40.569 E28.27008
G1 X116.422 Y40.569 E28.28643
G1 X130.391 Y54.538 E29.05870
G1 X130.275 Y54.839 E29.07134
G1 X116.004 Y40.569 E29.86028
G1 X115.586 Y40.569 E29.87663
G1 X129.856 Y54.839 E30.66557
G1 X129.438 Y54.839 E30.68193
G1 X115.168 Y40.569 E31.47087
G1 X114.749 Y40.569 E31.48722
G1 X129.020 Y54.839 E32.27616
G1 X128.601 Y54.839 E32.29251
G1 X114.331 Y40.569 E33.08145
G1 X113.913 Y40.569 E33.09780
G1 X128.183 Y54.839 E33.88674
G1 X127.765 Y54.839 E33.90310
G1 X113.494 Y40.569 E34.69204
G1 X113.076 Y40.569 E34.70839
G1 X127.347 Y54.839 E35.49733
G1 X126.928 Y54.839 E35.51368
G1 X112.658 Y40.569 E36.30262
G1 X112.240 Y40.569 E36.31897
G1 X126.510 Y54.839 E37.10791
G1 X126.092 Y54.839 E37.12427
G1 X111.821 Y40.569 E37.91321
G1 X111.403 Y40.569 E37.92956
G1 X125.673 Y54.839 E38.71850
G1 X125.255 Y54.839 E38.73485
G1 X110.985 Y40.569 E39.52379
G1 X110.566 Y40.569 E39.54014
G1 X124.837 Y54.839 E40.32909
G1 X124.419 Y54.839 E40.34544
G1 X110.148 Y40.569 E41.13438
G1 X109.730 Y40.569 E41.15073
G1 X124.000 Y54.839 E41.93967
G1 X123.582 Y54.839 E41.95602
G1 X109.312 Y40.569 E42.74496
G1 X108.893 Y40.569 E42.76132
G1 X123.164 Y54.839 E43.55026
G1 X122.745 Y54.839 E43.56661
G1 X108.475 Y40.569 E44.35555
G1 X108.057 Y40.569 E44.37190
G1 X122.327 Y54.839 E45.16084
G1 X121.909 Y54.839 E45.17719
G1 X107.638 Y40.569 E45.96613
G1 X107.220 Y40.569 E45.98249
G1 X121.491 Y54.839 E46.77143
G1 X121.072 Y54.839 E46.78778
G1 X106.802 Y40.569 E47.57672
G1 X106.384 Y40.569 E47.59307
G1 X120.654 Y54.839 E48.38201
G1 X120.236 Y54.839 E48.39836
G1 X105.965 Y40.569 E49.18730
G1 X105.547 Y40.569 E49.20366
G1 X119.817 Y54.839 E49.99260
G1 X119.399 Y54.839 E50.00895
G1 X105.129 Y40.569 E50.79789
G1 X104.710 Y40.569 E50.81424
G1 X118.981 Y54.839 E51.60318
G1 X118.563 Y54.839 E51.61953
G1 X104.292 Y40.569 E52.40848
G1 X103.874 Y40.569 E52.42483
G1 X118.144 Y54.839 E53.21377
G1 X117.726 Y54.839 E53.23012
G1 X103.456 Y40.569 E54.01906
G1 X103.037 Y40.569 E54.03541
G1 X117.308 Y54.839 E54.82435
G1 X116.889 Y54.839 E54.84071
G1 X102.619 Y40.569 E55.62965
G1 X102.201 Y40.569 E55.64600
G1 X116.471 Y54.839 E56.43494
G1 X116.053 Y54.839 E56.45129
G1 X101.782 Y40.569 E57.24023
G1 X101.364 Y40.569 E57.25658
G1 X115.635 Y54.839 E58.04553
G1 X115.216 Y54.839 E58.06188
G1 X100.946 Y40.569 E58.85082
G1 X100.528 Y40.569 E58.86717
G1 X114.798 Y54.839 E59.65611
G1 X114.380 Y54.839 E59.67246
G1 X100.109 Y40.569 E60.46140
G1 X99.691 Y40.569 E60.47776
G1 X113.961 Y54.839 E61.26670
G1 X113.543 Y54.839 E61.28305
G1 X99.273 Y40.569 E62.07199
G1 X98.854 Y40.569 E62.08834
G1 X113.125 Y54.839 E62.87728
G1 X112.707 Y54.839 E62.89363
G1 X98.436 Y40.569 E63.68257
G1 X98.018 Y40.569 E63.69893
G1 X112.288 Y54.839 E64.48787
G1 X111.870 Y54.839 E64.50422
G1 X97.600 Y40.569 E65.29316
G1 X97.181 Y40.569 E65.30951
G1 X111.452 Y54.839 E66.09845
G1 X111.033 Y54.839 E66.11480
G1 X96.763 Y40.569 E66.90375
G1 X96.345 Y40.569 E66.92010
G1 X110.615 Y54.839 E67.70904
G1 X110.197 Y54.839 E67.72539
G1 X95.926 Y40.569 E68.51433
G1 X95.508 Y40.569 E68.53068
G1 X109.779 Y54.839 E69.31962
G1 X109.360 Y54.839 E69.33598
G1 X95.090 Y40.569 E70.12492
G1 X94.672 Y40.569 E70.14127
G1 X108.942 Y54.839 E70.93021
G1 X108.524 Y54.839 E70.94656
G1 X94.253 Y40.569 E71.73550
G1 X93.835 Y40.569 E71.75185
G1 X108.105 Y54.839 E72.54079
G1 X107.687 Y54.839 E72.55715
G1 X93.417 Y40.569 E73.34609
G1 X92.998 Y40.569 E73.36244
G1 X107.269 Y54.839 E74.15138
G1 X106.851 Y54.839 E74.16773
G1 X92.580 Y40.569 E74.95667
G1 X92.162 Y40.569 E74.97302
G1 X106.432 Y54.839 E75.76197
G1 X106.014 Y54.839 E75.77832
G1 X91.744 Y40.569 E76.56726
G1 X91.325 Y40.569 E76.58361
G1 X105.596 Y54.839 E77.37255
G1 X105.177 Y54.839 E77.38890
G1 X90.907 Y40.569 E78.17784
G1 X90.489 Y40.569 E78.19420
G1 X104.759 Y54.839 E78.98314
G1 X104.341 Y54.839 E78.99949
G1 X90.070 Y40.569 E79.78843
G1 X89.652 Y40.569 E79.80478
G1 X103.923 Y54.839 E80.59372
G1 X103.504 Y54.839 E80.61007
G1 X89.234 Y40.569 E81.39902
G1 X88.816 Y40.569 E81.41537
G1 X103.086 Y54.839 E82.20431
G1 X102.668 Y54.839 E82.22066
G1 X88.397 Y40.569 E83.00960
G1 X87.979 Y40.569 E83.02595
G1 X102.249 Y54.839 E83.81489
G1 X101.831 Y54.839 E83.83125
G1 X87.561 Y40.569 E84.62019
G1 X87.142 Y40.569 E84.63654
G1 X101.413 Y54.839 E85.42548
G1 X100.995 Y54.839 E85.44183
G1 X86.724 Y40.569 E86.23077
G1 X86.306 Y40.569 E86.24712
G1 X100.576 Y54.839 E87.03606
G1 X100.158 Y54.839 E87.05242
G1 X85.888 Y40.569 E87.84136
G1 X85.771 Y40.871 E87.85400
G1 X99.740 Y54.839 E88.62626
G1 X99.321 Y54.839 E88.64262
G1 X85.771 Y41.289 E89.39176
G1 X85.771 Y41.707 E89.40811
G1 X98.903 Y54.839 E90.13412
G1 X98.485 Y54.839 E90.15047
G1 X85.771 Y42.125 E90.85336
G1 X85.771 Y42.544 E90.86971
G1 X98.067 Y54.839 E91.54948
G1 X97.648 Y54.839 E91.56583
G1 X85.771 Y42.962 E92.22247
G1 X85.771 Y43.380 E92.23882
G1 X97.230 Y54.839 E92.87234
G1 X96.812 Y54.839 E92.88869
G1 X85.771 Y43.799 E93.49908
G1 X85.771 Y44.217 E93.51543
G1 X96.393 Y54.839 E94.10269
G1 X95.975 Y54.839 E94.11905
G1 X85.771 Y44.635 E94.68319
G1 X85.771 Y45.053 E94.69954
G1 X95.557 Y54.839 E95.24055
G1 X95.139 Y54.839 E95.25690
G1 X85.771 Y45.472 E95.77479
G1 X85.771 Y45.890 E95.79115
G1 X94.720 Y54.839 E96.28591
G1 X94.302 Y54.839 E96.30226
G1 X85.771 Y46.308 E96.77390
G1 X85.771 Y46.727 E96.79025
G1 X93.884 Y54.839 E97.23877
G1 X93.465 Y54.839 E97.25512
G1 X85.771 Y47.145 E97.68051
G1 X85.771 Y47.563 E97.69686
G1 X93.047 Y54.839 E98.09913
G1 X92.629 Y54.839 E98.11548
G1 X85.771 Y47.981 E98.49462
G1 X85.771 Y48.400 E98.51097
G1 X92.211 Y54.839 E98.86698
G1 X91.792 Y54.839 E98.88334
G1 X85.771 Y48.818 E99.21623
G1 X85.771 Y49.236 E99.23258
G1 X91.374 Y54.839 E99.54234
G1 X90.956 Y54.839 E99.55869
G1 X85.771 Y49.655 E99.84533
G1 X85.771 Y50.073 E99.86169
G1 X90.537 Y54.839 E100.12520
G1 X90.119 Y54.839 E100.14155
G1 X85.771 Y50.491 E100.38194
G1 X85.771 Y50.909 E100.39829
G1 X89.701 Y54.839 E100.61556
G1 X89.283 Y54.839 E100.63191
G1 X85.771 Y51.328 E100.82605
G1 X85.771 Y51.746 E100.84240
G1 X88.864 Y54.839 E101.01342
G1 X88.446 Y54.839 E101.02977
G1 X85.771 Y52.164 E101.17766
G1 X85.771 Y52.583 E101.19401
G1 X88.028 Y54.839 E101.31878
G1 X87.609 Y54.839 E101.33513
G1 X85.771 Y53.001 E101.43677
G1 X85.771 Y53.419 E101.45312
G1 X87.191 Y54.839 E101.53164
G1 X86.773 Y54.839 E101.54799
G1 X85.771 Y53.837 E101.60338
G1 X85.771 Y54.256 E101.61973
G1 X86.355 Y54.839 E101.65200
G1 X85.936 Y54.839 E101.66835
G1 X85.771 Y54.674 E101.67749
G1 E100.67749 F1800.00000
G92 E0
G1 Z0.300 F7800.000
G1 X85.675 Y60.080 F7800.000
G1 E1.00000 F1800.00000
G1 X130.633 Y60.080 E2.75658 F900.000
G1 X130.633 Y74.687 E3.32733
G1 X85.675 Y74.687 E5.08391
G1 X85.675 Y60.132 E5.65261
G1 X85.379 Y59.784 F7800.000
G1 X130.928 Y59.784 E7.43229 F900.000
G1 X130.928 Y74.983 E8.02614
G1 X85.379 Y74.983 E9.80583
G1 X85.379 Y59.836 E10.39762
G1 X85.084 Y59.488 F7800.000
G1 X131.224 Y59.488 E12.20041 F540.000
G1 X131.224 Y75.278 E12.81736
G1 X85.084 Y75.278 E14.62014
G1 X85.084 Y59.541 E15.23504
G1 X85.387 Y59.663 F7800.000
G1 X85.844 Y74.353 F7800.000
G1 X86.009 Y74.519 E15.24418 F360.000
G1 X86.427 Y74.519 E15.26053
G1 X85.844 Y73.935 E15.29280
G1 X85.844 Y73.517 E15.30915
G1 X86.846 Y74.519 E15.36454
G1 X87.264 Y74.519 E15.38089
G1 X85.844 Y73.098 E15.45941
G1 X85.844 Y72.680 E15.47576
G1 X87.682 Y74.519 E15.57740
G1 X88.100 Y74.519 E15.59375
G1 X85.844 Y72.262 E15.71851
G1 X85.844 Y71.844 E15.73487
G1 X88.519 Y74.519 E15.88276
G1 X88.937 Y74.519 E15.89911
G1 X85.844 Y71.425 E16.07012
G1 X85.844 Y71.007 E16.08647
G1 X89.355 Y74.519 E16.28061
G1 X89.774 Y74.519 E16.29697
G1 X85.844 Y70.589 E16.51423
G1 X85.844 Y70.170 E16.53058
G1 X90.192 Y74.519 E16.77097
G1 X90.610 Y74.519 E16.78732
G1 X85.844 Y69.752 E17.05084
G1 X85.844 Y69.334 E17.06719
G1 X91.028 Y74.519 E17.35383
G1 X91.447 Y74.519 E17.37018
G1 X85.844 Y68.916 E17.67995
G1 X85.844 Y68.497 E17.69630
G1 X91.865 Y74.519 E18.02919
G1 X92.283 Y74.519 E18.04554
G1 X85.844 Y68.079 E18.40156
G1 X85.844 Y67.661 E18.41791
G1 X92.702 Y74.519 E18.79705
G1 X93.120 Y74.519 E18.81340
G1 X85.844 Y67.242 E19.21566
G1 X85.844 Y66.824 E19.23202
G1 X93.538 Y74.519 E19.65741
G1 X93.956 Y74.519 E19.67376
G1 X85.844 Y66.406 E20.12227
G1 X85.844 Y65.988 E20.13862
G1 X94.375 Y74.519 E20.61026
G1 X94.793 Y74.519 E20.62662
G1 X85.844 Y65.569 E21.12138
G1 X85.844 Y65.151 E21.13773
G1 X95.211 Y74.519 E21.65562
G1 X95.630 Y74.519 E21.67197
G1 X85.844 Y64.733 E22.21299
G1 X85.844 Y64.314 E22.22934
G1 X96.048 Y74.519 E22.79348
G1 X96.466 Y74.519 E22.80983
G1 X85.844 Y63.896 E23.39710
G1 X85.844 Y63.478 E23.41345
G1 X96.884 Y74.519 E24.02384
G1 X97.303 Y74.519 E24.04019
G1 X85.844 Y63.059 E24.67370
G1 X85.844 Y62.641 E24.69006
G1 X97.721 Y74.519 E25.34670
G1 X98.139 Y74.519 E25.36305
G1 X85.844 Y62.223 E26.04281
G1 X85.844 Y61.805 E26.05916
G1 X98.558 Y74.519 E26.76205
G1 X98.976 Y74.519 E26.77840
G1 X85.844 Y61.386 E27.50442
G1 X85.844 Y60.968 E27.52077
G1 X99.394 Y74.519 E28.26991
G1 X99.812 Y74.519 E28.28626
G1 X85.844 Y60.550 E29.05853
G1 X85.960 Y60.248 E29.07117
G1 X100.231 Y74.519 E29.86011
G1 X100.649 Y74.519 E29.87646
G1 X86.379 Y60.248 E30.66540
G1 X86.797 Y60.248 E30.68176
G1 X101.067 Y74.519 E31.47070
G1 X101.486 Y74.519 E31.48705
G1 X87.215 Y60.248 E32.27599
G1 X87.633 Y60.248 E32.29234
G1 X101.904 Y74.519 E33.08128
G1 X102.322 Y74.519 E33.09763
G1 X88.052 Y60.248 E33.88657
G1 X88.470 Y60.248 E33.90293
G1 X102.740 Y74.519 E34.69187
G1 X103.159 Y74.519 E34.70822
G1 X88.888 Y60.248 E35.49716
G1 X89.307 Y60.248 E35.51351
G1 X103.577 Y74.519 E36.30245
G1 X103.995 Y74.519 E36.31880
G1 X89.725 Y60.248 E37.10775
G1 X90.143 Y60.248 E37.12410
G1 X104.414 Y74.519 E37.91304
G1 X104.832 Y74.519 E37.92939
G1 X90.561 Y60.248 E38.71833
G1 X90.980 Y60.248 E38.73468
G1 X105.250 Y74.519 E39.52362
G1 X105.668 Y74.519 E39.53998
G1 X91.398 Y60.248 E40.32892
G1 X91.816 Y60.248 E40.34527
G1 X106.087 Y74.519 E41.13421
G1 X106.505 Y74.519 E41.15056
G1 X92.235 Y60.248 E41.93950
G1 X92.653 Y60.248 E41.95585
G1 X106.923 Y74.519 E42.74479
G1 X107.342 Y74.519 E42.76115
G1 X93.071 Y60.248 E43.55009
G1 X93.489 Y60.248 E43.56644
G1 X107.760 Y74.519 E44.35538
G1 X108.178 Y74.519 E44.37173
G1 X93.908 Y60.248 E45.16067
G1 X94.326 Y60.248 E45.17702
G1 X108.596 Y74.519 E45.96597
G1 X109.015 Y74.519 E45.98232
G1 X94.744 Y60.248 E46.77126
G1 X95.163 Y60.248 E46.78761
G1 X109.433 Y74.519 E47.57655
G1 X109.851 Y74.519 E47.59290
G1 X95.581 Y60.248 E48.38184
G1 X95.999 Y60.248 E48.39820
G1 X110.270 Y74.519 E49.18714
G1 X110.688 Y74.519 E49.20349
G1 X96.417 Y60.248 E49.99243
G1 X96.836 Y60.248 E50.00878
G1 X111.106 Y74.519 E50.79772
G1 X111.524 Y74.519 E50.81407
G1 X97.254 Y60.248 E51.60302
G1 X97.672 Y60.248 E51.61937
G1 X111.943 Y74.519 E52.40831
G1 X112.361 Y74.519 E52.42466
G1 X98.091 Y60.248 E53.21360
G1 X98.509 Y60.248 E53.22995
G1 X112.779 Y74.519 E54.01889
G1 X113.198 Y74.519 E54.03525
G1 X98.927 Y60.248 E54.82419
G1 X99.345 Y60.248 E54.84054
G1 X113.616 Y74.519 E55.62948
G1 X114.034 Y74.519 E55.64583
G1 X99.764 Y60.248 E56.43477
G1 X100.182 Y60.248 E56.45112
G1 X114.452 Y74.519 E57.24006
G1 X114.871 Y74.519 E57.25642
G1 X100.600 Y60.248 E58.04536
G1 X101.019 Y60.248 E58.06171
G1 X115.289 Y74.519 E58.85065
G1 X115.707 Y74.519 E58.86700
G1 X101.437 Y60.248 E59.65594
G1 X101.855 Y60.248 E59.67229
G1 X116.126 Y74.519 E60.46124
G1 X116.544 Y74.519 E60.47759
G1 X102.273 Y60.248 E61.26653
G1 X102.692 Y60.248 E61.28288
G1 X116.962 Y74.519 E62.07182
G1 X117.380 Y74.519 E62.08817
G1 X103.110 Y60.248 E62.87711
G1 X103.528 Y60.248 E62.89347
G1 X117.799 Y74.519 E63.68241
G1 X118.217 Y74.519 E63.69876
G1 X103.947 Y60.248 E64.48770
G1 X104.365 Y60.248 E64.50405
G1 X118.635 Y74.519 E65.29299
G1 X119.054 Y74.519 E65.30934
G1 X104.783 Y60.248 E66.09828
G1 X105.201 Y60.248 E66.11464
G1 X119.472 Y74.519 E66.90358
G1 X119.890 Y74.519 E66.91993
G1 X105.620 Y60.248 E67.70887
G1 X106.038 Y60.248 E67.72522
G1 X120.308 Y74.519 E68.51416
G1 X120.727 Y74.519 E68.53052
G1 X106.456 Y60.248 E69.31946
G1 X106.875 Y60.248 E69.33581
G1 X121.145 Y74.519 E70.12475
G1 X121.563 Y74.519 E70.14110
G1 X107.293 Y60.248 E70.93004
G1 X107.711 Y60.248 E70.94639
G1 X121.982 Y74.519 E71.73533
G1 X122.400 Y74.519 E71.75169
G1 X108.129 Y60.248 E72.54063
G1 X108.548 Y60.248 E72.55698
G1 X122.818 Y74.519 E73.34592
G1 X123.236 Y74.519 E73.36227
G1 X108.966 Y60.248 E74.15121
G1 X109.384 Y60.248 E74.16756
G1 X123.655 Y74.519 E74.95651
