; generated by Slic3r 1.2.9 on 2019-12-08 at 11:04:33

; external perimeters extrusion width = 0.35mm
; perimeters extrusion width = 0.44mm
; infill extrusion width = 0.44mm
; solid infill extrusion width = 0.44mm
; top infill extrusion width = 0.44mm

M107
M190 S100 ; set bed temperature
M104 S240 ; set temperature
G28 ; home all axes
G1 Z5 F5000 ; lift nozzle
M109 S240 ; wait for temperature to be reached
G21 ; set units to millimeters
G90 ; use absolute coordinates
M82 ; use absolute distances for extrusion
G92 E0
G1 E-1.00000 F1800.00000
G92 E0
G1 Z0.300 F7800.000
G1 X49.739 Y68.431 F7800.000
G1 E1.00000 F1800.00000
G1 X55.794 Y64.840 E1.27505 F1080.000
G1 X56.455 Y64.659 E1.30183
G1 X103.855 Y64.659 E3.15384
G1 X104.542 Y64.856 E3.18176
G1 X110.287 Y68.447 E3.44647
G1 X110.896 Y69.545 E3.49555
G1 X110.896 Y94.045 E4.45282
G1 X110.511 Y94.967 E4.49182
G1 X109.600 Y95.341 E4.53031
G1 X50.400 Y95.341 E6.84338
G1 X49.479 Y94.957 E6.88238
G1 X49.104 Y94.045 E6.92086
G1 X49.104 Y69.545 E7.87813
G1 X49.713 Y68.477 E7.92619
G1 E6.92619 F1800.00000
G92 E0
G1 X106.371 Y90.817 F7800.000
G1 E1.00000 F1800.00000
G1 X106.371 Y70.317 E1.80098 F900.000
G1 X108.829 Y70.317 E1.89700
G1 X108.829 Y93.274 E2.79400
G1 X51.171 Y93.274 E5.04680
G1 X51.171 Y70.317 E5.94379
G1 X53.629 Y70.317 E6.03981
G1 X53.629 Y90.817 E6.84079
G1 X106.319 Y90.817 E8.89950
G1 X106.076 Y90.521 F7800.000
G1 X106.076 Y70.021 E9.70048 F900.000
G1 X109.124 Y70.021 E9.81960
G1 X109.124 Y93.570 E10.73970
G1 X50.876 Y93.570 E13.01560
G1 X50.876 Y70.021 E13.93570
G1 X53.924 Y70.021 E14.05482
G1 X53.924 Y90.521 E14.85580
G1 X106.023 Y90.521 E16.89140
G1 X105.780 Y90.225 F7800.000
G1 X105.780 Y69.725 E17.69238 F540.000
G1 X109.420 Y69.725 E17.83460
G1 X109.420 Y93.865 E18.77780
G1 X50.580 Y93.865 E21.07680
G1 X50.580 Y69.725 E22.02000
G1 X54.220 Y69.725 E22.16223
G1 X54.220 Y90.225 E22.96320
G1 X105.727 Y90.225 E24.97571
G1 X106.130 Y90.225 F7800.000
G1 X108.660 Y70.651 F7800.000
G1 X108.495 Y70.485 E24.98487 F360.000
G1 X108.076 Y70.485 E25.00128
G1 X108.660 Y71.070 E25.03364
G1 X108.660 Y71.489 E25.05005
G1 X107.657 Y70.485 E25.10562
G1 X107.238 Y70.485 E25.12203
G1 X108.660 Y71.908 E25.20080
G1 X108.660 Y72.327 E25.21721
G1 X106.819 Y70.485 E25.31919
G1 X106.540 Y70.625 E25.33141
G1 X108.660 Y72.746 E25.44884
G1 X108.660 Y73.165 E25.46525
G1 X106.540 Y71.044 E25.58267
G1 X106.540 Y71.463 E25.59908
G1 X108.660 Y73.584 E25.71651
G1 X108.660 Y74.003 E25.73292
G1 X106.540 Y71.882 E25.85035
G1 X106.540 Y72.301 E25.86675
G1 X108.660 Y74.422 E25.98418
G1 X108.660 Y74.841 E26.00059
G1 X106.540 Y72.720 E26.11802
G1 X106.540 Y73.139 E26.13443
G1 X108.660 Y75.260 E26.25185
G1 X108.660 Y75.679 E26.26826
G1 X106.540 Y73.558 E26.38569
G1 X106.540 Y73.977 E26.40210
G1 X108.660 Y76.098 E26.51953
G1 X108.660 Y76.517 E26.53593
G1 X106.540 Y74.396 E26.65336
G1 X106.540 Y74.815 E26.66977
G1 X108.660 Y76.936 E26.78720
G1 X108.660 Y77.355 E26.80361
G1 X106.540 Y75.234 E26.92103
G1 X106.540 Y75.653 E26.93744
G1 X108.660 Y77.774 E27.05487
G1 X108.660 Y78.193 E27.07128
G1 X106.540 Y76.072 E27.18871
G1 X106.540 Y76.491 E27.20511
G1 X108.660 Y78.612 E27.32254
G1 X108.660 Y79.031 E27.33895
G1 X106.540 Y76.910 E27.45638
G1 X106.540 Y77.329 E27.47279
G1 X108.660 Y79.450 E27.59021
G1 X108.660 Y79.869 E27.60662
G1 X106.540 Y77.748 E27.72405
G1 X106.540 Y78.167 E27.74046
G1 X108.660 Y80.288 E27.85789
G1 X108.660 Y80.707 E27.87429
G1 X106.540 Y78.586 E27.99172
G1 X106.540 Y79.005 E28.00813
G1 X108.660 Y81.126 E28.12556
G1 X108.660 Y81.545 E28.14197
G1 X106.540 Y79.424 E28.25939
G1 X106.540 Y79.843 E28.27580
G1 X108.660 Y81.964 E28.39323
G1 X108.660 Y82.383 E28.40964
G1 X106.540 Y80.262 E28.52707
G1 X106.540 Y80.681 E28.54347
G1 X108.660 Y82.802 E28.66090
G1 X108.660 Y83.221 E28.67731
G1 X106.540 Y81.100 E28.79474
G1 X106.540 Y81.519 E28.81115
G1 X108.660 Y83.640 E28.92857
G1 X108.660 Y84.059 E28.94498
G1 X106.540 Y81.938 E29.06241
G1 X106.540 Y82.357 E29.07882
G1 X108.660 Y84.478 E29.19625
G1 X108.660 Y84.897 E29.21265
G1 X106.540 Y82.776 E29.33008
G1 X106.540 Y83.195 E29.34649
G1 X108.660 Y85.316 E29.46392
G1 X108.660 Y85.735 E29.48033
G1 X106.540 Y83.614 E29.59775
G1 X106.540 Y84.033 E29.61416
G1 X108.660 Y86.154 E29.73159
G1 X108.660 Y86.573 E29.74800
G1 X106.540 Y84.452 E29.86543
G1 X106.540 Y84.871 E29.88183
G1 X108.660 Y86.992 E29.99926
G1 X108.660 Y87.411 E30.01567
G1 X106.540 Y85.290 E30.13310
G1 X106.540 Y85.709 E30.14951
G1 X108.660 Y87.830 E30.26693
G1 X108.660 Y88.249 E30.28334
G1 X106.540 Y86.128 E30.40077
G1 X106.540 Y86.547 E30.41718
G1 X108.660 Y88.668 E30.53461
G1 X108.660 Y89.087 E30.55101
G1 X106.540 Y86.966 E30.66844
G1 X106.540 Y87.385 E30.68485
G1 X108.660 Y89.506 E30.80228
G1 X108.660 Y89.925 E30.81869
G1 X106.540 Y87.804 E30.93611
G1 X106.540 Y88.223 E30.95252
G1 X108.660 Y90.344 E31.06995
G1 X108.660 Y90.763 E31.08636
G1 X106.540 Y88.642 E31.20379
G1 X106.540 Y89.061 E31.22019
G1 X108.660 Y91.182 E31.33762
G1 X108.660 Y91.601 E31.35403
G1 X106.540 Y89.480 E31.47146
G1 X106.540 Y89.899 E31.48787
G1 X108.660 Y92.020 E31.60529
G1 X108.660 Y92.439 E31.62170
G1 X106.540 Y90.318 E31.73913
G1 X106.540 Y90.737 E31.75554
G1 X108.660 Y92.858 E31.87297
G1 X108.489 Y93.106 E31.88476
G1 X106.369 Y90.985 E32.00219
G1 X105.950 Y90.985 E32.01860
G1 X108.070 Y93.106 E32.13603
G1 X107.651 Y93.106 E32.15243
G1 X105.531 Y90.985 E32.26986
G1 X105.112 Y90.985 E32.28627
G1 X107.232 Y93.106 E32.40370
G1 X106.813 Y93.106 E32.42011
G1 X104.693 Y90.985 E32.53753
G1 X104.274 Y90.985 E32.55394
G1 X106.394 Y93.106 E32.67137
G1 X105.975 Y93.106 E32.68778
G1 X103.855 Y90.985 E32.80521
G1 X103.436 Y90.985 E32.82161
G1 X105.556 Y93.106 E32.93904
G1 X105.137 Y93.106 E32.95545
G1 X103.017 Y90.985 E33.07288
G1 X102.598 Y90.985 E33.08929
G1 X104.718 Y93.106 E33.20671
G1 X104.299 Y93.106 E33.22312
G1 X102.179 Y90.985 E33.34055
G1 X101.760 Y90.985 E33.35696
G1 X103.880 Y93.106 E33.47439
G1 X103.461 Y93.106 E33.49079
G1 X101.341 Y90.985 E33.60822
G1 X100.922 Y90.985 E33.62463
G1 X103.042 Y93.106 E33.74206
G1 X102.623 Y93.106 E33.75847
G1 X100.503 Y90.985 E33.87589
G1 X100.084 Y90.985 E33.89230
G1 X102.204 Y93.106 E34.00973
G1 X101.785 Y93.106 E34.02614
G1 X99.665 Y90.985 E34.14357
G1 X99.246 Y90.985 E34.15997
G1 X101.366 Y93.106 E34.27740
G1 X100.947 Y93.106 E34.29381
G1 X98.827 Y90.985 E34.41124
G1 X98.408 Y90.985 E34.42765
G1 X100.528 Y93.106 E34.54507
G1 X100.109 Y93.106 E34.56148
G1 X97.989 Y90.985 E34.67891
G1 X97.570 Y90.985 E34.69532
G1 X99.690 Y93.106 E34.81275
G1 X99.271 Y93.106 E34.82915
G1 X97.151 Y90.985 E34.94658
G1 X96.732 Y90.985 E34.96299
G1 X98.852 Y93.106 E35.08042
G1 X98.433 Y93.106 E35.09683
G1 X96.313 Y90.985 E35.21425
G1 X95.894 Y90.985 E35.23066
G1 X98.014 Y93.106 E35.34809
G1 X97.595 Y93.106 E35.36450
G1 X95.475 Y90.985 E35.48193
G1 X95.056 Y90.985 E35.49833
G1 X97.176 Y93.106 E35.61576
G1 X96.757 Y93.106 E35.63217
G1 X94.637 Y90.985 E35.74960
G1 X94.218 Y90.985 E35.76601
G1 X96.338 Y93.106 E35.88343
G1 X95.919 Y93.106 E35.89984
G1 X93.799 Y90.985 E36.01727
G1 X93.380 Y90.985 E36.03368
G1 X95.500 Y93.106 E36.15111
G1 X95.081 Y93.106 E36.16751
G1 X92.961 Y90.985 E36.28494
G1 X92.542 Y90.985 E36.30135
G1 X94.662 Y93.106 E36.41878
G1 X94.243 Y93.106 E36.43519
G1 X92.123 Y90.985 E36.55261
G1 X91.704 Y90.985 E36.56902
G1 X93.824 Y93.106 E36.68645
G1 X93.405 Y93.106 E36.70286
G1 X91.285 Y90.985 E36.82029
G1 X90.866 Y90.985 E36.83669
G1 X92.986 Y93.106 E36.95412
G1 X92.567 Y93.106 E36.97053
G1 X90.447 Y90.985 E37.08796
G1 X90.028 Y90.985 E37.10437
G1 X92.148 Y93.106 E37.22179
G1 X91.729 Y93.106 E37.23820
G1 X89.609 Y90.985 E37.35563
G1 X89.190 Y90.985 E37.37204
G1 X91.310 Y93.106 E37.48947
G1 X90.891 Y93.106 E37.50587
G1 X88.771 Y90.985 E37.62330
G1 X88.352 Y90.985 E37.63971
G1 X90.472 Y93.106 E37.75714
G1 X90.053 Y93.106 E37.77355
G1 X87.933 Y90.985 E37.89097
G1 X87.514 Y90.985 E37.90738
G1 X89.634 Y93.106 E38.02481
G1 X89.215 Y93.106 E38.04122
G1 X87.095 Y90.985 E38.15865
G1 X86.676 Y90.985 E38.17505
G1 X88.796 Y93.106 E38.29248
G1 X88.377 Y93.106 E38.30889
G1 X86.257 Y90.985 E38.42632
G1 X85.838 Y90.985 E38.44273
G1 X87.958 Y93.106 E38.56015
G1 X87.539 Y93.106 E38.57656
G1 X85.419 Y90.985 E38.69399
G1 X85.000 Y90.985 E38.71040
G1 X87.120 Y93.106 E38.82783
G1 X86.701 Y93.106 E38.84423
G1 X84.581 Y90.985 E38.96166
G1 X84.162 Y90.985 E38.97807
G1 X86.282 Y93.106 E39.09550
G1 X85.863 Y93.106 E39.11191
G1 X83.743 Y90.985 E39.22933
G1 X83.324 Y90.985 E39.24574
G1 X85.444 Y93.106 E39.36317
G1 X85.025 Y93.106 E39.37958
G1 X82.905 Y90.985 E39.49701
G1 X82.486 Y90.985 E39.51341
G1 X84.606 Y93.106 E39.63084
G1 X84.187 Y93.106 E39.64725
G1 X82.067 Y90.985 E39.76468
G1 X81.648 Y90.985 E39.78109
G1 X83.768 Y93.106 E39.89851
G1 X83.349 Y93.106 E39.91492
G1 X81.229 Y90.985 E40.03235
G1 X80.810 Y90.985 E40.04876
G1 X82.930 Y93.106 E40.16619
G1 X82.511 Y93.106 E40.18259
G1 X80.391 Y90.985 E40.30002
G1 X79.972 Y90.985 E40.31643
G1 X82.092 Y93.106 E40.43386
G1 X81.673 Y93.106 E40.45027
G1 X79.553 Y90.985 E40.56769
G1 X79.134 Y90.985 E40.58410
G1 X81.254 Y93.106 E40.70153
G1 X80.835 Y93.106 E40.71794
G1 X78.715 Y90.985 E40.83537
G1 X78.296 Y90.985 E40.85177
G1 X80.416 Y93.106 E40.96920
G1 X79.997 Y93.106 E40.98561
G1 X77.877 Y90.985 E41.10304
G1 X77.458 Y90.985 E41.11945
G1 X79.578 Y93.106 E41.23687
G1 X79.159 Y93.106 E41.25328
G1 X77.039 Y90.985 E41.37071
G1 X76.620 Y90.985 E41.38712
G1 X78.740 Y93.106 E41.50455
G1 X78.321 Y93.106 E41.52095
G1 X76.201 Y90.985 E41.63838
G1 X75.782 Y90.985 E41.65479
G1 X77.902 Y93.106 E41.77222
G1 X77.483 Y93.106 E41.78863
G1 X75.363 Y90.985 E41.90605
G1 X74.944 Y90.985 E41.92246
G1 X77.064 Y93.106 E42.03989
G1 X76.645 Y93.106 E42.05630
G1 X74.525 Y90.985 E42.17373
G1 X74.106 Y90.985 E42.19013
G1 X76.226 Y93.106 E42.30756
G1 X75.807 Y93.106 E42.32397
G1 X73.687 Y90.985 E42.44140
G1 X73.268 Y90.985 E42.45780
G1 X75.388 Y93.106 E42.57523
G1 X74.969 Y93.106 E42.59164
G1 X72.849 Y90.985 E42.70907
G1 X72.430 Y90.985 E42.72548
G1 X74.550 Y93.106 E42.84291
G1 X74.131 Y93.106 E42.85931
G1 X72.011 Y90.985 E42.97674
G1 X71.592 Y90.985 E42.99315
G1 X73.712 Y93.106 E43.11058
G1 X73.293 Y93.106 E43.12698
G1 X71.173 Y90.985 E43.24441
G1 X70.754 Y90.985 E43.26082
G1 X72.874 Y93.106 E43.37825
G1 X72.455 Y93.106 E43.39466
G1 X70.335 Y90.985 E43.51208
G1 X69.916 Y90.985 E43.52849
G1 X72.036 Y93.106 E43.64592
G1 X71.617 Y93.106 E43.66233
G1 X69.497 Y90.985 E43.77976
G1 X69.078 Y90.985 E43.79616
G1 X71.198 Y93.106 E43.91359
G1 X70.779 Y93.106 E43.93000
G1 X68.659 Y90.985 E44.04743
G1 X68.240 Y90.985 E44.06384
G1 X70.360 Y93.106 E44.18126
G1 X69.941 Y93.106 E44.19767
G1 X67.821 Y90.985 E44.31510
G1 X67.402 Y90.985 E44.33151
G1 X69.522 Y93.106 E44.44894
G1 X69.103 Y93.106 E44.46534
G1 X66.983 Y90.985 E44.58277
G1 X66.564 Y90.985 E44.59918
G1 X68.684 Y93.106 E44.71661
G1 X68.265 Y93.106 E44.73302
G1 X66.145 Y90.985 E44.85044
G1 X65.726 Y90.985 E44.86685
G1 X67.846 Y93.106 E44.98428
G1 X67.427 Y93.106 E45.00069
G1 X65.307 Y90.985 E45.11812
G1 X64.888 Y90.985 E45.13452
G1 X67.008 Y93.106 E45.25195
G1 X66.589 Y93.106 E45.26836
G1 X64.469 Y90.985 E45.38579
G1 X64.050 Y90.985 E45.40220
G1 X66.170 Y93.106 E45.51962
G1 X65.751 Y93.106 E45.53603
G1 X63.631 Y90.985 E45.65346
G1 X63.212 Y90.985 E45.66987
G1 X65.332 Y93.106 E45.78730
G1 X64.913 Y93.106 E45.80370
G1 X62.793 Y90.985 E45.92113
G1 X62.374 Y90.985 E45.93754
G1 X64.494 Y93.106 E46.05497
G1 X64.075 Y93.106 E46.07138
G1 X61.955 Y90.985 E46.18880
G1 X61.536 Y90.985 E46.20521
G1 X63.656 Y93.106 E46.32264
G1 X63.237 Y93.106 E46.33905
G1 X61.117 Y90.985 E46.45648
G1 X60.698 Y90.985 E46.47288
G1 X62.818 Y93.106 E46.59031
G1 X62.399 Y93.106 E46.60672
G1 X60.279 Y90.985 E46.72415
G1 X59.860 Y90.985 E46.74056
G1 X61.980 Y93.106 E46.85798
G1 X61.561 Y93.106 E46.87439
G1 X59.441 Y90.985 E46.99182
G1 X59.022 Y90.985 E47.00823
G1 X61.142 Y93.106 E47.12566
G1 X60.723 Y93.106 E47.14206
G1 X58.603 Y90.985 E47.25949
G1 X58.184 Y90.985 E47.27590
G1 X60.304 Y93.106 E47.39333
G1 X59.885 Y93.106 E47.40974
G1 X57.765 Y90.985 E47.52716
G1 X57.346 Y90.985 E47.54357
G1 X59.466 Y93.106 E47.66100
G1 X59.047 Y93.106 E47.67741
G1 X56.927 Y90.985 E47.79484
G1 X56.508 Y90.985 E47.81124
G1 X58.628 Y93.106 E47.92867
G1 X58.209 Y93.106 E47.94508
G1 X56.089 Y90.985 E48.06251
G1 X55.670 Y90.985 E48.07892
G1 X57.790 Y93.106 E48.19634
G1 X57.371 Y93.106 E48.21275
G1 X55.251 Y90.985 E48.33018
G1 X54.832 Y90.985 E48.34659
G1 X56.952 Y93.106 E48.46402
G1 X56.533 Y93.106 E48.48042
G1 X54.413 Y90.985 E48.59785
G1 X53.994 Y90.985 E48.61426
G1 X56.114 Y93.106 E48.73169
G1 X55.695 Y93.106 E48.74810
G1 X51.340 Y88.750 E48.98929
G1 X51.340 Y88.331 E49.00570
G1 X53.460 Y90.452 E49.12313
G1 X53.460 Y90.033 E49.13953
G1 X51.340 Y87.912 E49.25696
G1 X51.340 Y87.493 E49.27337
G1 X53.460 Y89.614 E49.39080
G1 X53.460 Y89.195 E49.40721
G1 X51.340 Y87.074 E49.52463
G1 X51.340 Y86.655 E49.54104
G1 X53.460 Y88.776 E49.65847
G1 X53.460 Y88.357 E49.67488
G1 X51.340 Y86.236 E49.79231
G1 X51.340 Y85.817 E49.80871
G1 X53.460 Y87.938 E49.92614
G1 X53.460 Y87.519 E49.94255
G1 X51.340 Y85.398 E50.05998
G1 X51.340 Y84.979 E50.07639
G1 X53.460 Y87.100 E50.19381
G1 X53.460 Y86.681 E50.21022
G1 X51.340 Y84.560 E50.32765
G1 X51.340 Y84.141 E50.34406
G1 X53.460 Y86.262 E50.46149
G1 X53.460 Y85.843 E50.47789
G1 X51.340 Y83.722 E50.59532
G1 X51.340 Y83.303 E50.61173
G1 X53.460 Y85.424 E50.72916
G1 X53.460 Y85.005 E50.74557
G1 X51.340 Y82.884 E50.86299
G1 X51.340 Y82.465 E50.87940
G1 X53.460 Y84.586 E50.99683
G1 X53.460 Y84.167 E51.01324
G1 X51.340 Y82.046 E51.13067
G1 X51.340 Y81.627 E51.14707
G1 X53.460 Y83.748 E51.26450
G1 X53.460 Y83.329 E51.28091
G1 X51.340 Y81.208 E51.39834
G1 X51.340 Y80.789 E51.41475
G1 X53.460 Y82.910 E51.53217
G1 X53.460 Y82.491 E51.54858
G1 X51.340 Y80.370 E51.66601
G1 X51.340 Y79.951 E51.68242
G1 X53.460 Y82.072 E51.79985
G1 X53.460 Y81.653 E51.81625
G1 X51.340 Y79.532 E51.93368
G1 X51.340 Y79.113 E51.95009
G1 X53.460 Y81.234 E52.06752
G1 X53.460 Y80.815 E52.08393
G1 X51.340 Y78.694 E52.20135
G1 X51.340 Y78.275 E52.21776
G1 X53.460 Y80.396 E52.33519
G1 X53.460 Y79.977 E52.35160
G1 X51.340 Y77.856 E52.46903
G1 X51.340 Y77.437 E52.48543
G1 X53.460 Y79.558 E52.60286
G1 X53.460 Y79.139 E52.61927
G1 X51.340 Y77.018 E52.73670
G1 X51.340 Y76.599 E52.75311
G1 X53.460 Y78.720 E52.87053
G1 X53.460 Y78.301 E52.88694
G1 X51.340 Y76.180 E53.00437
G1 X51.340 Y75.761 E53.02078
G1 X53.460 Y77.882 E53.13821
G1 X53.460 Y77.463 E53.15461
G1 X51.340 Y75.342 E53.27204
G1 X51.340 Y74.923 E53.28845
G1 X53.460 Y77.044 E53.40588
G1 X53.460 Y76.625 E53.42229
G1 X51.340 Y74.504 E53.53971
G1 X51.340 Y74.085 E53.55612
G1 X53.460 Y76.206 E53.67355
G1 X53.460 Y75.787 E53.68996
G1 X51.340 Y73.666 E53.80739
G1 X51.340 Y73.247 E53.82379
G1 X53.460 Y75.368 E53.94122
G1 X53.460 Y74.949 E53.95763
G1 X51.340 Y72.828 E54.07506
G1 X51.340 Y72.409 E54.09147
G1 X53.460 Y74.530 E54.20889
G1 X53.460 Y74.111 E54.22530
G1 X51.340 Y71.990 E54.34273
G1 X51.340 Y71.571 E54.35914
G1 X53.460 Y73.692 E54.47657
G1 X53.460 Y73.273 E54.49297
G1 X51.340 Y71.152 E54.61040
G1 X51.340 Y70.733 E54.62681
G1 X53.460 Y72.854 E54.74424
G1 X53.460 Y72.435 E54.76065
G1 X51.511 Y70.485 E54.86861
G1 X51.930 Y70.485 E54.88502
G1 X53.460 Y72.016 E54.96978
G1 X53.460 Y71.597 E54.98618
G1 X52.349 Y70.485 E55.04774
G1 X52.768 Y70.485 E55.06415
G1 X53.460 Y71.178 E55.10250
G1 X53.460 Y70.759 E55.11891
G1 X53.187 Y70.485 E55.13405
G1 X51.340 Y89.169 F7800.000
G1 X55.276 Y93.106 E55.35204 F360.000
G1 X54.857 Y93.106 E55.36845
G1 X51.340 Y89.588 E55.56324
G1 X51.340 Y90.007 E55.57965
G1 X54.438 Y93.106 E55.75123
G1 X54.019 Y93.106 E55.76764
G1 X51.340 Y90.426 E55.91601
G1 X51.340 Y90.845 E55.93242
G1 X53.600 Y93.106 E56.05760
G1 X53.181 Y93.106 E56.07400
G1 X51.340 Y91.264 E56.17597
G1 X51.340 Y91.683 E56.19238
G1 X52.762 Y93.106 E56.27115
G1 X52.343 Y93.106 E56.28756
G1 X51.340 Y92.102 E56.34312
G1 X51.340 Y92.521 E56.35953
G1 X51.924 Y93.106 E56.39188
G1 X51.505 Y93.106 E56.40829
G1 X51.340 Y92.940 E56.41744
G1 E55.41744 F1800.00000
G92 E0
