; generated by Slic3r 1.2.9 on 2019-05-04 at 09:08:40

; external perimeters extrusion width = 0.35mm
; perimeters extrusion width = 0.37mm
; infill extrusion width = 0.37mm
; solid infill extrusion width = 0.37mm
; top infill extrusion width = 0.37mm

M107
M190 S90 ; set bed temperature
M104 S230 ; set temperature
G28 ; home all axes
G1 Z5 F5000 ; lift nozzle
M109 S230 ; wait for temperature to be reached
G21 ; set units to millimeters
G90 ; use absolute coordinates
M82 ; use absolute distances for extrusion
G92 E0
G1 E-1.00000 F1800.00000
G92 E0
G1 Z0.350 F7800.000
G1 X68.258 Y58.665 F7800.000
G1 E1.00000 F1800.00000
G1 X69.544 Y57.279 E1.10057 F1080.000
G1 X71.595 Y55.643 E1.24008
G1 X73.290 Y54.675 E1.34388
G1 X75.675 Y53.739 E1.48013
G1 X77.519 Y53.318 E1.58071
G1 X80.135 Y53.122 E1.72023
G1 X82.020 Y53.263 E1.82079
G1 X84.578 Y53.847 E1.96031
G1 X86.338 Y54.538 E2.06088
G1 X88.610 Y55.850 E2.20039
G1 X90.089 Y57.029 E2.30097
G1 X91.873 Y58.952 E2.44047
G1 X92.938 Y60.514 E2.54105
G1 X94.076 Y62.878 E2.68056
G1 X94.634 Y64.685 E2.78114
G1 X95.025 Y67.279 E2.92064
G1 X95.096 Y68.225 E2.97107
G1 X95.096 Y91.775 E4.22354
G1 X95.025 Y92.721 E4.27397
G1 X94.634 Y95.315 E4.41347
G1 X94.076 Y97.122 E4.51406
G1 X92.938 Y99.486 E4.65356
G1 X91.873 Y101.048 E4.75414
G1 X90.089 Y102.971 E4.89364
G1 X88.610 Y104.150 E4.99423
G1 X86.338 Y105.462 E5.13373
G1 X84.578 Y106.153 E5.23431
G1 X82.020 Y106.737 E5.37382
G1 X80.134 Y106.878 E5.47440
G1 X77.519 Y106.682 E5.61390
G1 X75.675 Y106.261 E5.71448
G1 X73.233 Y105.303 E5.85399
G1 X71.595 Y104.357 E5.95457
G1 X69.544 Y102.722 E6.09407
G1 X68.258 Y101.335 E6.19465
G1 X66.780 Y99.168 E6.33416
G1 X65.959 Y97.464 E6.43474
G1 X65.186 Y94.957 E6.57426
G1 X64.904 Y93.087 E6.67483
G1 X64.904 Y66.913 E8.06679
G1 X65.186 Y65.043 E8.16737
G1 X65.959 Y62.536 E8.30688
G1 X66.780 Y60.832 E8.40746
G1 X68.228 Y58.708 E8.54418
G1 E7.54418 F1800.00000
G92 E0
G1 X79.724 Y66.097 F7800.000
G1 E1.00000 F1800.00000
G1 X78.681 Y66.794 E1.06669 F270.000
G1 X77.451 Y67.039 E1.13339
G1 X76.221 Y66.794 E1.20008
G1 X75.178 Y66.097 E1.26678
G1 X74.481 Y65.055 E1.33347
G1 X74.237 Y63.825 E1.40016
G1 X74.481 Y62.595 E1.46686
G1 X75.178 Y61.552 E1.53355
G1 X76.221 Y60.855 E1.60024
G1 X77.423 Y60.616 E1.66544
G1 X78.680 Y60.855 E1.73347
G1 X79.724 Y61.552 E1.80022
G1 X80.420 Y62.595 E1.86691
G1 X80.665 Y63.825 E1.93361
G1 X80.420 Y65.055 E2.00030
G1 X79.753 Y66.054 E2.06420
G1 X79.792 Y66.441 F7800.000
G1 E1.06420 F1800.00000
G92 E0
G1 X79.540 Y60.432 F7800.000
G1 E1.00000 F1800.00000
G1 X80.540 Y60.357 E1.05338 F540.000
G1 X82.833 Y60.880 E1.17845
G1 X84.870 Y62.056 E1.30353
G1 X86.470 Y63.780 E1.42861
G1 X87.490 Y65.899 E1.55369
G1 X87.841 Y68.225 E1.67877
G1 X87.490 Y70.550 E1.80384
G1 X86.470 Y72.669 E1.92892
G1 X84.870 Y74.393 E2.05400
G1 X82.833 Y75.569 E2.17908
G1 X80.540 Y76.093 E2.30416
G1 X78.195 Y75.917 E2.42923
G1 X76.006 Y75.058 E2.55431
G1 X74.167 Y73.591 E2.67939
G1 X72.842 Y71.648 E2.80447
G1 X72.149 Y69.401 E2.92954
G1 X72.149 Y67.049 E3.05462
G1 X72.842 Y64.801 E3.17970
G1 X73.528 Y63.796 E3.24442
G1 X73.832 Y65.324 E3.32728
G1 X74.681 Y66.595 E3.40856
G1 X75.952 Y67.444 E3.48985
G1 X77.451 Y67.742 E3.57114
G1 X78.950 Y67.444 E3.65243
G1 X80.221 Y66.595 E3.73371
G1 X81.070 Y65.324 E3.81500
G1 X81.368 Y63.825 E3.89629
G1 X81.070 Y62.325 E3.97758
G1 X80.221 Y61.055 E4.05886
G1 X79.502 Y60.574 E4.10484
G1 X79.526 Y60.482 E4.10989
G1 X78.028 Y60.228 F7800.000
G1 X78.118 Y60.192 E4.11502 F540.000
G1 X80.567 Y60.009 E4.24562
G1 X82.961 Y60.555 E4.37623
G1 X85.088 Y61.783 E4.50684
G1 X86.758 Y63.583 E4.63744
G1 X87.824 Y65.796 E4.76805
G1 X88.190 Y68.225 E4.89866
G1 X87.824 Y70.653 E5.02926
G1 X86.758 Y72.866 E5.15987
G1 X85.088 Y74.666 E5.29048
G1 X82.961 Y75.894 E5.42109
G1 X80.567 Y76.440 E5.55169
G1 X78.118 Y76.257 E5.68230
G1 X75.831 Y75.360 E5.81291
G1 X73.911 Y73.828 E5.94351
G1 X72.528 Y71.799 E6.07412
G1 X71.804 Y69.453 E6.20473
G1 X71.804 Y66.997 E6.33533
G1 X72.528 Y64.650 E6.46594
G1 X73.911 Y62.621 E6.59655
G1 X74.165 Y62.419 E6.61379
G1 X73.885 Y63.825 E6.69002
G1 X74.157 Y65.189 E6.76401
G1 X74.929 Y66.346 E6.83800
G1 X76.086 Y67.119 E6.91199
G1 X77.451 Y67.390 E6.98598
G1 X78.815 Y67.119 E7.05997
G1 X79.972 Y66.346 E7.13396
G1 X80.745 Y65.189 E7.20795
G1 X81.017 Y63.825 E7.28195
G1 X80.745 Y62.460 E7.35594
G1 X79.972 Y61.303 E7.42993
G1 X78.813 Y60.529 E7.50405
G1 X78.042 Y60.383 E7.54578
G1 X78.033 Y60.280 E7.55127
G1 X78.040 Y59.852 F7800.000
G1 X80.621 Y59.668 E7.68891 F324.000
G1 X83.088 Y60.231 E7.82347
G1 X85.305 Y61.511 E7.95961
G1 X87.046 Y63.387 E8.09575
G1 X88.157 Y65.693 E8.23188
G1 X88.538 Y68.225 E8.36802
G1 X88.157 Y70.756 E8.50416
G1 X87.046 Y73.062 E8.64029
G1 X85.305 Y74.939 E8.77643
G1 X83.088 Y76.219 E8.91256
G1 X80.593 Y76.788 E9.04870
G1 X78.040 Y76.597 E9.18484
G1 X75.657 Y75.662 E9.32097
G1 X73.656 Y74.066 E9.45711
G1 X72.214 Y71.951 E9.59324
G1 X71.459 Y69.505 E9.72938
G1 X71.459 Y66.945 E9.86552
G1 X72.214 Y64.499 E10.00165
G1 X73.656 Y62.384 E10.13779
G1 X75.657 Y60.787 E10.27392
G1 X77.991 Y59.871 E10.40727
G1 X78.264 Y60.121 F7800.000
G1 X77.863 Y60.321 F7800.000
G1 X77.408 Y60.367 E10.43163 F360.000
G1 X76.718 Y60.569 E10.46987
G1 X80.644 Y61.233 F7800.000
G1 X87.625 Y68.214 E11.00566 F360.000
G1 X87.537 Y67.628 E11.03782
G1 X80.474 Y60.565 E11.57990
G1 X81.119 Y60.712 E11.61580
G1 X87.449 Y67.042 E12.10159
G1 X87.360 Y66.456 E12.13376
G1 X81.764 Y60.860 E12.56327
G1 X82.409 Y61.007 E12.59917
G1 X87.155 Y65.752 E12.96340
G1 X86.692 Y64.792 F7800.000
G1 X83.380 Y61.480 E13.21762 F360.000
G1 X84.558 Y62.160 F7800.000
G1 X85.137 Y62.739 E13.26207 F360.000
G1 X81.303 Y62.389 F7800.000
G1 X87.582 Y68.668 E13.74402 F360.000
G1 X87.517 Y69.101 E13.76776
G1 X81.426 Y63.010 E14.23523
G1 X81.550 Y63.632 E14.26961
G1 X87.452 Y69.534 E14.72258
G1 X87.386 Y69.966 E14.74632
G1 X81.507 Y64.087 E15.19758
G1 X81.424 Y64.502 E15.22056
G1 X87.321 Y70.399 E15.67315
G1 X87.191 Y70.767 E15.69433
G1 X81.342 Y64.917 E16.14330
G1 X81.259 Y65.332 E16.16627
G1 X87.030 Y71.103 E16.60916
G1 X86.868 Y71.439 E16.62940
G1 X81.067 Y65.638 E17.07463
G1 X80.867 Y65.936 E17.09411
G1 X86.706 Y71.774 E17.54223
G1 X86.544 Y72.110 E17.56247
G1 X80.668 Y66.234 E18.01347
G1 X80.469 Y66.533 E18.03295
G1 X86.382 Y72.446 E18.48684
G1 X86.175 Y72.737 E18.50621
G1 X80.232 Y66.794 E18.96237
G1 X79.934 Y66.993 E18.98185
G1 X85.936 Y72.995 E19.44253
G1 X85.696 Y73.253 E19.46164
G1 X79.635 Y67.192 E19.92684
G1 X79.337 Y67.392 E19.94632
G1 X85.457 Y73.512 E20.41603
G1 X85.217 Y73.770 E20.43514
G1 X79.038 Y67.591 E20.90936
G1 X78.645 Y67.695 E20.93146
G1 X84.971 Y74.022 E21.41703
G1 X84.723 Y74.271 E21.43613
G1 X78.230 Y67.778 E21.93447
G1 X77.815 Y67.860 E21.95744
G1 X84.412 Y74.458 E22.46381
G1 X84.096 Y74.640 E22.48358
G1 X77.399 Y67.943 E22.99759
G1 X76.789 Y67.830 E23.03129
G1 X83.781 Y74.822 E23.56794
G1 X83.465 Y75.004 E23.58771
G1 X76.167 Y67.707 E24.14783
G1 X75.227 Y67.264 F7800.000
G1 X83.150 Y75.187 E24.75593 F360.000
G1 X82.834 Y75.369 E24.77571
G1 X72.852 Y65.386 E25.54188
G1 X72.734 Y65.767 E25.56348
G1 X82.437 Y75.469 E26.30817
G1 X82.032 Y75.562 E26.33073
G1 X72.617 Y66.147 E27.05333
G1 X72.500 Y66.528 E27.07493
G1 X81.627 Y75.654 E27.77543
G1 X81.221 Y75.747 E27.79799
G1 X72.382 Y66.908 E28.47639
G1 X72.349 Y67.372 E28.50165
G1 X80.816 Y75.839 E29.15152
G1 X80.351 Y75.872 E29.17682
G1 X72.349 Y67.870 E29.79100
G1 X72.349 Y68.368 E29.81801
G1 X79.813 Y75.832 E30.39090
G1 X79.275 Y75.792 E30.42018
G1 X72.349 Y68.865 E30.95177
G1 X72.383 Y69.398 E30.98071
G1 X78.737 Y75.751 E31.46837
G1 X78.130 Y75.642 E31.50181
G1 X72.605 Y70.117 E31.92588
G1 X72.827 Y70.837 E31.96676
G1 X77.311 Y75.321 E32.31090
G1 X76.492 Y74.999 F7800.000
G1 X73.169 Y71.676 E32.56596 F360.000
G1 X74.235 Y73.240 F7800.000
G1 X74.584 Y73.589 E32.59271 F360.000
G1 X74.012 Y66.049 F7800.000
G1 X72.969 Y65.006 E32.67275 F360.000
G1 X73.136 Y64.675 E32.69286
G1 X73.569 Y65.108 E32.72610
G1 E31.72610 F1800.00000
G92 E0
G1 Z0.350 F7800.000
G1 X79.135 Y84.013 F7800.000
G1 E1.00000 F1800.00000
G1 X80.540 Y83.907 E1.07494 F540.000
G1 X82.833 Y84.431 E1.20002
G1 X84.870 Y85.607 E1.32509
G1 X86.470 Y87.331 E1.45017
G1 X87.490 Y89.450 E1.57525
G1 X87.841 Y91.775 E1.70033
G1 X87.490 Y94.101 E1.82541
G1 X86.470 Y96.220 E1.95048
G1 X84.870 Y97.944 E2.07556
G1 X82.833 Y99.120 E2.20064
G1 X80.540 Y99.643 E2.32572
G1 X78.195 Y99.468 E2.45080
G1 X76.006 Y98.608 E2.57587
G1 X74.167 Y97.142 E2.70095
G1 X72.842 Y95.199 E2.82603
G1 X72.149 Y92.951 E2.95111
G1 X72.149 Y90.599 E3.07618
G1 X72.842 Y88.352 E3.20126
G1 X73.280 Y87.710 E3.24261
G1 X73.532 Y88.975 E3.31119
G1 X74.381 Y90.245 E3.39248
G1 X75.652 Y91.095 E3.47376
G1 X77.151 Y91.393 E3.55505
G1 X78.650 Y91.095 E3.63634
G1 X79.921 Y90.245 E3.71763
G1 X80.770 Y88.975 E3.79891
G1 X81.068 Y87.475 E3.88020
G1 X80.770 Y85.976 E3.96149
G1 X79.921 Y84.705 E4.04278
G1 X79.098 Y84.155 E4.09542
G1 X79.122 Y84.063 E4.10048
G1 X77.758 Y83.884 F7800.000
G1 X78.118 Y83.743 E4.12100 F540.000
G1 X80.567 Y83.560 E4.25160
G1 X82.961 Y84.106 E4.38221
G1 X85.088 Y85.334 E4.51282
G1 X86.758 Y87.134 E4.64343
G1 X87.824 Y89.347 E4.77403
G1 X88.190 Y91.775 E4.90464
G1 X87.824 Y94.204 E5.03525
G1 X86.758 Y96.416 E5.16585
G1 X85.088 Y98.217 E5.29646
G1 X82.961 Y99.445 E5.42707
G1 X80.567 Y99.991 E5.55767
G1 X78.118 Y99.808 E5.68828
G1 X75.831 Y98.910 E5.81889
G1 X73.911 Y97.379 E5.94950
G1 X72.528 Y95.350 E6.08010
G1 X71.804 Y93.003 E6.21071
G1 X71.804 Y90.547 E6.34132
G1 X72.528 Y88.201 E6.47192
G1 X73.578 Y86.660 E6.57111
G1 X73.734 Y86.725 E6.58009
G1 X73.585 Y87.475 E6.62077
G1 X73.857 Y88.840 E6.69476
G1 X74.629 Y89.997 E6.76876
G1 X75.786 Y90.770 E6.84275
G1 X77.151 Y91.041 E6.91674
G1 X78.515 Y90.770 E6.99073
G1 X79.672 Y89.997 E7.06472
G1 X80.445 Y88.840 E7.13871
G1 X80.717 Y87.475 E7.21270
G1 X80.445 Y86.111 E7.28669
G1 X79.672 Y84.954 E7.36068
G1 X78.513 Y84.180 E7.43481
G1 X77.773 Y84.039 E7.47489
G1 X77.763 Y83.936 E7.48038
G1 X74.958 Y85.150 F7800.000
G1 X74.841 Y84.989 E7.49093 F324.000
G1 X75.657 Y84.338 E7.54646
G1 X78.040 Y83.403 E7.68260
G1 X80.593 Y83.212 E7.81873
G1 X83.088 Y83.781 E7.95487
G1 X85.305 Y85.061 E8.09100
G1 X87.046 Y86.938 E8.22714
G1 X88.157 Y89.244 E8.36328
G1 X88.538 Y91.775 E8.49941
G1 X88.157 Y94.307 E8.63555
G1 X87.046 Y96.613 E8.77168
G1 X85.305 Y98.489 E8.90782
G1 X83.059 Y99.776 E9.04546
G1 X80.593 Y100.339 E9.18002
G1 X78.040 Y100.148 E9.31616
G1 X75.657 Y99.213 E9.45230
G1 X73.656 Y97.616 E9.58843
G1 X72.214 Y95.501 E9.72457
G1 X71.459 Y93.055 E9.86070
G1 X71.459 Y90.495 E9.99684
G1 X72.214 Y88.049 E10.13298
G1 X73.656 Y85.934 E10.26911
G1 X74.775 Y85.042 E10.34526
G1 X74.906 Y85.161 E10.35469
G1 X74.181 Y86.245 E10.42402
G1 X73.937 Y87.475 E10.49071
G1 X74.181 Y88.705 E10.55741
G1 X74.878 Y89.748 E10.62410
G1 X75.921 Y90.445 E10.69079
G1 X77.151 Y90.689 E10.75749
G1 X78.381 Y90.445 E10.82418
G1 X79.424 Y89.748 E10.89088
G1 X80.120 Y88.705 E10.95757
G1 X80.365 Y87.475 E11.02426
G1 X80.120 Y86.245 E11.09096
G1 X79.424 Y85.203 E11.15765
G1 X78.380 Y84.505 E11.22440
G1 X77.123 Y84.267 E11.29243
G1 X75.921 Y84.506 E11.35763
G1 X75.001 Y85.120 E11.41644
G1 X74.939 Y84.952 F7800.000
G1 X74.420 Y85.559 F7800.000
G1 X73.885 Y86.147 E11.45870 F360.000
G1 X73.723 Y86.533 E11.48097
G1 E10.48097 F1800.00000
G92 E0
G1 X76.509 Y84.201 F7800.000
G1 E1.00000 F1800.00000
G1 X77.109 Y84.025 E1.03325 F360.000
G1 X77.594 Y83.978 E1.05915
G1 X80.003 Y84.143 F7800.000
G1 X87.625 Y91.765 E1.64414 F360.000
G1 X87.537 Y91.179 E1.67630
G1 X80.474 Y84.116 E2.21838
G1 X81.119 Y84.263 E2.25428
G1 X87.449 Y90.593 E2.74007
G1 X87.360 Y90.007 E2.77224
G1 X81.764 Y84.410 E3.20175
G1 X82.409 Y84.558 E3.23765
G1 X87.155 Y89.303 E3.60188
G1 X86.692 Y88.343 F7800.000
G1 X83.380 Y85.031 E3.85610 F360.000
G1 X84.558 Y85.711 F7800.000
G1 X85.137 Y86.290 E3.90055 F360.000
G1 X80.541 Y85.178 F7800.000
G1 X87.582 Y92.219 E4.44094 F360.000
G1 X87.517 Y92.652 E4.46468
G1 X81.027 Y86.162 E4.96279
G1 X81.150 Y86.783 E4.99717
G1 X87.452 Y93.084 E5.48080
G1 X87.386 Y93.517 E5.50454
G1 X81.273 Y87.404 E5.97373
G1 X81.191 Y87.819 E5.99670
G1 X87.321 Y93.949 E6.46723
G1 X87.191 Y94.317 E6.48840
G1 X81.108 Y88.234 E6.95530
G1 X81.026 Y88.649 E6.97828
G1 X87.030 Y94.653 E7.43910
G1 X86.868 Y94.989 E7.45934
G1 X80.927 Y89.049 E7.91530
G1 X80.728 Y89.347 E7.93478
G1 X86.706 Y95.325 E8.39363
G1 X86.544 Y95.661 E8.41386
G1 X80.528 Y89.645 E8.87560
G1 X80.329 Y89.944 E8.89507
G1 X86.382 Y95.997 E9.35969
G1 X86.175 Y96.288 E9.37906
G1 X80.130 Y90.242 E9.84309
G1 X79.873 Y90.484 E9.86220
G1 X85.936 Y96.546 E10.32750
G1 X85.696 Y96.804 E10.34661
G1 X79.575 Y90.683 E10.81643
G1 X79.277 Y90.882 E10.83591
G1 X85.457 Y97.062 E11.31024
G1 X85.217 Y97.321 E11.32935
G1 X78.978 Y91.082 E11.80820
G1 X78.679 Y91.280 E11.82770
G1 X84.971 Y97.573 E12.31069
G1 X84.723 Y97.821 E12.32979
G1 X78.263 Y91.362 E12.82554
G1 X77.848 Y91.445 E12.84851
G1 X84.412 Y98.009 E13.35230
G1 X84.096 Y98.191 E13.37207
G1 X77.433 Y91.527 E13.88350
G1 X76.988 Y91.580 E13.90781
G1 X83.781 Y98.373 E14.42917
G1 X83.465 Y98.555 E14.44894
G1 X76.367 Y91.457 E14.99376
G1 X75.745 Y91.333 E15.02814
G1 X83.150 Y98.737 E15.59643
G1 X82.834 Y98.920 E15.61621
G1 X74.632 Y90.718 E16.24572
G1 X73.909 Y89.994 F7800.000
G1 X72.852 Y88.937 E16.32684 F360.000
G1 X72.969 Y88.557 E16.34845
G1 X73.293 Y88.881 E16.37332
G1 X72.734 Y89.318 F7800.000
G1 X82.437 Y99.020 E17.11801 F360.000
G1 X82.032 Y99.113 E17.14057
G1 X72.617 Y89.698 E17.86316
G1 X72.500 Y90.078 E17.88477
G1 X81.627 Y99.205 E18.58527
G1 X81.221 Y99.298 E18.60783
G1 X72.382 Y90.459 E19.28623
G1 X72.349 Y90.923 E19.31149
G1 X80.816 Y99.390 E19.96136
G1 X80.351 Y99.423 E19.98665
G1 X72.349 Y91.421 E20.60084
G1 X72.349 Y91.918 E20.62785
G1 X79.813 Y99.383 E21.20074
G1 X79.275 Y99.342 E21.23002
G1 X72.349 Y92.416 E21.76161
G1 X72.383 Y92.948 E21.79055
G1 X78.737 Y99.302 E22.27820
G1 X78.130 Y99.193 E22.31164
G1 X72.605 Y93.668 E22.73571
G1 X72.827 Y94.388 E22.77659
G1 X77.311 Y98.872 E23.12074
G1 X76.492 Y98.550 F7800.000
G1 X73.169 Y95.227 E23.37580 F360.000
G1 X74.235 Y96.791 F7800.000
G1 X74.584 Y97.140 E23.40255 F360.000
M140 S100 ; wait for bed temperature to be reached
G1 E22.40255 F1800.00000
G92 E0
G1 Z0.700 F7800.000
G1 X77.451 Y60.646 F7800.000
G1 E1.00000 F1800.00000
G1 X78.667 Y60.888 E1.05257 F900.000
G1 X79.698 Y61.577 E1.10513
G1 X80.387 Y62.608 E1.15770
G1 X80.629 Y63.825 E1.21027
G1 X80.387 Y65.041 E1.26284
G1 X79.698 Y66.072 E1.31540
G1 X78.667 Y66.761 E1.36797
G1 X77.451 Y67.003 E1.42054
G1 X76.235 Y66.761 E1.47310
G1 X75.203 Y66.072 E1.52567
G1 X74.514 Y65.041 E1.57824
G1 X74.272 Y63.825 E1.63081
G1 X74.514 Y62.608 E1.68337
G1 X75.203 Y61.577 E1.73594
G1 X76.235 Y60.888 E1.78851
G1 X77.399 Y60.656 E1.83885
G1 X77.645 Y60.355 F7800.000
G1 X79.032 Y60.439 F7800.000
G1 X79.064 Y60.318 E1.84449 F1800.000
G1 X80.552 Y60.207 E1.91176
G1 X82.888 Y60.740 E2.01982
G1 X84.964 Y61.938 E2.12788
G1 X86.594 Y63.695 E2.23594
G1 X87.634 Y65.855 E2.34400
G1 X87.991 Y68.225 E2.45206
G1 X87.634 Y70.595 E2.56012
G1 X86.594 Y72.754 E2.66818
G1 X84.964 Y74.511 E2.77624
G1 X82.888 Y75.709 E2.88430
G1 X80.552 Y76.243 E2.99236
G1 X78.162 Y76.064 E3.10042
G1 X75.931 Y75.188 E3.20848
G1 X74.057 Y73.694 E3.31654
G1 X72.707 Y71.713 E3.42460
G1 X72.000 Y69.423 E3.53266
G1 X72.000 Y67.026 E3.64072
G1 X72.707 Y64.736 E3.74878
G1 X73.630 Y63.381 E3.82270
G1 X73.762 Y63.437 E3.82916
G1 X73.685 Y63.825 E3.84698
G1 X73.972 Y65.266 E3.91323
G1 X74.788 Y66.487 E3.97947
G1 X76.010 Y67.304 E4.04572
G1 X77.451 Y67.590 E4.11196
G1 X78.892 Y67.304 E4.17821
G1 X80.114 Y66.487 E4.24445
G1 X80.930 Y65.266 E4.31070
G1 X81.217 Y63.825 E4.37694
G1 X80.930 Y62.384 E4.44319
G1 X80.114 Y61.162 E4.50944
G1 X79.076 Y60.468 E4.56572
G1 X77.657 Y60.270 F7800.000
G1 X78.096 Y60.097 E4.58696 F1800.000
G1 X80.574 Y59.912 E4.69899
G1 X82.996 Y60.465 E4.81103
G1 X85.148 Y61.707 E4.92306
G1 X86.839 Y63.529 E5.03510
G1 X87.917 Y65.767 E5.14713
G1 X88.287 Y68.225 E5.25916
G1 X87.917 Y70.682 E5.37120
G1 X86.839 Y72.921 E5.48323
