; generated by Slic3r 1.2.9 on 2019-05-04 at 10:16:15

; external perimeters extrusion width = 0.35mm
; perimeters extrusion width = 0.37mm
; infill extrusion width = 0.37mm
; solid infill extrusion width = 0.37mm
; top infill extrusion width = 0.37mm

M107
M190 S90 ; set bed temperature
M104 S230 ; set temperature
G28 ; home all axes
G1 Z5 F5000 ; lift nozzle
M109 S230 ; wait for temperature to be reached
G21 ; set units to millimeters
G90 ; use absolute coordinates
M82 ; use absolute distances for extrusion
G92 E0
G1 E-1.00000 F1800.00000
G92 E0
G1 Z0.350 F7800.000
G1 X68.258 Y58.665 F7800.000
G1 E1.00000 F1800.00000
G1 X69.544 Y57.279 E1.10057 F1080.000
G1 X71.595 Y55.643 E1.24008
G1 X73.233 Y54.697 E1.34066
G1 X75.675 Y53.739 E1.48017
G1 X77.519 Y53.318 E1.58075
G1 X80.135 Y53.122 E1.72026
G1 X82.020 Y53.263 E1.82083
G1 X84.578 Y53.847 E1.96034
G1 X86.338 Y54.538 E2.06092
G1 X88.610 Y55.850 E2.20042
G1 X90.089 Y57.029 E2.30100
G1 X91.873 Y58.952 E2.44051
G1 X92.938 Y60.514 E2.54108
G1 X94.076 Y62.878 E2.68059
G1 X94.634 Y64.685 E2.78117
G1 X95.025 Y67.279 E2.92068
G1 X95.096 Y68.225 E2.97111
G1 X95.096 Y91.775 E4.22358
G1 X95.025 Y92.721 E4.27401
G1 X94.634 Y95.315 E4.41351
G1 X94.076 Y97.122 E4.51409
G1 X92.938 Y99.486 E4.65360
G1 X91.873 Y101.048 E4.75418
G1 X90.089 Y102.971 E4.89368
G1 X88.610 Y104.150 E4.99426
G1 X86.338 Y105.462 E5.13377
G1 X84.578 Y106.153 E5.23435
G1 X82.020 Y106.737 E5.37385
G1 X80.134 Y106.878 E5.47443
G1 X77.519 Y106.682 E5.61393
G1 X75.675 Y106.261 E5.71453
G1 X73.233 Y105.303 E5.85403
G1 X71.595 Y104.357 E5.95460
G1 X69.544 Y102.722 E6.09411
G1 X68.258 Y101.335 E6.19469
G1 X66.780 Y99.168 E6.33420
G1 X65.959 Y97.464 E6.43477
G1 X65.186 Y94.957 E6.57429
G1 X64.904 Y93.087 E6.67486
G1 X64.904 Y66.913 E8.06683
G1 X65.186 Y65.043 E8.16741
G1 X65.959 Y62.536 E8.30692
G1 X66.780 Y60.832 E8.40750
G1 X68.228 Y58.708 E8.54421
G1 E7.54421 F1800.00000
G92 E0
G1 X81.921 Y69.695 F7800.000
G1 E1.00000 F1800.00000
G1 X80.650 Y70.544 E1.08129 F270.000
G1 X79.151 Y70.842 E1.16258
G1 X77.652 Y70.544 E1.24386
G1 X76.381 Y69.695 E1.32515
G1 X75.532 Y68.424 E1.40644
G1 X75.233 Y66.925 E1.48773
G1 X75.532 Y65.425 E1.56901
G1 X76.381 Y64.155 E1.65030
G1 X77.652 Y63.305 E1.73159
G1 X79.120 Y63.013 E1.81121
G1 X80.647 Y63.303 E1.89384
G1 X81.921 Y64.155 E1.97534
G1 X82.770 Y65.425 E2.05663
G1 X83.068 Y66.925 E2.13792
G1 X82.770 Y68.424 E2.21921
G1 X81.950 Y69.651 E2.29770
G1 X81.672 Y69.446 F7800.000
G1 X80.515 Y70.219 E2.37169 F270.000
G1 X79.151 Y70.490 E2.44568
G1 X77.786 Y70.219 E2.51968
G1 X76.629 Y69.446 E2.59367
G1 X75.857 Y68.289 E2.66766
G1 X75.585 Y66.925 E2.74165
G1 X75.857 Y65.560 E2.81564
G1 X76.629 Y64.403 E2.88963
G1 X77.786 Y63.630 E2.96362
G1 X79.122 Y63.365 E3.03602
G1 X80.513 Y63.629 E3.11136
G1 X81.672 Y64.403 E3.18549
G1 X82.445 Y65.560 E3.25948
G1 X82.717 Y66.925 E3.33347
G1 X82.445 Y68.289 E3.40746
G1 X81.701 Y69.402 E3.47866
G1 X81.424 Y69.197 F7800.000
G1 X80.381 Y69.894 E3.54535 F270.000
G1 X79.151 Y70.139 E3.61204
G1 X77.921 Y69.894 E3.67874
G1 X76.878 Y69.197 E3.74543
G1 X76.181 Y68.155 E3.81213
G1 X75.937 Y66.925 E3.87882
G1 X76.181 Y65.695 E3.94552
G1 X76.878 Y64.652 E4.01221
G1 X77.921 Y63.955 E4.07890
G1 X79.123 Y63.716 E4.14409
G1 X80.380 Y63.955 E4.21213
G1 X81.424 Y64.652 E4.27888
G1 X82.120 Y65.695 E4.34557
G1 X82.365 Y66.925 E4.41227
G1 X82.120 Y68.155 E4.47896
G1 X81.453 Y69.154 E4.54286
G1 X81.492 Y69.541 F7800.000
G1 X86.470 Y72.669 F7800.000
G1 X84.870 Y74.393 E4.66794 F540.000
G1 X82.833 Y75.569 E4.79302
G1 X80.540 Y76.093 E4.91810
G1 X78.195 Y75.917 E5.04317
G1 X76.006 Y75.058 E5.16825
G1 X74.167 Y73.591 E5.29333
G1 X72.842 Y71.648 E5.41841
G1 X72.149 Y69.401 E5.54348
G1 X72.149 Y67.049 E5.66856
G1 X72.842 Y64.801 E5.79364
G1 X74.167 Y62.858 E5.91872
G1 X76.006 Y61.392 E6.04380
G1 X78.195 Y60.532 E6.16887
G1 X80.540 Y60.357 E6.29395
G1 X82.833 Y60.880 E6.41903
G1 X84.870 Y62.056 E6.54411
G1 X86.470 Y63.780 E6.66918
G1 X87.490 Y65.899 E6.79426
G1 X87.841 Y68.225 E6.91934
G1 X87.490 Y70.550 E7.04442
G1 X86.493 Y72.622 E7.16670
G1 X86.758 Y72.866 F7800.000
G1 X85.088 Y74.666 E7.29731 F540.000
G1 X82.961 Y75.894 E7.42792
G1 X80.567 Y76.440 E7.55852
G1 X78.118 Y76.257 E7.68913
G1 X75.831 Y75.360 E7.81974
G1 X73.911 Y73.828 E7.95034
G1 X72.528 Y71.799 E8.08095
G1 X71.804 Y69.453 E8.21156
G1 X71.804 Y66.997 E8.34216
G1 X72.528 Y64.650 E8.47277
G1 X73.911 Y62.621 E8.60338
G1 X75.831 Y61.090 E8.73398
G1 X78.118 Y60.192 E8.86459
G1 X80.567 Y60.009 E8.99520
G1 X82.961 Y60.555 E9.12580
G1 X85.088 Y61.783 E9.25641
G1 X86.758 Y63.584 E9.38702
G1 X87.824 Y65.796 E9.51762
G1 X88.190 Y68.225 E9.64823
G1 X87.824 Y70.653 E9.77884
G1 X86.781 Y72.818 E9.90665
G1 X87.046 Y73.062 F7800.000
G1 X85.305 Y74.939 E10.04279 F324.000
G1 X83.088 Y76.219 E10.17893
G1 X80.593 Y76.788 E10.31506
G1 X78.040 Y76.597 E10.45120
G1 X75.657 Y75.662 E10.58733
G1 X73.656 Y74.066 E10.72347
G1 X72.214 Y71.951 E10.85961
G1 X71.459 Y69.505 E10.99574
G1 X71.459 Y66.945 E11.13188
G1 X72.214 Y64.499 E11.26801
G1 X73.656 Y62.384 E11.40415
G1 X75.657 Y60.787 E11.54029
G1 X78.040 Y59.852 E11.67642
G1 X80.593 Y59.661 E11.81256
G1 X83.088 Y60.231 E11.94869
G1 X85.305 Y61.511 E12.08483
G1 X87.046 Y63.387 E12.22096
G1 X88.157 Y65.693 E12.35710
G1 X88.538 Y68.225 E12.49324
G1 X88.157 Y70.756 E12.62937
G1 X87.069 Y73.015 E12.76272
G1 X86.699 Y73.019 F7800.000
G1 X87.155 Y65.752 F7800.000
G1 X82.409 Y61.007 E13.12694 F360.000
G1 X81.764 Y60.860 E13.16284
G1 X87.360 Y66.456 E13.59235
G1 X87.449 Y67.042 E13.62452
G1 X81.119 Y60.712 E14.11031
G1 X80.474 Y60.565 E14.14621
G1 X87.537 Y67.628 E14.68829
G1 X87.625 Y68.214 E14.72045
G1 X80.003 Y60.592 E15.30544
G1 X79.540 Y60.627 E15.33064
G1 X87.582 Y68.668 E15.94785
G1 X87.517 Y69.101 E15.97159
G1 X79.077 Y60.662 E16.61933
G1 X78.614 Y60.696 E16.64453
G1 X81.461 Y63.543 E16.86305
G1 X80.471 Y63.051 F7800.000
G1 X78.159 Y60.738 E17.04056 F360.000
G1 X77.801 Y60.879 E17.06140
G1 X79.857 Y62.934 E17.21920
G1 X79.243 Y62.818 E17.25314
G1 X77.444 Y61.019 E17.39121
G1 X77.086 Y61.159 E17.41205
G1 X78.811 Y62.884 E17.54444
G1 X78.396 Y62.967 E17.56741
G1 X76.729 Y61.299 E17.69537
G1 X76.371 Y61.440 E17.71621
G1 X77.981 Y63.049 E17.83974
G1 X77.580 Y63.147 E17.86210
G1 X76.027 Y61.593 E17.98135
G1 X75.750 Y61.814 E18.00057
G1 X77.282 Y63.346 E18.11818
G1 X76.984 Y63.545 E18.13765
G1 X75.473 Y62.034 E18.25361
G1 X75.196 Y62.255 E18.27283
G1 X76.685 Y63.745 E18.38714
G1 X76.387 Y63.944 E18.40662
G1 X74.919 Y62.476 E18.51928
G1 X74.642 Y62.697 E18.53850
G1 X76.144 Y64.199 E18.65381
G1 X75.945 Y64.498 E18.67329
G1 X74.373 Y62.925 E18.79398
G1 X74.145 Y63.195 E18.81315
G1 X75.746 Y64.796 E18.93603
G1 X75.546 Y65.094 E18.95551
G1 X73.943 Y63.491 E19.07857
G1 X73.741 Y63.787 E19.09801
G1 X75.347 Y65.393 E19.22129
G1 X75.265 Y65.808 E19.24426
G1 X73.539 Y64.083 E19.37668
G1 X73.338 Y64.379 E19.39612
G1 X75.182 Y66.223 E19.53769
G1 X75.100 Y66.639 E19.56066
G1 X73.136 Y64.675 E19.71138
G1 X72.969 Y65.006 E19.73150
G1 X75.045 Y67.082 E19.89081
G1 X75.168 Y67.703 E19.92519
G1 X72.852 Y65.386 E20.10300
G1 X72.734 Y65.767 E20.12460
G1 X75.292 Y68.324 E20.32090
G1 X75.900 Y69.430 F7800.000
G1 X72.617 Y66.147 E20.57283 F360.000
G1 X72.500 Y66.528 E20.59443
G1 X81.627 Y75.654 E21.29493
G1 X81.221 Y75.747 E21.31749
G1 X72.382 Y66.908 E21.99589
G1 X72.349 Y67.372 E22.02115
G1 X80.816 Y75.839 E22.67101
G1 X80.351 Y75.872 E22.69631
G1 X72.349 Y67.870 E23.31049
G1 X72.349 Y68.368 E23.33751
G1 X79.813 Y75.832 E23.91039
G1 X79.275 Y75.792 E23.93968
G1 X72.349 Y68.865 E24.47127
G1 X72.383 Y69.397 E24.50020
G1 X78.737 Y75.751 E24.98786
G1 X78.130 Y75.643 E25.02130
G1 X72.605 Y70.117 E25.44537
G1 X72.827 Y70.837 E25.48625
G1 X77.311 Y75.321 E25.83040
G1 X76.492 Y74.999 F7800.000
G1 X73.169 Y71.676 E26.08545 F360.000
G1 X74.235 Y73.240 F7800.000
G1 X74.584 Y73.589 E26.11220 F360.000
G1 X76.646 Y70.176 F7800.000
G1 X82.032 Y75.562 E26.52558 F360.000
G1 X82.437 Y75.469 E26.54814
G1 X77.751 Y70.783 E26.90780
G1 X78.372 Y70.907 E26.94218
G1 X82.834 Y75.369 E27.28462
G1 X83.150 Y75.187 E27.30440
G1 X78.994 Y71.031 E27.62338
G1 X79.437 Y70.976 E27.64760
G1 X83.465 Y75.004 E27.95680
G1 X83.781 Y74.822 E27.97657
G1 X79.852 Y70.893 E28.27812
G1 X80.267 Y70.811 E28.30109
G1 X84.096 Y74.640 E28.59500
G1 X84.412 Y74.458 E28.61477
G1 X80.682 Y70.728 E28.90103
G1 X80.981 Y70.529 E28.92051
G1 X84.723 Y74.271 E29.20769
G1 X84.971 Y74.022 E29.22679
G1 X81.279 Y70.330 E29.51016
G1 X81.578 Y70.130 E29.52963
G1 X85.217 Y73.770 E29.80897
G1 X85.457 Y73.512 E29.82808
G1 X81.876 Y69.931 E30.10290
G1 X82.131 Y69.689 E30.12201
G1 X85.696 Y73.253 E30.39562
G1 X85.936 Y72.995 E30.41473
G1 X82.331 Y69.390 E30.69143
G1 X82.530 Y69.092 E30.71090
G1 X86.175 Y72.737 E30.99068
G1 X86.382 Y72.446 E31.01005
G1 X82.729 Y68.793 E31.29042
G1 X82.929 Y68.495 E31.30990
G1 X86.544 Y72.110 E31.58738
G1 X86.706 Y71.774 E31.60762
G1 X83.026 Y68.095 E31.89005
G1 X83.109 Y67.680 E31.91302
G1 X86.868 Y71.439 E32.20153
G1 X87.030 Y71.103 E32.22176
G1 X83.191 Y67.264 E32.51635
G1 X83.273 Y66.848 E32.53937
G1 X87.191 Y70.767 E32.84012
G1 X87.321 Y70.399 E32.86129
G1 X83.149 Y66.227 E33.18149
G1 X83.026 Y65.605 E33.21587
G1 X87.386 Y69.966 E33.55056
G1 X87.452 Y69.534 E33.57430
G1 X82.532 Y64.614 E33.95187
G1 X84.558 Y62.160 F7800.000
G1 X85.137 Y62.739 E33.99632 F360.000
G1 X83.380 Y61.480 F7800.000
G1 X86.692 Y64.792 E34.25054 F360.000
G1 E33.25054 F1800.00000
G92 E0
G1 Z0.350 F7800.000
G1 X80.847 Y86.854 F7800.000
G1 E1.00000 F1800.00000
G1 X82.121 Y87.705 E1.08151 F270.000
G1 X82.970 Y88.976 E1.16279
G1 X83.268 Y90.475 E1.24408
G1 X82.970 Y91.975 E1.32537
G1 X82.121 Y93.245 E1.40666
G1 X80.850 Y94.095 E1.48794
G1 X79.351 Y94.393 E1.56923
G1 X77.852 Y94.095 E1.65052
G1 X76.581 Y93.245 E1.73181
G1 X75.732 Y91.975 E1.81309
G1 X75.433 Y90.475 E1.89438
G1 X75.732 Y88.976 E1.97567
G1 X76.581 Y87.705 E2.05696
G1 X77.852 Y86.856 E2.13824
G1 X79.320 Y86.564 E2.21786
G1 X80.795 Y86.844 E2.29770
G1 X80.713 Y87.180 F7800.000
G1 X81.872 Y87.954 E2.37183 F270.000
G1 X82.645 Y89.111 E2.44582
G1 X82.917 Y90.475 E2.51981
G1 X82.645 Y91.840 E2.59380
G1 X81.872 Y92.997 E2.66779
G1 X80.715 Y93.770 E2.74178
G1 X79.351 Y94.041 E2.81577
G1 X77.986 Y93.770 E2.88976
G1 X76.829 Y92.997 E2.96375
G1 X76.057 Y91.840 E3.03775
G1 X75.785 Y90.475 E3.11174
G1 X76.057 Y89.111 E3.18573
G1 X76.829 Y87.954 E3.25972
G1 X77.986 Y87.181 E3.33371
G1 X79.322 Y86.915 E3.40611
G1 X80.662 Y87.170 E3.47866
G1 X80.580 Y87.505 F7800.000
G1 X81.624 Y88.203 E3.54540 F270.000
G1 X82.320 Y89.245 E3.61210
G1 X82.565 Y90.475 E3.67879
G1 X82.320 Y91.705 E3.74548
G1 X81.624 Y92.748 E3.81218
G1 X80.581 Y93.445 E3.87887
G1 X79.351 Y93.690 E3.94557
G1 X78.121 Y93.445 E4.01226
G1 X77.078 Y92.748 E4.07895
G1 X76.381 Y91.705 E4.14565
G1 X76.137 Y90.475 E4.21234
G1 X76.381 Y89.245 E4.27904
G1 X77.078 Y88.203 E4.34573
G1 X78.121 Y87.506 E4.41242
G1 X79.323 Y87.267 E4.47762
G1 X80.528 Y87.496 E4.54286
G1 X80.870 Y87.310 F7800.000
G1 X80.540 Y83.907 F7800.000
G1 X82.833 Y84.431 E4.66794 F540.000
G1 X84.870 Y85.607 E4.79302
G1 X86.470 Y87.331 E4.91810
G1 X87.490 Y89.450 E5.04317
G1 X87.841 Y91.775 E5.16825
G1 X87.490 Y94.101 E5.29333
G1 X86.470 Y96.220 E5.41840
G1 X84.870 Y97.944 E5.54348
G1 X82.833 Y99.120 E5.66856
G1 X80.540 Y99.643 E5.79364
G1 X78.195 Y99.468 E5.91872
G1 X76.006 Y98.608 E6.04379
G1 X74.167 Y97.142 E6.16887
G1 X72.842 Y95.199 E6.29395
G1 X72.149 Y92.951 E6.41903
G1 X72.149 Y90.599 E6.54410
G1 X72.842 Y88.352 E6.66918
G1 X74.167 Y86.409 E6.79426
G1 X76.006 Y84.942 E6.91934
G1 X78.195 Y84.083 E7.04442
G1 X80.488 Y83.911 E7.16670
G1 X80.567 Y83.560 F7800.000
G1 X82.961 Y84.106 E7.29731 F540.000
G1 X85.088 Y85.334 E7.42791
G1 X86.758 Y87.134 E7.55852
G1 X87.824 Y89.347 E7.68913
G1 X88.190 Y91.775 E7.81974
G1 X87.824 Y94.204 E7.95034
G1 X86.758 Y96.416 E8.08095
G1 X85.088 Y98.217 E8.21156
G1 X82.961 Y99.445 E8.34216
G1 X80.567 Y99.991 E8.47277
G1 X78.118 Y99.808 E8.60338
G1 X75.831 Y98.910 E8.73398
G1 X73.911 Y97.379 E8.86459
G1 X72.528 Y95.350 E8.99520
G1 X71.804 Y93.003 E9.12580
G1 X71.804 Y90.547 E9.25641
G1 X72.528 Y88.201 E9.38702
G1 X73.911 Y86.172 E9.51762
G1 X75.831 Y84.640 E9.64823
G1 X78.118 Y83.743 E9.77884
G1 X80.514 Y83.564 E9.90665
G1 X80.621 Y83.218 F7800.000
G1 X83.088 Y83.781 E10.04122 F324.000
G1 X85.305 Y85.061 E10.17735
G1 X87.046 Y86.938 E10.31349
G1 X88.157 Y89.244 E10.44962
G1 X88.538 Y91.775 E10.58576
G1 X88.157 Y94.307 E10.72190
G1 X87.046 Y96.613 E10.85803
G1 X85.325 Y98.468 E10.99260
G1 X83.088 Y99.769 E11.13024
G1 X80.593 Y100.339 E11.26637
G1 X78.040 Y100.148 E11.40251
G1 X75.657 Y99.212 E11.53864
G1 X73.656 Y97.616 E11.67478
G1 X72.230 Y95.526 E11.80934
G1 X71.459 Y93.055 E11.94698
G1 X71.459 Y90.495 E12.08312
G1 X72.214 Y88.049 E12.21925
G1 X73.656 Y85.934 E12.35539
G1 X75.657 Y84.338 E12.49153
G1 X78.040 Y83.403 E12.62766
G1 X80.570 Y83.213 E12.76258
G1 X80.757 Y83.541 F7800.000
G1 X83.380 Y85.031 F7800.000
G1 X86.692 Y88.343 E13.01680 F360.000
G1 X87.155 Y89.303 F7800.000
G1 X82.409 Y84.558 E13.38102 F360.000
G1 X81.764 Y84.410 E13.41692
G1 X87.360 Y90.007 E13.84643
G1 X87.449 Y90.593 E13.87860
G1 X81.119 Y84.263 E14.36439
G1 X80.474 Y84.116 E14.40029
G1 X87.537 Y91.179 E14.94237
G1 X87.625 Y91.765 E14.97453
G1 X80.003 Y84.143 E15.55952
G1 X79.540 Y84.178 E15.58472
G1 X87.582 Y92.219 E16.20193
G1 X87.517 Y92.652 E16.22567
G1 X79.077 Y84.212 E16.87341
G1 X78.614 Y84.247 E16.89861
G1 X81.059 Y86.691 E17.08622
G1 X80.425 Y86.555 E17.12141
G1 X78.159 Y84.289 E17.29533
G1 X77.801 Y84.429 E17.31617
G1 X79.810 Y86.438 E17.47037
G1 X79.259 Y86.385 E17.50040
G1 X77.444 Y84.570 E17.63976
G1 X77.086 Y84.710 E17.66060
G1 X78.844 Y86.468 E17.79553
G1 X78.429 Y86.551 E17.81850
G1 X76.729 Y84.850 E17.94901
G1 X76.371 Y84.990 E17.96985
G1 X78.014 Y86.633 E18.09592
G1 X77.661 Y86.777 E18.11664
G1 X76.027 Y85.144 E18.24204
G1 X75.750 Y85.364 E18.26126
G1 X77.362 Y86.977 E18.38502
G1 X77.064 Y87.176 E18.40449
G1 X75.473 Y85.585 E18.52660
G1 X75.196 Y85.806 E18.54582
G1 X76.765 Y87.376 E18.66628
G1 X76.467 Y87.575 E18.68576
G1 X74.919 Y86.027 E18.80457
G1 X74.642 Y86.248 E18.82379
G1 X76.264 Y87.870 E18.94830
G1 X76.065 Y88.168 E18.96778
G1 X74.373 Y86.476 E19.09768
G1 X74.145 Y86.746 E19.11685
G1 X75.866 Y88.467 E19.24893
G1 X75.666 Y88.765 E19.26840
G1 X73.943 Y87.042 E19.40067
G1 X73.741 Y87.338 E19.42011
G1 X75.514 Y89.111 E19.55618
G1 X75.432 Y89.526 E19.57916
G1 X73.539 Y87.634 E19.72438
G1 X73.338 Y87.930 E19.74382
G1 X75.349 Y89.941 E19.89820
G1 X75.266 Y90.356 E19.92117
G1 X73.136 Y88.226 E20.08469
G1 X72.969 Y88.557 E20.10481
G1 X75.294 Y90.882 E20.28328
G1 X75.418 Y91.503 E20.31767
G1 X72.852 Y88.937 E20.51463
G1 X72.734 Y89.318 E20.53624
G1 X75.542 Y92.125 E20.75169
G1 X77.701 Y94.285 F7800.000
G1 X82.437 Y99.020 E21.11516 F360.000
G1 X82.834 Y98.920 E21.13739
G1 X78.323 Y94.408 E21.48365
G1 X78.944 Y94.532 E21.51803
G1 X83.150 Y98.737 E21.84082
G1 X83.465 Y98.555 E21.86059
G1 X79.470 Y94.560 E22.16724
G1 X79.885 Y94.477 E22.19022
G1 X83.781 Y98.373 E22.48922
G1 X84.096 Y98.191 E22.50900
G1 X80.300 Y94.395 E22.80035
G1 X80.715 Y94.312 E22.82333
G1 X84.412 Y98.009 E23.10704
G1 X84.723 Y97.821 E23.12672
G1 X81.061 Y94.160 E23.40774
G1 X81.359 Y93.961 E23.42722
G1 X84.971 Y97.573 E23.70444
G1 X85.217 Y97.321 E23.72354
G1 X81.658 Y93.761 E23.99673
G1 X81.956 Y93.562 E24.01620
G1 X85.457 Y97.062 E24.28487
G1 X85.696 Y96.804 E24.30399
G1 X82.251 Y93.359 E24.56840
G1 X82.451 Y93.061 E24.58787
G1 X85.936 Y96.546 E24.85537
G1 X86.175 Y96.288 E24.87448
G1 X82.650 Y92.762 E25.14506
G1 X82.849 Y92.464 E25.16454
G1 X86.382 Y95.997 E25.43570
G1 X86.544 Y95.661 E25.45594
G1 X83.049 Y92.166 E25.72423
G1 X83.193 Y91.812 E25.74494
G1 X86.706 Y95.325 E26.01457
G1 X86.868 Y94.989 E26.03480
G1 X83.276 Y91.397 E26.31051
G1 X83.358 Y90.982 E26.33348
G1 X87.030 Y94.653 E26.61526
G1 X87.191 Y94.317 E26.63550
G1 X83.441 Y90.567 E26.92336
G1 X83.399 Y90.027 E26.95273
G1 X87.321 Y93.949 E27.25376
G1 X87.386 Y93.517 E27.27750
G1 X83.275 Y89.406 E27.59303
G1 X83.135 Y88.768 E27.62849
