; generated by Slic3r 1.2.9 on 2019-02-26 at 16:46:37

; external perimeters extrusion width = 0.35mm
; perimeters extrusion width = 0.37mm
; infill extrusion width = 0.37mm
; solid infill extrusion width = 0.37mm
; top infill extrusion width = 0.37mm

M107
M190 S90 ; set bed temperature
M104 S230 ; set temperature
G28 ; home all axes
G1 Z5 F5000 ; lift nozzle
M109 S230 ; wait for temperature to be reached
G21 ; set units to millimeters
G90 ; use absolute coordinates
M82 ; use absolute distances for extrusion
G92 E0
G1 E-1.00000 F1800.00000
G92 E0
G1 Z0.350 F7800.000
G1 X58.581 Y57.626 F7800.000
G1 E1.00000 F1800.00000
G1 X60.562 Y56.046 E1.13475 F1080.000
G1 X62.200 Y55.100 E1.23533
G1 X64.558 Y54.175 E1.37008
G1 X66.402 Y53.754 E1.47066
G1 X68.929 Y53.564 E1.60541
G1 X69.403 Y53.547 E1.63064
G1 X92.308 Y53.547 E2.84876
G1 X93.720 Y53.706 E2.92432
G1 X96.190 Y54.270 E3.05907
G1 X97.951 Y54.961 E3.15966
G1 X100.145 Y56.227 E3.29440
G1 X101.624 Y57.407 E3.39498
G1 X103.347 Y59.264 E3.52973
G1 X104.412 Y60.827 E3.63031
G1 X105.512 Y63.110 E3.76506
G1 X106.069 Y64.917 E3.86564
G1 X106.447 Y67.422 E4.00039
G1 X106.518 Y68.368 E4.05082
G1 X106.518 Y91.320 E5.27147
G1 X106.447 Y92.266 E5.32190
G1 X106.069 Y94.771 E5.45665
G1 X105.512 Y96.579 E5.55723
G1 X104.412 Y98.862 E5.69198
G1 X103.347 Y100.424 E5.79256
G1 X101.624 Y102.282 E5.92731
G1 X100.145 Y103.461 E6.02789
G1 X97.951 Y104.728 E6.16264
G1 X96.190 Y105.419 E6.26322
G1 X93.720 Y105.982 E6.39797
G1 X92.393 Y106.141 E6.46906
G1 X68.952 Y106.453 E7.71579
G1 X68.393 Y106.436 E7.74551
G1 X65.867 Y106.246 E7.88025
G1 X64.023 Y105.825 E7.98084
G1 X61.664 Y104.900 E8.11559
G1 X60.026 Y103.954 E8.21617
G1 X58.045 Y102.374 E8.35091
G1 X56.759 Y100.988 E8.45150
G1 X55.332 Y98.894 E8.58624
G1 X54.511 Y97.190 E8.68682
G1 X53.764 Y94.769 E8.82158
G1 X53.482 Y92.899 E8.92215
G1 X53.482 Y90.365 E9.05690
G1 X54.020 Y66.955 E10.30222
G1 X54.300 Y65.231 E10.39511
G1 X55.047 Y62.810 E10.52986
G1 X55.867 Y61.106 E10.63045
G1 X57.295 Y59.012 E10.76520
G1 X58.545 Y57.664 E10.86299
G1 E9.86299 F1800.00000
G92 E0
G1 X98.430 Y65.502 F7800.000
G1 E1.00000 F1800.00000
G1 X98.599 Y65.452 E1.00938 F540.000
G1 X98.926 Y66.131 E1.04947
G1 X99.263 Y68.368 E1.16979
G1 X98.926 Y70.605 E1.29011
G1 X97.944 Y72.644 E1.41043
G1 X96.405 Y74.302 E1.53075
G1 X94.446 Y75.433 E1.65108
G1 X92.240 Y75.937 E1.77140
G1 X89.984 Y75.768 E1.89172
G1 X87.878 Y74.941 E2.01204
G1 X86.109 Y73.530 E2.13236
G1 X84.835 Y71.661 E2.25268
G1 X84.168 Y69.499 E2.37301
G1 X84.168 Y67.237 E2.49333
G1 X84.440 Y66.355 E2.54242
G1 X85.085 Y67.320 E2.60414
G1 X86.355 Y68.169 E2.68543
G1 X87.822 Y68.460 E2.76496
G1 X88.756 Y68.343 E2.81503
G1 X90.015 Y68.047 E2.88377
G1 X89.523 Y68.834 E2.93311
G1 X89.227 Y70.319 E3.01365
G1 X89.525 Y71.818 E3.09494
G1 X90.375 Y73.089 E3.17623
G1 X91.646 Y73.939 E3.25751
G1 X93.145 Y74.237 E3.33880
G1 X94.644 Y73.939 E3.42009
G1 X95.862 Y73.125 E3.49798
G1 X97.539 Y71.240 E3.63219
G1 X98.368 Y69.914 E3.71532
G1 X98.728 Y68.106 E3.81338
G1 X98.684 Y67.437 E3.84901
G1 X98.437 Y65.554 E3.95002
G1 E2.95002 F1800.00000
G92 E0
G1 X94.346 Y61.098 F7800.000
G1 E1.00000 F1800.00000
G1 X94.415 Y60.942 E1.00907 F540.000
G1 X94.573 Y60.978 E1.01773
G1 X96.623 Y62.161 E1.14358
G1 X98.232 Y63.896 E1.26943
G1 X99.259 Y66.028 E1.39528
G1 X99.612 Y68.368 E1.52113
G1 X99.259 Y70.708 E1.64699
G1 X98.232 Y72.840 E1.77284
G1 X96.623 Y74.575 E1.89869
G1 X94.573 Y75.758 E2.02454
G1 X92.266 Y76.285 E2.15039
G1 X89.906 Y76.108 E2.27624
G1 X87.703 Y75.243 E2.40209
G1 X85.853 Y73.768 E2.52794
G1 X84.534 Y71.833 E2.65249
G1 X83.823 Y69.551 E2.77959
G1 X83.823 Y67.185 E2.90544
G1 X84.328 Y65.547 E2.99659
G1 X84.489 Y65.555 E3.00516
G1 X84.560 Y65.914 E3.02462
G1 X85.333 Y67.071 E3.09861
G1 X86.490 Y67.844 E3.17260
G1 X87.834 Y68.111 E3.24550
G1 X88.695 Y68.003 E3.29163
G1 X90.665 Y67.540 E3.39922
G1 X90.742 Y67.670 E3.40727
G1 X90.453 Y67.997 E3.43048
G1 X89.849 Y68.963 E3.49108
G1 X89.579 Y70.319 E3.56461
G1 X89.850 Y71.684 E3.63860
G1 X90.623 Y72.841 E3.71259
G1 X91.780 Y73.614 E3.78658
G1 X93.145 Y73.885 E3.86058
G1 X94.509 Y73.614 E3.93457
G1 X95.633 Y72.863 E4.00646
G1 X97.262 Y71.032 E4.13678
G1 X98.042 Y69.785 E4.21500
G1 X98.381 Y68.083 E4.30729
G1 X98.341 Y67.471 E4.33990
G1 X98.079 Y65.478 E4.44680
G1 X97.775 Y64.345 E4.50920
G1 X96.813 Y62.905 E4.60130
G1 X96.192 Y62.385 E4.64436
G1 X94.389 Y61.128 E4.76128
G1 E3.76128 F1800.00000
G92 E0
G1 X88.124 Y61.166 F7800.000
G1 E1.00000 F1800.00000
G1 X88.064 Y60.981 E1.01035 F324.000
G1 X89.829 Y60.288 E1.11119
G1 X92.292 Y60.103 E1.24257
G1 X94.701 Y60.653 E1.37395
G1 X96.840 Y61.888 E1.50533
G1 X98.520 Y63.699 E1.63671
G1 X99.592 Y65.925 E1.76809
G1 X99.961 Y68.368 E1.89947
G1 X99.592 Y70.811 E2.03085
G1 X98.520 Y73.036 E2.16224
G1 X96.840 Y74.847 E2.29362
G1 X94.701 Y76.083 E2.42500
G1 X92.292 Y76.632 E2.55638
G1 X89.829 Y76.448 E2.68776
G1 X87.529 Y75.545 E2.81914
G1 X85.598 Y74.005 E2.95052
G1 X84.206 Y71.964 E3.08190
G1 X83.478 Y69.603 E3.21328
G1 X83.478 Y67.133 E3.34466
G1 X84.206 Y64.772 E3.47604
G1 X84.511 Y64.324 E3.50487
G1 X84.664 Y64.382 E3.51354
G1 X84.642 Y64.557 E3.52295
G1 X84.885 Y65.779 E3.58923
G1 X85.582 Y66.822 E3.65592
G1 X86.625 Y67.519 E3.72262
G1 X87.847 Y67.762 E3.78890
G1 X88.634 Y67.663 E3.83108
G1 X90.747 Y67.167 E3.94654
G1 X90.944 Y67.144 E3.95705
G1 X91.063 Y67.153 E3.96340
G1 X91.122 Y67.170 E3.96669
G1 X91.222 Y67.237 E3.97308
G1 X91.284 Y67.330 E3.97902
G1 X91.306 Y67.439 E3.98495
G1 X91.284 Y67.552 E3.99106
G1 X91.226 Y67.645 E3.99687
G1 X90.730 Y68.204 E4.03662
G1 X90.175 Y69.093 E4.09234
G1 X89.931 Y70.319 E4.15886
G1 X90.175 Y71.549 E4.22555
G1 X90.872 Y72.592 E4.29225
G1 X91.915 Y73.289 E4.35894
G1 X93.145 Y73.533 E4.42563
G1 X94.375 Y73.289 E4.49233
G1 X95.405 Y72.600 E4.55823
G1 X96.985 Y70.824 E4.68465
G1 X97.716 Y69.656 E4.75796
G1 X98.033 Y68.060 E4.84448
G1 X97.997 Y67.505 E4.87408
G1 X97.740 Y65.545 E4.97917
G1 X97.457 Y64.489 E5.03734
G1 X96.554 Y63.137 E5.12378
G1 X95.982 Y62.659 E5.16341
G1 X93.876 Y61.190 E5.29998
G1 X93.081 Y60.755 E5.34817
G1 X91.485 Y60.438 E5.43470
G1 X90.442 Y60.570 E5.49060
G1 X88.174 Y61.153 E5.61512
G1 X88.168 Y60.977 F7800.000
G1 X87.893 Y61.136 F7800.000
G1 X87.566 Y61.254 E5.63363 F324.000
G1 X87.254 Y61.428 E5.65260
G1 X86.139 Y62.222 E5.72541
G1 X85.799 Y62.517 E5.74934
G1 X85.589 Y62.723 E5.76499
G1 X84.837 Y63.724 E5.83157
G1 X84.662 Y64.156 E5.85638
G1 X84.461 Y66.961 F7800.000
G1 X84.701 Y67.200 E5.87488 F360.000
G1 X85.204 Y67.703 F7800.000
G1 X89.302 Y71.802 E6.19109 F360.000
G1 X89.178 Y71.178 F7800.000
G1 X86.398 Y68.397 E6.40560 F360.000
G1 X87.022 Y68.521 E6.44033
G1 X89.054 Y70.553 E6.59708
G1 X89.084 Y70.082 E6.62280
G1 X87.647 Y68.645 E6.73366
G1 X88.118 Y68.616 E6.75941
G1 X89.167 Y69.665 E6.84033
G1 X89.250 Y69.248 E6.86354
G1 X88.562 Y68.560 E6.91657
G1 X88.982 Y68.480 E6.93990
G1 X89.333 Y68.831 E6.96694
G1 X90.032 Y73.033 F7800.000
G1 X84.368 Y67.368 E7.40396 F360.000
G1 X84.368 Y67.868 E7.43126
G1 X92.229 Y75.730 E8.03776
G1 X92.652 Y75.652 E8.06122
G1 X90.431 Y73.432 E8.23255
G1 X91.662 Y74.162 F7800.000
G1 X93.060 Y75.559 E8.34038 F360.000
G1 X93.467 Y75.466 E8.36317
G1 X92.286 Y74.286 E8.45424
G1 X92.911 Y74.410 E8.48898
G1 X93.874 Y75.373 E8.56330
G1 X94.282 Y75.280 E8.58609
G1 X93.382 Y74.380 E8.65553
G1 X93.799 Y74.297 E8.67874
G1 X94.629 Y75.128 E8.74278
G1 X94.946 Y74.944 E8.76276
G1 X94.216 Y74.214 E8.81909
G1 X94.633 Y74.131 E8.84230
G1 X95.263 Y74.761 E8.89089
G1 X95.581 Y74.578 E8.91087
G1 X94.946 Y73.943 E8.95985
G1 X95.246 Y73.743 E8.97953
G1 X95.898 Y74.395 E9.02984
G1 X96.215 Y74.212 E9.04982
G1 X95.546 Y73.542 E9.10146
G1 X95.845 Y73.342 E9.12114
G1 X96.470 Y73.967 E9.16934
G1 X96.719 Y73.715 E9.18864
G1 X96.108 Y73.104 E9.23577
G1 X96.343 Y72.839 E9.25510
G1 X96.959 Y73.455 E9.30263
G1 X97.200 Y73.196 E9.32194
G1 X96.579 Y72.574 E9.36988
G1 X96.814 Y72.310 E9.38921
G1 X97.441 Y72.936 E9.43755
G1 X97.682 Y72.677 E9.45686
G1 X97.050 Y72.045 E9.50561
G1 X97.285 Y71.780 E9.52494
G1 X97.879 Y72.374 E9.57074
G1 X98.042 Y72.036 E9.59119
G1 X97.521 Y71.515 E9.63136
G1 X97.744 Y71.238 E9.65078
G1 X98.204 Y71.699 E9.68633
G1 X98.367 Y71.361 E9.70678
G1 X97.936 Y70.930 E9.74003
G1 X98.335 Y70.828 E9.76246
G1 X98.530 Y71.023 E9.77752
G1 E8.77752 F1800.00000
G92 E0
G1 X89.215 Y75.217 F7800.000
G1 E1.00000 F1800.00000
G1 X84.807 Y70.809 E1.34008 F360.000
G1 X84.584 Y70.085 E1.38138
G1 X90.038 Y75.540 E1.80220
G1 X90.607 Y75.608 E1.83342
G1 X84.368 Y69.369 E2.31476
G1 X84.368 Y68.869 E2.34205
G1 X91.148 Y75.649 E2.86511
G1 X91.689 Y75.689 E2.89470
G1 X84.368 Y68.368 E3.45948
G1 X85.105 Y71.607 F7800.000
G1 X88.391 Y74.894 E3.71301 F360.000
G1 X86.526 Y73.528 F7800.000
G1 X86.177 Y73.180 E3.73990 F360.000
G1 E2.73990 F1800.00000
G92 E0
G1 X98.460 Y70.629 F7800.000
G1 E1.00000 F1800.00000
G1 X98.684 Y70.009 E1.07777 F360.000
G1 X98.925 Y68.630 E1.24293
G1 X98.925 Y68.630 F7800.000
G1 X98.970 Y68.368 E1.25706 F360.000
G1 X98.975 Y68.112 E1.27067
G1 X98.900 Y67.414 E1.30799
G1 X98.727 Y66.192 E1.37365
G1 X98.687 Y66.057 E1.38111
G1 X98.459 Y65.313 F7800.000
G1 X98.061 Y64.239 E1.51629 F360.000
G1 X97.971 Y64.074 E1.53841
G1 X97.779 Y63.832 E1.57483
G1 X97.779 Y63.832 F7800.000
G1 X96.964 Y62.800 E1.64476 F360.000
G1 X96.926 Y62.759 F7800.000
G1 X96.482 Y62.337 E1.67733 F360.000
G1 X95.905 Y61.960 E1.71399
G1 X94.226 Y60.941 F7800.000
G1 X93.509 Y60.670 E1.80439 F360.000
G1 X93.509 Y60.670 F7800.000
G1 X93.152 Y60.535 E1.82472 F360.000
G1 X92.274 Y60.348 E1.87244
G1 X91.838 Y60.321 E1.89566
G1 E0.89566 F1800.00000
G92 E0
G1 Z0.350 F7800.000
G1 X75.525 Y65.502 F7800.000
G1 E1.00000 F1800.00000
G1 X75.694 Y65.452 E1.00938 F540.000
G1 X76.021 Y66.131 E1.04947
G1 X76.358 Y68.368 E1.16979
G1 X76.021 Y70.605 E1.29011
G1 X75.039 Y72.644 E1.41043
G1 X73.500 Y74.302 E1.53075
G1 X71.541 Y75.433 E1.65108
G1 X69.335 Y75.937 E1.77140
G1 X67.079 Y75.768 E1.89172
G1 X64.973 Y74.941 E2.01204
G1 X63.204 Y73.530 E2.13236
G1 X61.929 Y71.661 E2.25268
G1 X61.263 Y69.499 E2.37301
G1 X61.263 Y67.237 E2.49333
G1 X61.535 Y66.355 E2.54242
G1 X62.179 Y67.320 E2.60414
G1 X63.450 Y68.169 E2.68543
G1 X64.917 Y68.460 E2.76496
G1 X65.851 Y68.343 E2.81503
G1 X67.110 Y68.047 E2.88377
G1 X66.618 Y68.834 E2.93311
G1 X66.322 Y70.319 E3.01365
G1 X66.620 Y71.818 E3.09494
G1 X67.470 Y73.089 E3.17623
G1 X68.741 Y73.939 E3.25751
G1 X70.240 Y74.237 E3.33880
G1 X71.739 Y73.939 E3.42009
G1 X72.957 Y73.125 E3.49798
G1 X74.634 Y71.240 E3.63219
G1 X75.463 Y69.914 E3.71532
G1 X75.823 Y68.106 E3.81338
G1 X75.779 Y67.437 E3.84901
G1 X75.531 Y65.554 E3.95002
G1 E2.95002 F1800.00000
G92 E0
G1 X71.440 Y61.098 F7800.000
G1 E1.00000 F1800.00000
G1 X71.509 Y60.942 E1.00907 F540.000
G1 X71.668 Y60.978 E1.01773
G1 X73.718 Y62.161 E1.14358
G1 X75.327 Y63.896 E1.26943
G1 X76.354 Y66.028 E1.39528
G1 X76.707 Y68.368 E1.52113
G1 X76.354 Y70.708 E1.64699
G1 X75.327 Y72.840 E1.77284
G1 X73.718 Y74.575 E1.89869
G1 X71.668 Y75.758 E2.02454
G1 X69.361 Y76.285 E2.15039
G1 X67.001 Y76.108 E2.27624
G1 X64.798 Y75.243 E2.40209
G1 X62.948 Y73.768 E2.52794
G1 X61.629 Y71.833 E2.65249
G1 X60.918 Y69.551 E2.77959
G1 X60.918 Y67.185 E2.90544
G1 X61.423 Y65.547 E2.99659
G1 X61.584 Y65.555 E3.00516
G1 X61.655 Y65.914 E3.02462
G1 X62.428 Y67.071 E3.09861
G1 X63.585 Y67.844 E3.17260
G1 X64.929 Y68.111 E3.24550
G1 X65.790 Y68.003 E3.29163
G1 X67.759 Y67.540 E3.39922
G1 X67.837 Y67.670 E3.40727
G1 X67.548 Y67.997 E3.43048
G1 X66.944 Y68.963 E3.49108
G1 X66.674 Y70.319 E3.56461
G1 X66.945 Y71.684 E3.63860
G1 X67.718 Y72.841 E3.71259
G1 X68.875 Y73.614 E3.78658
G1 X70.240 Y73.885 E3.86058
G1 X71.604 Y73.614 E3.93457
G1 X72.728 Y72.863 E4.00646
G1 X74.357 Y71.032 E4.13678
G1 X75.137 Y69.785 E4.21500
G1 X75.475 Y68.083 E4.30729
G1 X75.435 Y67.471 E4.33990
G1 X75.174 Y65.478 E4.44680
G1 X74.870 Y64.345 E4.50920
G1 X73.908 Y62.905 E4.60130
G1 X73.287 Y62.385 E4.64436
G1 X71.484 Y61.128 E4.76128
G1 E3.76128 F1800.00000
G92 E0
G1 X65.218 Y61.166 F7800.000
G1 E1.00000 F1800.00000
G1 X65.159 Y60.981 E1.01035 F324.000
G1 X66.924 Y60.288 E1.11119
G1 X69.387 Y60.103 E1.24257
G1 X71.796 Y60.653 E1.37395
G1 X73.935 Y61.888 E1.50533
G1 X75.615 Y63.699 E1.63671
G1 X76.687 Y65.925 E1.76809
G1 X77.055 Y68.368 E1.89947
G1 X76.687 Y70.811 E2.03085
G1 X75.615 Y73.036 E2.16224
G1 X73.935 Y74.847 E2.29362
G1 X71.796 Y76.083 E2.42500
G1 X69.387 Y76.632 E2.55638
G1 X66.924 Y76.448 E2.68776
G1 X64.624 Y75.545 E2.81914
G1 X62.693 Y74.005 E2.95052
G1 X61.301 Y71.964 E3.08190
G1 X60.573 Y69.603 E3.21328
G1 X60.573 Y67.133 E3.34466
G1 X61.301 Y64.772 E3.47604
G1 X61.606 Y64.324 E3.50487
G1 X61.759 Y64.382 E3.51354
G1 X61.737 Y64.557 E3.52295
G1 X61.980 Y65.779 E3.58923
G1 X62.677 Y66.822 E3.65592
G1 X63.719 Y67.519 E3.72262
G1 X64.942 Y67.762 E3.78890
G1 X65.729 Y67.663 E3.83108
G1 X67.842 Y67.167 E3.94654
G1 X68.039 Y67.144 E3.95705
G1 X68.158 Y67.153 E3.96340
G1 X68.217 Y67.170 E3.96669
G1 X68.317 Y67.237 E3.97308
G1 X68.379 Y67.330 E3.97902
G1 X68.401 Y67.439 E3.98495
G1 X68.378 Y67.552 E3.99106
G1 X68.321 Y67.645 E3.99687
G1 X67.825 Y68.204 E4.03662
G1 X67.270 Y69.093 E4.09234
G1 X67.026 Y70.319 E4.15886
G1 X67.270 Y71.549 E4.22555
G1 X67.967 Y72.592 E4.29225
G1 X69.010 Y73.289 E4.35894
G1 X70.240 Y73.533 E4.42563
G1 X71.470 Y73.289 E4.49233
G1 X72.500 Y72.600 E4.55823
G1 X74.080 Y70.824 E4.68465
G1 X74.811 Y69.656 E4.75796
G1 X75.128 Y68.060 E4.84448
G1 X75.092 Y67.505 E4.87408
G1 X74.835 Y65.545 E4.97917
G1 X74.552 Y64.489 E5.03734
G1 X73.649 Y63.137 E5.12378
G1 X73.077 Y62.659 E5.16341
G1 X70.971 Y61.190 E5.29998
G1 X70.176 Y60.755 E5.34817
G1 X68.580 Y60.438 E5.43470
G1 X67.537 Y60.570 E5.49060
G1 X65.269 Y61.153 E5.61512
G1 X65.263 Y60.977 F7800.000
G1 X64.988 Y61.136 F7800.000
G1 X64.661 Y61.254 E5.63363 F324.000
G1 X64.349 Y61.428 E5.65260
G1 X63.234 Y62.222 E5.72541
G1 X62.894 Y62.517 E5.74934
G1 X62.684 Y62.723 E5.76499
G1 X61.932 Y63.724 E5.83157
G1 X61.757 Y64.156 E5.85638
G1 X61.556 Y66.961 F7800.000
G1 X61.796 Y67.200 E5.87488 F360.000
G1 X62.299 Y67.703 F7800.000
G1 X66.397 Y71.802 E6.19109 F360.000
G1 X66.273 Y71.178 F7800.000
G1 X63.493 Y68.397 E6.40560 F360.000
G1 X64.117 Y68.521 E6.44033
G1 X66.149 Y70.553 E6.59708
G1 X66.179 Y70.082 E6.62280
G1 X64.742 Y68.645 E6.73366
G1 X65.213 Y68.616 E6.75941
G1 X66.262 Y69.665 E6.84033
G1 X66.345 Y69.248 E6.86354
G1 X65.657 Y68.560 E6.91657
G1 X66.077 Y68.480 E6.93990
G1 X66.428 Y68.831 E6.96694
G1 X67.127 Y73.033 F7800.000
G1 X61.463 Y67.368 E7.40396 F360.000
G1 X61.463 Y67.868 E7.43126
G1 X69.324 Y75.730 E8.03776
G1 X69.747 Y75.652 E8.06122
G1 X67.526 Y73.432 E8.23255
G1 X68.757 Y74.162 F7800.000
G1 X70.155 Y75.559 E8.34038 F360.000
G1 X70.562 Y75.466 E8.36317
G1 X69.381 Y74.286 E8.45424
G1 X70.006 Y74.410 E8.48898
G1 X70.969 Y75.373 E8.56330
G1 X71.377 Y75.280 E8.58609
G1 X70.476 Y74.380 E8.65553
G1 X70.894 Y74.297 E8.67874
G1 X71.724 Y75.128 E8.74278
G1 X72.041 Y74.944 E8.76276
G1 X71.311 Y74.214 E8.81909
G1 X71.728 Y74.131 E8.84230
G1 X72.358 Y74.761 E8.89089
G1 X72.676 Y74.578 E8.91087
G1 X72.041 Y73.943 E8.95985
G1 X72.341 Y73.743 E8.97953
G1 X72.993 Y74.395 E9.02984
G1 X73.310 Y74.212 E9.04982
G1 X72.640 Y73.542 E9.10146
G1 X72.940 Y73.342 E9.12114
G1 X73.565 Y73.967 E9.16934
G1 X73.813 Y73.715 E9.18864
G1 X73.203 Y73.104 E9.23577
G1 X73.438 Y72.839 E9.25510
G1 X74.054 Y73.455 E9.30263
G1 X74.295 Y73.196 E9.32194
G1 X73.674 Y72.574 E9.36988
G1 X73.909 Y72.310 E9.38921
G1 X74.536 Y72.936 E9.43755
G1 X74.777 Y72.677 E9.45686
G1 X74.145 Y72.045 E9.50561
G1 X74.380 Y71.780 E9.52494
G1 X74.974 Y72.374 E9.57074
G1 X75.137 Y72.036 E9.59119
G1 X74.616 Y71.515 E9.63136
G1 X74.839 Y71.238 E9.65078
G1 X75.299 Y71.699 E9.68633
G1 X75.462 Y71.361 E9.70678
G1 X75.031 Y70.930 E9.74003
G1 X75.429 Y70.828 E9.76246
G1 X75.625 Y71.023 E9.77752
G1 E8.77752 F1800.00000
G92 E0
G1 X66.310 Y75.217 F7800.000
G1 E1.00000 F1800.00000
G1 X61.902 Y70.809 E1.34008 F360.000
G1 X61.679 Y70.085 E1.38138
G1 X67.133 Y75.540 E1.80220
G1 X67.702 Y75.608 E1.83342
G1 X61.463 Y69.369 E2.31476
G1 X61.463 Y68.869 E2.34205
