; generated by Slic3r 1.2.9 on 2019-12-01 at 18:34:22

; external perimeters extrusion width = 0.35mm
; perimeters extrusion width = 0.44mm
; infill extrusion width = 0.44mm
; solid infill extrusion width = 0.44mm
; top infill extrusion width = 0.44mm

M107
M190 S100 ; set bed temperature
M104 S240 ; set temperature
G28 ; home all axes
G1 Z5 F5000 ; lift nozzle
M109 S240 ; wait for temperature to be reached
G21 ; set units to millimeters
G90 ; use absolute coordinates
M82 ; use absolute distances for extrusion
G92 E0
G1 E-1.00000 F1800.00000
G92 E0
G1 Z0.300 F7800.000
G1 X55.739 Y51.210 F7800.000
G1 E1.00000 F1800.00000
G1 X56.532 Y50.841 E1.03416 F1080.000
G1 X97.504 Y47.078 E2.64178
G1 X102.350 Y47.073 E2.83112
G1 X102.677 Y47.096 E2.84394
G1 X103.092 Y47.196 E2.86059
G1 X103.525 Y47.396 E2.87924
G1 X103.862 Y47.642 E2.89554
G1 X104.187 Y47.992 E2.91420
G1 X104.355 Y48.250 E2.92622
G1 X104.504 Y48.576 E2.94024
G1 X104.602 Y48.923 E2.95432
G1 X104.640 Y49.214 E2.96581
G1 X104.643 Y54.907 E3.18821
G1 X101.344 Y111.707 E5.41125
G1 X100.907 Y112.604 E5.45025
G1 X100.051 Y112.927 E5.48600
G1 X58.051 Y112.927 E7.12703
G1 X57.129 Y112.543 E7.16604
G1 X56.756 Y111.673 E7.20301
G1 X55.355 Y68.173 E8.90353
G1 X55.354 Y52.131 E9.53031
G1 X55.719 Y51.259 E9.56726
G1 E8.56726 F1800.00000
G92 E0
G1 X98.543 Y52.955 F7800.000
G1 E1.00000 F1800.00000
G1 X98.237 Y53.003 E1.01207 F270.000
G1 X97.929 Y52.987 E1.02415
G1 X97.636 Y52.909 E1.03598
G1 X97.416 Y52.804 E1.04552
G1 X97.171 Y52.626 E1.05735
G1 X96.964 Y52.396 E1.06943
G1 X96.813 Y52.134 E1.08126
G1 X96.731 Y51.903 E1.09081
G1 X96.685 Y51.611 E1.10239
G1 X96.691 Y51.366 E1.11193
G1 X96.754 Y51.070 E1.12376
G1 X96.880 Y50.788 E1.13584
G1 X97.061 Y50.538 E1.14791
G1 X97.291 Y50.331 E1.15999
G1 X97.553 Y50.180 E1.17182
G1 X97.784 Y50.098 E1.18136
G1 X98.076 Y50.052 E1.19295
G1 X98.321 Y50.058 E1.20249
G1 X98.617 Y50.121 E1.21432
G1 X98.899 Y50.247 E1.22640
G1 X99.149 Y50.429 E1.23847
G1 X99.356 Y50.658 E1.25055
G1 X99.510 Y50.926 E1.26262
G1 X99.604 Y51.214 E1.27445
G1 X99.636 Y51.456 E1.28399
G1 X99.620 Y51.758 E1.29582
G1 X99.540 Y52.057 E1.30790
G1 X99.403 Y52.327 E1.31973
G1 X99.258 Y52.515 E1.32903
G1 X99.085 Y52.679 E1.33833
G1 X98.831 Y52.844 E1.35016
G1 X98.592 Y52.936 E1.36018
G1 X98.466 Y52.668 F7800.000
G1 X98.222 Y52.706 E1.36983 F270.000
G1 X97.975 Y52.694 E1.37948
G1 X97.739 Y52.630 E1.38903
G1 X97.568 Y52.548 E1.39645
G1 X97.370 Y52.405 E1.40601
G1 X97.204 Y52.221 E1.41566
G1 X97.082 Y52.009 E1.42521
G1 X97.019 Y51.830 E1.43263
G1 X96.981 Y51.591 E1.44209
G1 X96.986 Y51.401 E1.44952
G1 X97.037 Y51.162 E1.45907
G1 X97.137 Y50.937 E1.46872
G1 X97.282 Y50.737 E1.47836
G1 X97.466 Y50.572 E1.48801
G1 X97.678 Y50.449 E1.49756
G1 X97.857 Y50.386 E1.50499
G1 X98.096 Y50.348 E1.51445
G1 X98.286 Y50.353 E1.52187
G1 X98.525 Y50.404 E1.53142
G1 X98.750 Y50.504 E1.54107
G1 X98.950 Y50.649 E1.55072
G1 X99.115 Y50.833 E1.56037
G1 X99.239 Y51.047 E1.57001
G1 X99.314 Y51.279 E1.57957
G1 X99.339 Y51.468 E1.58699
G1 X99.326 Y51.712 E1.59654
G1 X99.263 Y51.950 E1.60619
G1 X99.151 Y52.168 E1.61574
G1 X99.037 Y52.317 E1.62307
G1 X98.901 Y52.446 E1.63041
G1 X98.696 Y52.579 E1.63996
G1 X98.515 Y52.649 E1.64755
G1 X98.393 Y52.904 F7800.000
G1 X97.121 Y54.072 F7800.000
G1 X95.133 Y52.923 E1.73727 F270.000
G1 X95.662 Y52.090 E1.77586
G1 X96.273 Y51.240 E1.81678
G1 X96.398 Y51.281 E1.82189
G1 X96.388 Y51.630 E1.83552
G1 X96.443 Y51.976 E1.84923
G1 X96.543 Y52.258 E1.86090
G1 X96.724 Y52.571 E1.87500
G1 X96.972 Y52.846 E1.88950
G1 X97.264 Y53.059 E1.90361
G1 X97.534 Y53.187 E1.91528
G1 X97.882 Y53.281 E1.92938
G1 X98.253 Y53.300 E1.94389
G1 X98.619 Y53.242 E1.95839
G1 X98.966 Y53.109 E1.97289
G1 X99.269 Y52.912 E1.98700
G1 X99.501 Y52.692 E1.99951
G1 X99.614 Y52.751 E2.00448
G1 X99.579 Y52.971 E2.01316
G1 X99.579 Y59.278 E2.25961
G1 X99.769 Y60.063 E2.29117
G1 X99.994 Y60.839 E2.32274
G1 X100.847 Y63.306 E2.42472
G1 X101.184 Y64.407 E2.46972
G1 X101.313 Y65.005 E2.49363
G1 X101.375 Y65.519 E2.51382
G1 X101.385 Y65.809 E2.52519
G1 X101.357 Y66.235 E2.54186
G1 X101.277 Y66.652 E2.55846
G1 X101.166 Y67.002 E2.57281
G1 X101.002 Y67.360 E2.58819
G1 X99.602 Y67.360 E2.64289
G1 X99.572 Y67.220 E2.64850
G1 X99.951 Y67.051 E2.66470
G1 X100.234 Y66.845 E2.67838
G1 X100.469 Y66.585 E2.69207
G1 X100.644 Y66.282 E2.70575
G1 X100.752 Y65.949 E2.71944
G1 X100.788 Y65.600 E2.73313
G1 X100.751 Y65.247 E2.74699
G1 X100.165 Y63.512 E2.81858
G1 X99.418 Y61.550 E2.90059
G1 X98.596 Y59.619 E2.98260
G1 X97.701 Y57.720 E3.06461
G1 X96.853 Y56.088 E3.13646
G1 X97.121 Y56.088 E3.14694
G1 X97.121 Y54.124 E3.22368
G1 X99.963 Y52.130 F7800.000
G1 X99.845 Y52.062 E3.22899 F270.000
G1 X99.914 Y51.805 E3.23939
G1 X99.932 Y51.444 E3.25349
G1 X99.893 Y51.148 E3.26516
G1 X99.782 Y50.805 E3.27926
G1 X99.596 Y50.483 E3.29377
G1 X99.348 Y50.208 E3.30827
G1 X99.048 Y49.989 E3.32277
G1 X98.709 Y49.838 E3.33728
G1 X98.356 Y49.763 E3.35138
G1 X98.057 Y49.756 E3.36305
G1 X97.710 Y49.810 E3.37676
G1 X97.491 Y49.888 E3.38586
G1 X97.414 Y49.775 E3.39122
G1 X97.972 Y49.140 E3.42424
G1 X102.310 Y49.140 E3.59375
G1 X102.407 Y49.150 E3.59755
G1 X102.483 Y49.189 E3.60091
G1 X102.567 Y49.306 E3.60652
G1 X102.577 Y54.060 E3.79227
G1 X102.121 Y54.060 E3.81009
G1 X102.121 Y52.934 E3.85409
G1 X102.067 Y52.647 E3.86552
G1 X101.946 Y52.375 E3.87713
G1 X101.707 Y52.080 E3.89199
G1 X101.371 Y51.861 E3.90764
G1 X100.974 Y51.755 E3.92371
G1 X100.518 Y51.791 E3.94159
G1 X100.104 Y51.988 E3.95947
G1 X100.000 Y52.093 E3.96526
G1 E2.96526 F1800.00000
G92 E0
G1 X63.921 Y58.660 F7800.000
G1 E1.00000 F1800.00000
G1 X63.921 Y66.003 E1.28689 F270.000
G1 X58.779 Y66.003 E1.48781
G1 X58.779 Y58.660 E1.77470
G1 X63.869 Y58.660 E1.97358
G1 X63.626 Y58.956 F7800.000
G1 X63.626 Y65.707 E2.23736 F270.000
G1 X59.074 Y65.707 E2.41519
G1 X59.074 Y58.956 E2.67897
G1 X63.573 Y58.956 E2.85475
G1 X63.330 Y59.251 F7800.000
G1 X63.330 Y65.411 E3.09543 F270.000
G1 X59.370 Y65.411 E3.25016
G1 X59.370 Y59.251 E3.49084
G1 X63.278 Y59.251 E3.64351
G1 X63.680 Y59.251 F7800.000
G1 E2.64351 F1800.00000
G92 E0
G1 X91.745 Y57.817 F7800.000
G1 E1.00000 F1800.00000
G1 X92.984 Y57.503 E1.04994 F270.000
G1 X93.850 Y59.101 E1.12094
G1 X94.475 Y60.413 E1.17773
G1 X95.033 Y61.759 E1.23466
G1 X95.643 Y63.526 E1.30767
G1 X95.687 Y63.943 E1.32408
G1 X95.643 Y64.354 E1.34022
G1 X95.519 Y64.737 E1.35596
G1 X95.361 Y65.027 E1.36885
G1 X95.108 Y65.340 E1.38459
G1 X94.795 Y65.594 E1.40033
G1 X94.505 Y65.751 E1.41323
G1 X94.122 Y65.876 E1.42896
G1 X93.711 Y65.919 E1.44510
G1 X93.300 Y65.876 E1.46124
G1 X92.917 Y65.751 E1.47697
G1 X92.627 Y65.594 E1.48987
G1 X92.314 Y65.340 E1.50560
G1 X92.054 Y65.019 E1.52174
G1 X91.871 Y64.660 E1.53748
G1 X91.783 Y64.362 E1.54965
G1 X91.745 Y64.118 E1.55927
G1 X91.745 Y57.870 E1.80342
G1 X92.041 Y58.047 F7800.000
G1 X92.834 Y57.846 E1.83538 F270.000
G1 X93.586 Y59.235 E1.89710
G1 X94.205 Y60.533 E1.95329
G1 X94.756 Y61.864 E2.00957
G1 X95.352 Y63.590 E2.08092
G1 X95.389 Y63.943 E2.09479
G1 X95.353 Y64.292 E2.10850
G1 X95.246 Y64.620 E2.12197
G1 X95.115 Y64.862 E2.13274
G1 X94.898 Y65.130 E2.14620
G1 X94.630 Y65.347 E2.15966
G1 X94.388 Y65.478 E2.17044
G1 X94.060 Y65.585 E2.18390
G1 X93.711 Y65.621 E2.19761
G1 X93.362 Y65.585 E2.21131
G1 X93.034 Y65.478 E2.22478
G1 X92.792 Y65.347 E2.23555
G1 X92.524 Y65.130 E2.24901
G1 X92.304 Y64.857 E2.26272
G1 X92.147 Y64.550 E2.27618
G1 X92.072 Y64.297 E2.28651
G1 X92.041 Y64.096 E2.29447
G1 X92.041 Y58.100 E2.52874
G1 X92.337 Y58.277 F7800.000
G1 X92.683 Y58.189 E2.54272 F270.000
G1 X93.323 Y59.369 E2.59516
G1 X93.935 Y60.654 E2.65075
G1 X94.480 Y61.969 E2.70638
G1 X95.062 Y63.655 E2.77605
G1 X95.092 Y63.943 E2.78740
G1 X95.062 Y64.230 E2.79868
G1 X94.973 Y64.503 E2.80987
G1 X94.868 Y64.697 E2.81851
G1 X94.688 Y64.920 E2.82970
G1 X94.465 Y65.100 E2.84089
G1 X94.270 Y65.206 E2.84954
G1 X93.998 Y65.294 E2.86073
G1 X93.711 Y65.324 E2.87201
G1 X93.424 Y65.294 E2.88329
G1 X93.152 Y65.206 E2.89447
G1 X92.957 Y65.100 E2.90312
G1 X92.735 Y64.920 E2.91431
G1 X92.553 Y64.695 E2.92559
G1 X92.423 Y64.440 E2.93678
G1 X92.361 Y64.232 E2.94526
G1 X92.337 Y64.073 E2.95156
G1 X92.337 Y58.330 E3.17596
G1 X92.279 Y57.932 F7800.000
G1 E2.17596 F1800.00000
G92 E0
G1 X97.279 Y67.360 F7800.000
G1 E1.00000 F1800.00000
G1 X97.279 Y80.360 E1.50794 F900.000
G1 X85.279 Y80.360 E1.97680
G1 X85.279 Y95.903 E2.58408
G1 X99.279 Y95.903 E3.13109
G1 X99.279 Y110.860 E3.71551
G1 X58.822 Y110.860 E5.29627
G1 X58.822 Y67.360 E6.99591
G1 X57.421 Y67.360 E7.05063
G1 X57.421 Y52.903 E7.61552
G1 X61.979 Y52.903 E7.79359
G1 X61.979 Y53.844 E7.83038
G1 X60.579 Y54.510 E7.89095
G1 X60.579 Y56.569 E7.97138
G1 X64.679 Y56.569 E8.13158
G1 X64.680 Y64.365 E8.43620
G1 X64.787 Y64.870 E8.45636
G1 X65.061 Y65.343 E8.47773
G1 X65.412 Y65.677 E8.49666
G1 X65.900 Y65.925 E8.51803
G1 X66.389 Y66.003 E8.53740
G1 X89.511 Y66.003 E9.44080
G1 X90.000 Y65.925 E9.46017
G1 X90.488 Y65.677 E9.48153
G1 X90.839 Y65.343 E9.50047
G1 X91.113 Y64.870 E9.52184
G1 X91.220 Y64.365 E9.54200
G1 X91.221 Y56.569 E9.84662
G1 X93.301 Y56.569 E9.92789
G1 X94.508 Y58.809 E10.02733
G1 X95.379 Y60.618 E10.10577
G1 X96.179 Y62.460 E10.18421
G1 X96.907 Y64.333 E10.26273
G1 X97.621 Y66.371 E10.34710
G1 X97.925 Y66.789 E10.36730
G1 X98.350 Y67.098 E10.38785
G1 X98.697 Y67.211 E10.40211
G1 X98.673 Y67.360 E10.40803
G1 X97.332 Y67.360 E10.46044
G1 X97.575 Y67.656 F7800.000
G1 X97.575 Y80.656 E10.96838 F900.000
G1 X85.575 Y80.656 E11.43724
G1 X85.575 Y95.607 E12.02142
G1 X99.575 Y95.607 E12.56843
G1 X99.575 Y111.156 E13.17595
G1 X58.526 Y111.156 E14.77981
G1 X58.526 Y67.656 E16.47945
G1 X57.126 Y67.656 E16.53417
G1 X57.126 Y52.607 E17.12216
G1 X62.274 Y52.607 E17.32333
G1 X62.274 Y54.031 E17.37897
G1 X60.874 Y54.697 E17.43954
G1 X60.874 Y56.273 E17.50112
G1 X64.974 Y56.273 E17.66132
G1 X64.976 Y64.334 E17.97627
G1 X65.067 Y64.762 E17.99339
G1 X65.295 Y65.158 E18.01126
G1 X65.585 Y65.433 E18.02684
G1 X65.992 Y65.641 E18.04471
G1 X66.413 Y65.707 E18.06134
G1 X89.487 Y65.707 E18.96292
G1 X89.908 Y65.641 E18.97955
G1 X90.315 Y65.433 E18.99741
G1 X90.605 Y65.158 E19.01300
G1 X90.833 Y64.762 E19.03087
G1 X90.924 Y64.334 E19.04798
G1 X90.926 Y56.273 E19.36294
G1 X93.473 Y56.273 E19.46248
G1 X93.824 Y56.890 E19.49022
G1 X94.772 Y58.676 E19.56920
G1 X95.648 Y60.495 E19.64810
G1 X96.452 Y62.347 E19.72699
G1 X97.184 Y64.230 E19.80593
G1 X97.885 Y66.232 E19.88880
G1 X98.136 Y66.577 E19.90547
G1 X98.486 Y66.831 E19.92236
G1 X98.891 Y66.963 E19.93900
G1 X99.251 Y66.972 E19.95307
G1 X99.539 Y66.911 E19.96458
G1 X99.802 Y66.794 E19.97583
G1 X100.035 Y66.624 E19.98709
G1 X100.228 Y66.410 E19.99835
G1 X100.372 Y66.161 E20.00961
G1 X100.461 Y65.887 E20.02086
G1 X100.491 Y65.600 E20.03212
G1 X100.461 Y65.311 E20.04349
G1 X99.886 Y63.612 E20.11358
G1 X99.143 Y61.661 E20.19514
G1 X98.326 Y59.740 E20.27671
G1 X97.436 Y57.851 E20.35828
G1 X96.359 Y55.792 E20.44906
G1 X96.826 Y55.792 E20.46730
G1 X96.826 Y54.242 E20.52787
G1 X94.718 Y53.025 E20.62298
G1 X95.417 Y51.924 E20.67394
G1 X96.290 Y50.710 E20.73236
G1 X97.226 Y49.541 E20.79089
G1 X97.838 Y48.844 E20.82712
G1 X102.326 Y48.844 E21.00246
G1 X102.537 Y48.880 E21.01085
G1 X102.688 Y48.973 E21.01778
G1 X102.807 Y49.119 E21.02514
G1 X102.862 Y49.269 E21.03137
G1 X102.873 Y54.356 E21.23013
G1 X101.825 Y54.356 E21.27107
G1 X101.825 Y52.961 E21.32556
G1 X101.783 Y52.735 E21.33456
G1 X101.692 Y52.531 E21.34329
G1 X101.507 Y52.302 E21.35479
G1 X101.249 Y52.135 E21.36679
G1 X100.946 Y52.054 E21.37904
G1 X100.595 Y52.081 E21.39279
G1 X100.278 Y52.233 E21.40655
G1 X100.056 Y52.455 E21.41880
G1 X99.917 Y52.728 E21.43080
G1 X99.874 Y52.994 E21.44132
G1 X99.874 Y59.243 E21.68547
G1 X100.055 Y59.987 E21.71539
G1 X100.276 Y60.750 E21.74642
G1 X101.128 Y63.215 E21.84831
G1 X101.470 Y64.333 E21.89400
G1 X101.605 Y64.956 E21.91893
G1 X101.670 Y65.496 E21.94018
G1 X101.680 Y65.814 E21.95262
G1 X101.651 Y66.272 E21.97055
G1 X101.564 Y66.725 E21.98857
G1 X101.443 Y67.107 E22.00421
G1 X101.298 Y67.437 E22.01829
G1 X101.174 Y67.656 E22.02812
G1 X97.628 Y67.656 E22.16670
G1 X97.871 Y67.951 F7800.000
G1 X97.871 Y80.951 E22.67464 F540.000
G1 X85.871 Y80.951 E23.14350
G1 X85.871 Y95.311 E23.70458
G1 X99.871 Y95.311 E24.25159
G1 X99.871 Y111.451 E24.88221
G1 X58.231 Y111.451 E26.50917
G1 X58.231 Y67.951 E28.20881
G1 X56.830 Y67.951 E28.26354
G1 X56.830 Y52.311 E28.87462
G1 X62.570 Y52.311 E29.09890
G1 X62.570 Y54.218 E29.17338
G1 X61.170 Y54.884 E29.23395
G1 X61.170 Y55.977 E29.27669
G1 X65.270 Y55.977 E29.43688
G1 X65.271 Y64.303 E29.76217
G1 X65.346 Y64.655 E29.77625
G1 X65.530 Y64.973 E29.79061
G1 X65.757 Y65.189 E29.80285
G1 X66.085 Y65.356 E29.81720
G1 X66.436 Y65.411 E29.83110
G1 X89.464 Y65.411 E30.73086
G1 X89.815 Y65.356 E30.74475
G1 X90.143 Y65.189 E30.75911
G1 X90.370 Y64.973 E30.77135
G1 X90.554 Y64.655 E30.78571
G1 X90.629 Y64.303 E30.79979
G1 X90.630 Y55.977 E31.12507
G1 X93.645 Y55.977 E31.24289
G1 X94.083 Y56.748 E31.27751
G1 X95.035 Y58.542 E31.35689
G1 X95.916 Y60.372 E31.43624
G1 X96.726 Y62.235 E31.51558
G1 X97.461 Y64.128 E31.59494
G1 X98.150 Y66.093 E31.67631
G1 X98.348 Y66.365 E31.68946
G1 X98.622 Y66.564 E31.70269
G1 X98.941 Y66.668 E31.71582
G1 X99.224 Y66.676 E31.72686
G1 X99.447 Y66.628 E31.73578
G1 X99.653 Y66.536 E31.74461
G1 X99.836 Y66.403 E31.75344
G1 X99.988 Y66.236 E31.76227
G1 X100.101 Y66.040 E31.77110
G1 X100.170 Y65.825 E31.77993
G1 X100.194 Y65.600 E31.78876
G1 X100.170 Y65.374 E31.79763
G1 X99.608 Y63.712 E31.86621
G1 X98.869 Y61.771 E31.94734
G1 X98.056 Y59.861 E32.02846
G1 X97.171 Y57.983 E32.10959
G1 X96.214 Y56.141 E32.19068
G1 X95.856 Y55.497 E32.21947
G1 X96.530 Y55.497 E32.24580
G1 X96.530 Y54.413 E32.28815
G1 X94.303 Y53.127 E32.38864
G1 X95.172 Y51.759 E32.45198
G1 X96.054 Y50.531 E32.51104
G1 X96.999 Y49.351 E32.57013
G1 X97.704 Y48.548 E32.61184
G1 X102.341 Y48.549 E32.79303
G1 X102.523 Y48.568 E32.80015
G1 X102.644 Y48.603 E32.80509
G1 X102.758 Y48.658 E32.81004
G1 X102.894 Y48.757 E32.81659
G1 X103.061 Y48.963 E32.82699
G1 X103.130 Y49.118 E32.83358
G1 X103.158 Y49.234 E32.83824
G1 X103.170 Y54.651 E33.04993
G1 X101.530 Y54.651 E33.11400
G1 X101.529 Y52.989 E33.17897
G1 X101.499 Y52.823 E33.18554
G1 X101.438 Y52.687 E33.19138
G1 X101.306 Y52.524 E33.19954
G1 X101.128 Y52.408 E33.20788
G1 X100.919 Y52.352 E33.21631
G1 X100.673 Y52.372 E33.22594
G1 X100.451 Y52.478 E33.23558
G1 X100.298 Y52.630 E33.24401
G1 X100.201 Y52.821 E33.25235
G1 X100.170 Y53.017 E33.26013
G1 X100.170 Y59.207 E33.50199
G1 X100.341 Y59.911 E33.53028
G1 X100.558 Y60.660 E33.56076
G1 X101.409 Y63.123 E33.66256
G1 X101.757 Y64.258 E33.70895
G1 X101.897 Y64.907 E33.73490
G1 X101.965 Y65.474 E33.75719
G1 X101.976 Y65.819 E33.77070
G1 X101.945 Y66.310 E33.78991
G1 X101.851 Y66.798 E33.80934
G1 X101.720 Y67.211 E33.82627
G1 X101.563 Y67.569 E33.84155
G1 X101.346 Y67.951 E33.85871
G1 X97.923 Y67.951 E33.99247
G1 X97.521 Y67.951 F7800.000
G1 X98.831 Y67.309 F7800.000
G1 X99.442 Y67.317 E34.04536 F360.000
G1 X100.222 Y67.032 F7800.000
G1 X100.381 Y67.192 E34.05701 F360.000
G1 X100.908 Y67.167 E34.08423
G1 X100.502 Y66.761 E34.11385
G1 X100.900 Y66.607 E34.13586
G1 X101.070 Y66.776 E34.14822
G1 X100.963 Y66.431 F7800.000
G1 X101.055 Y66.031 E34.18379 F360.000
G1 X101.076 Y65.804 E34.20350
G1 X101.083 Y65.585 E34.22253
G1 X101.036 Y65.168 E34.25885
G1 X100.855 Y64.493 E34.31943
G1 X100.508 Y63.417 E34.41744
G1 X99.956 Y61.894 E34.55774
G1 E33.55774 F1800.00000
G92 E0
G1 X96.430 Y63.646 F7800.000
G1 E1.00000 F1800.00000
G1 X95.602 Y62.818 E1.04591 F360.000
G1 X96.163 Y62.960 E1.06861
G1 X95.381 Y62.178 E1.11198
G1 X95.870 Y62.247 E1.13132
G1 X95.151 Y61.528 E1.17116
G1 X95.368 Y61.326 E1.18280
G1 X95.547 Y61.505 E1.19274
G1 X95.811 Y63.447 F7800.000
G1 X96.697 Y64.333 E1.24188 F360.000
G1 X96.932 Y64.987 F7800.000
G1 X95.853 Y63.909 E1.30166 F360.000
G1 X95.593 Y64.907 F7800.000
G1 X97.878 Y67.192 E1.42835 F360.000
G1 X97.458 Y67.192 F7800.000
G1 X95.433 Y65.166 E1.54065 F360.000
G1 X95.245 Y65.398 E1.55235
G1 X97.111 Y67.264 E1.65579
G1 X97.111 Y67.683 E1.67224
