; generated by Slic3r 1.2.9 on 2018-09-21 at 14:22:51

; external perimeters extrusion width = 0.37mm
; perimeters extrusion width = 0.48mm
; infill extrusion width = 0.48mm
; solid infill extrusion width = 0.48mm
; top infill extrusion width = 0.48mm
; support material extrusion width = 0.37mm

M107
M190 S80 ; set bed temperature
M104 S230 ; set temperature
G28 ; home all axes
G1 Z5 F5000 ; lift nozzle
M109 S230 ; wait for temperature to be reached
G21 ; set units to millimeters
G90 ; use absolute coordinates
M82 ; use absolute distances for extrusion
G92 E0
G1 E-1.00000 F1800.00000
G92 E0
G1 Z0.300 F7800.000
G1 X56.290 Y27.141 F7800.000
G1 E1.00000 F1800.00000
G1 X57.274 Y25.274 E1.08249 F1080.000
G1 X57.592 Y24.767 E1.10587
G1 X57.898 Y24.326 E1.12685
G1 X58.522 Y23.563 E1.16533
G1 X58.916 Y23.152 E1.18760
G1 X59.648 Y22.498 E1.22594
G1 X60.146 Y22.119 E1.25041
G1 X60.957 Y21.594 E1.28814
G1 X61.602 Y21.244 E1.31681
G1 X62.473 Y20.853 E1.35410
G1 X63.336 Y20.542 E1.38998
G1 X64.274 Y20.284 E1.42797
G1 X65.428 Y20.061 E1.47392
G1 X66.394 Y19.951 E1.51190
G1 X67.752 Y19.905 E1.56497
G1 X92.248 Y19.905 E2.52209
G1 X93.606 Y19.951 E2.57517
G1 X94.572 Y20.061 E2.61315
G1 X95.726 Y20.284 E2.65910
G1 X96.664 Y20.542 E2.69710
G1 X97.528 Y20.853 E2.73296
G1 X98.399 Y21.244 E2.77026
G1 X99.043 Y21.594 E2.79893
G1 X99.854 Y22.119 E2.83665
G1 X100.352 Y22.498 E2.86113
G1 X101.084 Y23.152 E2.89947
G1 X101.478 Y23.563 E2.92174
G1 X102.102 Y24.326 E2.96023
G1 X102.408 Y24.767 E2.98120
G1 X102.726 Y25.274 E3.00459
G1 X103.710 Y27.141 E3.08707
G1 X103.935 Y27.618 E3.10765
G1 X104.956 Y30.041 E3.21037
G1 X105.183 Y30.674 E3.23667
G1 X105.923 Y33.136 E3.33711
G1 X106.089 Y33.830 E3.36497
G1 X106.541 Y36.338 E3.46456
G1 X106.629 Y37.072 E3.49344
G1 X106.796 Y39.998 E3.60794
G1 X106.796 Y120.002 E6.73388
G1 X106.629 Y122.928 E6.84838
G1 X106.541 Y123.662 E6.87727
G1 X106.089 Y126.170 E6.97686
G1 X105.923 Y126.864 E7.00472
G1 X105.183 Y129.326 E7.10515
G1 X104.956 Y129.959 E7.13146
G1 X103.935 Y132.382 E7.23417
G1 X103.710 Y132.859 E7.25476
G1 X102.780 Y134.630 E7.33293
G1 X102.408 Y135.233 E7.36062
G1 X102.102 Y135.674 E7.38160
G1 X101.478 Y136.437 E7.42009
G1 X101.084 Y136.848 E7.44235
G1 X100.352 Y137.502 E7.48069
G1 X99.854 Y137.881 E7.50517
G1 X99.043 Y138.406 E7.54290
G1 X98.399 Y138.756 E7.57156
G1 X97.528 Y139.147 E7.60886
G1 X96.664 Y139.458 E7.64473
G1 X95.726 Y139.716 E7.68273
G1 X94.571 Y139.939 E7.72868
G1 X93.606 Y140.049 E7.76665
G1 X92.248 Y140.095 E7.81973
G1 X67.752 Y140.095 E8.77685
G1 X66.394 Y140.049 E8.82993
G1 X65.428 Y139.939 E8.86791
G1 X64.274 Y139.716 E8.91385
G1 X63.336 Y139.458 E8.95185
G1 X62.472 Y139.147 E8.98772
G1 X61.601 Y138.756 E9.02502
G1 X60.957 Y138.406 E9.05369
G1 X60.146 Y137.881 E9.09141
G1 X59.647 Y137.502 E9.11590
G1 X58.916 Y136.848 E9.15422
G1 X58.522 Y136.436 E9.17650
G1 X57.898 Y135.674 E9.21498
G1 X57.592 Y135.233 E9.23595
G1 X57.131 Y134.466 E9.27091
G1 X56.290 Y132.859 E9.34181
G1 X56.065 Y132.382 E9.36240
G1 X55.044 Y129.959 E9.46511
G1 X54.817 Y129.326 E9.49142
G1 X54.077 Y126.864 E9.59186
G1 X53.911 Y126.170 E9.61971
G1 X53.459 Y123.662 E9.71930
G1 X53.371 Y122.928 E9.74819
G1 X53.204 Y120.002 E9.86269
G1 X53.204 Y39.998 E12.98863
G1 X53.371 Y37.072 E13.10313
G1 X53.459 Y36.338 E13.13202
G1 X53.911 Y33.830 E13.23160
G1 X54.077 Y33.136 E13.25946
G1 X54.817 Y30.674 E13.35990
G1 X55.044 Y30.041 E13.38620
G1 X56.065 Y27.618 E13.48892
G1 X56.266 Y27.192 E13.50733
G1 E12.50733 F1800.00000
G92 E0
G1 X78.462 Y30.001 F7800.000
G1 E1.00000 F1800.00000
G1 X78.620 Y30.121 E1.00776 F1080.000
G1 X81.380 Y30.121 E1.11561
G1 X81.538 Y30.001 E1.12336
G1 X81.653 Y29.597 E1.13979
G1 X82.190 Y28.150 E1.20009
G1 X82.353 Y27.801 E1.21515
G1 X83.115 Y26.451 E1.27571
G1 X83.326 Y26.136 E1.29051
G1 X84.244 Y24.975 E1.34834
G1 X84.503 Y24.696 E1.36320
G1 X85.519 Y23.758 E1.41725
G1 X85.814 Y23.524 E1.43196
G1 X86.878 Y22.810 E1.48204
G1 X87.226 Y22.615 E1.49763
G1 X88.480 Y22.043 E1.55148
G1 X88.854 Y21.908 E1.56702
G1 X90.128 Y21.562 E1.61860
G1 X90.491 Y21.492 E1.63301
G1 X91.876 Y21.334 E1.68749
G1 X92.243 Y21.320 E1.70183
G1 X93.743 Y21.375 E1.76047
G1 X94.117 Y21.417 E1.77521
G1 X95.642 Y21.712 E1.83589
G1 X96.006 Y21.812 E1.85063
G1 X97.221 Y22.250 E1.90111
G1 X97.559 Y22.402 E1.91558
G1 X98.531 Y22.929 E1.95879
G1 X98.846 Y23.133 E1.97343
G1 X99.644 Y23.741 E2.01266
G1 X99.928 Y23.995 E2.02754
G1 X100.586 Y24.682 E2.06470
G1 X100.828 Y24.978 E2.07964
G1 X101.310 Y25.671 E2.11261
G1 X101.596 Y26.159 E2.13472
G1 X102.589 Y28.074 E2.21901
G1 X103.699 Y30.711 E2.33081
G1 X103.788 Y30.957 E2.34101
G1 X104.604 Y33.676 E2.45194
G1 X104.669 Y33.945 E2.46274
G1 X105.171 Y36.731 E2.57333
G1 X105.205 Y37.015 E2.58453
G1 X105.376 Y39.817 E2.69420
G1 X105.303 Y41.918 E2.77636
G1 X104.934 Y44.741 E2.88758
G1 X104.517 Y46.628 E2.96307
G1 X103.515 Y49.750 E3.09122
G1 X103.417 Y50.004 E3.10185
G1 X102.138 Y52.830 E3.22303
G1 X102.019 Y53.059 E3.23312
G1 X100.359 Y55.886 E3.36121
G1 X98.283 Y58.735 E3.49893
G1 X97.266 Y59.886 E3.55898
G1 X97.266 Y60.113 E3.56783
G1 X98.283 Y61.264 E3.62787
G1 X100.359 Y64.113 E3.76559
G1 X102.019 Y66.940 E3.89369
G1 X102.137 Y67.170 E3.90378
G1 X103.417 Y69.996 E4.02497
G1 X103.515 Y70.249 E4.03560
G1 X104.458 Y73.159 E4.15512
G1 X104.932 Y75.251 E4.23891
G1 X105.322 Y78.306 E4.35927
G1 X105.378 Y80.084 E4.42878
G1 X105.303 Y81.927 E4.50083
G1 X104.932 Y84.749 E4.61206
G1 X104.517 Y86.628 E4.68724
G1 X103.515 Y89.751 E4.81537
G1 X103.417 Y90.004 E4.82600
G1 X102.137 Y92.830 E4.94720
G1 X102.019 Y93.060 E4.95728
G1 X100.359 Y95.887 E5.08538
G1 X98.283 Y98.736 E5.22310
G1 X97.266 Y99.887 E5.28315
G1 X97.266 Y100.114 E5.29199
G1 X98.283 Y101.265 E5.35204
G1 X100.359 Y104.114 E5.48976
G1 X102.019 Y106.941 E5.61785
G1 X102.138 Y107.170 E5.62794
G1 X103.417 Y109.996 E5.74913
G1 X103.515 Y110.250 E5.75975
G1 X104.458 Y113.159 E5.87927
G1 X104.934 Y115.259 E5.96339
G1 X105.323 Y118.314 E6.08373
G1 X105.376 Y120.183 E6.15677
G1 X105.205 Y122.985 E6.26644
G1 X105.171 Y123.269 E6.27764
G1 X104.669 Y126.055 E6.38823
G1 X104.604 Y126.324 E6.39903
G1 X103.788 Y129.043 E6.50997
G1 X103.699 Y129.289 E6.52016
G1 X102.502 Y132.110 E6.63994
G1 X101.432 Y134.133 E6.72935
G1 X100.828 Y135.022 E6.77133
G1 X100.586 Y135.318 E6.78626
G1 X99.929 Y136.005 E6.82342
G1 X99.644 Y136.259 E6.83831
G1 X98.846 Y136.867 E6.87754
G1 X98.531 Y137.071 E6.89218
G1 X97.559 Y137.598 E6.93538
G1 X97.221 Y137.750 E6.94986
G1 X96.006 Y138.188 E7.00034
G1 X95.642 Y138.288 E7.01508
G1 X94.117 Y138.583 E7.07577
G1 X93.743 Y138.625 E7.09050
G1 X92.243 Y138.680 E7.14914
G1 X91.876 Y138.666 E7.16348
G1 X90.491 Y138.508 E7.21796
G1 X90.128 Y138.438 E7.23237
G1 X88.854 Y138.092 E7.28395
G1 X88.480 Y137.957 E7.29949
G1 X87.226 Y137.385 E7.35334
G1 X86.878 Y137.190 E7.36892
G1 X85.814 Y136.476 E7.41901
G1 X85.519 Y136.242 E7.43372
G1 X84.503 Y135.303 E7.48777
G1 X84.244 Y135.024 E7.50263
G1 X83.326 Y133.864 E7.56046
G1 X83.115 Y133.549 E7.57526
G1 X82.353 Y132.199 E7.63582
G1 X82.190 Y131.850 E7.65088
G1 X81.653 Y130.403 E7.71118
G1 X81.538 Y129.999 E7.72760
G1 X81.380 Y129.879 E7.73536
G1 X78.620 Y129.879 E7.84321
G1 X78.462 Y129.999 E7.85097
G1 X78.347 Y130.403 E7.86740
G1 X77.810 Y131.850 E7.92769
G1 X77.647 Y132.199 E7.94275
G1 X76.885 Y133.549 E8.00331
G1 X76.674 Y133.864 E8.01811
G1 X75.756 Y135.025 E8.07595
G1 X75.497 Y135.304 E8.09081
G1 X74.481 Y136.242 E8.14485
G1 X74.186 Y136.475 E8.15956
G1 X73.122 Y137.190 E8.20965
G1 X72.774 Y137.385 E8.22523
G1 X71.520 Y137.957 E8.27909
G1 X71.146 Y138.092 E8.29463
G1 X70.320 Y138.316 E8.32803
G1 X70.247 Y138.361 E8.33139
G1 X70.186 Y138.430 E8.33499
G1 X68.124 Y138.666 E8.41608
G1 X67.757 Y138.680 E8.43042
G1 X66.258 Y138.626 E8.48906
G1 X65.883 Y138.583 E8.50379
G1 X64.358 Y138.288 E8.56447
G1 X63.994 Y138.188 E8.57922
G1 X62.779 Y137.750 E8.62969
G1 X62.441 Y137.598 E8.64416
G1 X61.469 Y137.070 E8.68739
G1 X61.154 Y136.867 E8.70202
G1 X60.355 Y136.258 E8.74126
G1 X60.072 Y136.005 E8.75613
G1 X59.414 Y135.318 E8.79330
G1 X59.172 Y135.022 E8.80823
G1 X58.690 Y134.329 E8.84120
G1 X58.439 Y133.905 E8.86047
G1 X57.411 Y131.926 E8.94760
G1 X56.301 Y129.289 E9.05940
G1 X56.212 Y129.043 E9.06960
G1 X55.396 Y126.324 E9.18053
G1 X55.331 Y126.055 E9.19133
G1 X54.829 Y123.269 E9.30192
G1 X54.795 Y122.985 E9.31312
G1 X54.624 Y120.183 E9.42280
G1 X54.697 Y118.082 E9.50495
G1 X55.066 Y115.259 E9.61617
G1 X55.483 Y113.373 E9.69166
G1 X56.485 Y110.250 E9.81981
G1 X56.583 Y109.996 E9.83044
G1 X57.862 Y107.170 E9.95162
G1 X57.981 Y106.941 E9.96171
G1 X59.641 Y104.114 E10.08980
G1 X61.717 Y101.265 E10.22752
G1 X62.734 Y100.114 E10.28757
G1 X62.734 Y99.887 E10.29642
G1 X60.058 Y96.904 E10.45301
G1 X60.139 Y96.722 E10.46078
G1 X60.122 Y96.564 E10.46700
G1 X59.641 Y95.887 E10.49946
G1 X57.981 Y93.060 E10.62755
G1 X57.863 Y92.830 E10.63764
G1 X56.583 Y90.004 E10.75884
G1 X56.485 Y89.751 E10.76947
G1 X55.483 Y86.628 E10.89760
G1 X55.068 Y84.750 E10.97277
G1 X54.697 Y81.927 E11.08401
G1 X54.622 Y80.084 E11.15606
G1 X54.678 Y78.306 E11.22556
G1 X55.068 Y75.250 E11.34593
G1 X55.542 Y73.159 E11.42972
G1 X56.485 Y70.249 E11.54923
G1 X56.583 Y69.996 E11.55986
G1 X57.863 Y67.170 E11.68106
G1 X57.981 Y66.941 E11.69115
G1 X59.641 Y64.113 E11.81925
G1 X61.717 Y61.264 E11.95697
G1 X62.734 Y60.113 E12.01701
G1 X62.734 Y59.886 E12.02585
G1 X61.717 Y58.735 E12.08591
G1 X59.778 Y56.095 E12.21387
G1 X57.981 Y53.059 E12.35172
G1 X57.862 Y52.830 E12.36181
G1 X56.583 Y50.004 E12.48299
G1 X56.485 Y49.750 E12.49362
G1 X55.542 Y46.841 E12.61313
G1 X55.066 Y44.741 E12.69725
G1 X54.697 Y41.918 E12.80847
G1 X54.621 Y40.049 E12.88157
G1 X54.795 Y37.015 E13.00031
G1 X54.829 Y36.731 E13.01151
G1 X55.331 Y33.945 E13.12209
G1 X55.396 Y33.676 E13.13289
G1 X56.212 Y30.957 E13.24383
G1 X56.301 Y30.711 E13.25403
G1 X57.411 Y28.074 E13.36583
G1 X58.567 Y25.868 E13.46317
G1 X59.172 Y24.978 E13.50520
G1 X59.414 Y24.682 E13.52013
G1 X60.072 Y23.995 E13.55729
G1 X60.356 Y23.741 E13.57217
G1 X61.154 Y23.133 E13.61140
G1 X61.469 Y22.929 E13.62604
G1 X62.441 Y22.402 E13.66926
G1 X62.779 Y22.250 E13.68373
G1 X63.994 Y21.812 E13.73420
G1 X64.358 Y21.712 E13.74894
G1 X65.883 Y21.417 E13.80962
G1 X66.257 Y21.375 E13.82436
G1 X67.757 Y21.320 E13.88300
G1 X68.124 Y21.334 E13.89734
G1 X69.509 Y21.492 E13.95182
G1 X69.871 Y21.562 E13.96623
G1 X71.146 Y21.908 E14.01781
G1 X71.520 Y22.043 E14.03335
G1 X72.774 Y22.615 E14.08720
G1 X73.122 Y22.810 E14.10279
G1 X74.186 Y23.524 E14.15287
G1 X74.481 Y23.758 E14.16758
G1 X75.497 Y24.696 E14.22163
G1 X75.756 Y24.975 E14.23649
G1 X76.674 Y26.136 E14.29432
G1 X76.885 Y26.451 E14.30912
G1 X77.647 Y27.801 E14.36968
G1 X77.810 Y28.150 E14.38474
G1 X78.347 Y29.597 E14.44504
G1 X78.447 Y29.948 E14.45930
G1 X78.213 Y30.282 F7800.000
G1 X78.377 Y30.417 E14.46758 F1080.000
G1 X81.623 Y30.417 E14.59440
G1 X81.787 Y30.282 E14.60268
G1 X81.934 Y29.688 E14.62658
G1 X82.464 Y28.264 E14.68596
G1 X82.616 Y27.936 E14.70010
G1 X83.367 Y26.606 E14.75976
G1 X83.565 Y26.311 E14.77366
G1 X84.469 Y25.168 E14.83060
G1 X84.712 Y24.906 E14.84455
G1 X85.711 Y23.983 E14.89771
G1 X85.989 Y23.764 E14.91152
G1 X87.033 Y23.062 E14.96069
G1 X87.360 Y22.879 E14.97533
G1 X88.592 Y22.317 E15.02824
G1 X88.943 Y22.190 E15.04284
G1 X90.195 Y21.850 E15.09351
G1 X90.535 Y21.785 E15.10705
G1 X91.899 Y21.629 E15.16066
G1 X92.243 Y21.616 E15.17413
G1 X93.720 Y21.670 E15.23189
G1 X94.072 Y21.710 E15.24573
G1 X95.575 Y22.000 E15.30552
G1 X95.916 Y22.094 E15.31937
G1 X97.111 Y22.524 E15.36896
G1 X97.428 Y22.667 E15.38255
G1 X98.380 Y23.184 E15.42489
G1 X98.676 Y23.375 E15.43863
G1 X99.456 Y23.970 E15.47697
G1 X99.723 Y24.208 E15.49095
G1 X100.365 Y24.878 E15.52721
G1 X100.592 Y25.156 E15.54124
G1 X101.063 Y25.834 E15.57349
G1 X101.335 Y26.298 E15.59451
G1 X102.319 Y28.195 E15.67799
G1 X103.507 Y31.050 E15.79881
G1 X104.319 Y33.753 E15.90911
G1 X104.379 Y34.006 E15.91925
G1 X104.878 Y36.775 E16.02917
G1 X104.910 Y37.042 E16.03970
G1 X105.080 Y39.828 E16.14875
G1 X105.009 Y41.887 E16.22926
G1 X104.642 Y44.696 E16.33993
G1 X104.230 Y46.556 E16.41436
G1 X103.236 Y49.651 E16.54140
G1 X103.144 Y49.890 E16.55138
G1 X101.872 Y52.701 E16.67194
G1 X100.108 Y55.730 E16.80889
G1 X98.049 Y58.554 E16.94544
G1 X96.869 Y59.886 E17.01501
G1 X96.869 Y60.113 E17.02385
G1 X98.049 Y61.445 E17.09341
G1 X100.108 Y64.269 E17.22996
G1 X101.871 Y67.299 E17.36692
G1 X103.144 Y70.110 E17.48749
G1 X103.236 Y70.348 E17.49747
G1 X104.175 Y73.244 E17.61641
G1 X104.640 Y75.296 E17.69861
G1 X105.027 Y78.324 E17.81788
G1 X105.082 Y80.079 E17.88651
G1 X105.009 Y81.895 E17.95753
G1 X104.640 Y84.704 E18.06822
G1 X104.230 Y86.556 E18.14233
G1 X103.236 Y89.652 E18.26936
G1 X103.144 Y89.890 E18.27934
G1 X101.760 Y92.917 E18.40938
G1 X100.108 Y95.731 E18.53687
G1 X98.049 Y98.555 E18.67343
G1 X96.869 Y99.887 E18.74298
G1 X96.869 Y100.114 E18.75182
G1 X98.049 Y101.446 E18.82139
G1 X100.108 Y104.270 E18.95794
G1 X101.872 Y107.299 E19.09489
G1 X103.144 Y110.110 E19.21545
G1 X103.236 Y110.349 E19.22543
G1 X104.175 Y113.244 E19.34437
G1 X104.642 Y115.304 E19.42690
G1 X105.027 Y118.332 E19.54614
G1 X105.080 Y120.172 E19.61808
G1 X104.910 Y122.958 E19.72714
G1 X104.878 Y123.225 E19.73766
G1 X104.379 Y125.994 E19.84758
G1 X104.319 Y126.247 E19.85773
G1 X103.424 Y129.181 E19.97759
G1 X102.237 Y131.979 E20.09633
G1 X101.178 Y133.982 E20.18488
G1 X100.592 Y134.844 E20.22559
G1 X100.365 Y135.122 E20.23962
G1 X99.723 Y135.792 E20.27588
G1 X99.456 Y136.030 E20.28986
G1 X98.676 Y136.625 E20.32819
G1 X98.380 Y136.816 E20.34195
G1 X97.428 Y137.333 E20.38427
G1 X97.111 Y137.476 E20.39787
G1 X95.916 Y137.906 E20.44746
G1 X95.575 Y138.000 E20.46131
G1 X94.072 Y138.290 E20.52110
G1 X93.720 Y138.330 E20.53494
G1 X92.243 Y138.384 E20.59270
G1 X91.898 Y138.371 E20.60617
G1 X90.535 Y138.215 E20.65978
G1 X90.195 Y138.150 E20.67331
G1 X88.944 Y137.810 E20.72399
G1 X88.592 Y137.683 E20.73859
G1 X87.360 Y137.121 E20.79150
G1 X87.033 Y136.938 E20.80614
G1 X85.989 Y136.237 E20.85530
G1 X85.711 Y136.017 E20.86912
G1 X84.712 Y135.094 E20.92228
G1 X84.469 Y134.832 E20.93623
G1 X83.565 Y133.689 E20.99316
G1 X83.367 Y133.394 E21.00707
G1 X82.616 Y132.064 E21.06673
G1 X82.464 Y131.736 E21.08087
G1 X81.934 Y130.312 E21.14024
G1 X81.787 Y129.718 E21.16414
G1 X81.623 Y129.583 E21.17242
G1 X78.377 Y129.583 E21.29925
G1 X78.213 Y129.718 E21.30753
G1 X78.066 Y130.312 E21.33143
G1 X77.537 Y131.736 E21.39080
G1 X77.384 Y132.064 E21.40495
G1 X76.633 Y133.394 E21.46460
G1 X76.435 Y133.689 E21.47850
G1 X75.531 Y134.832 E21.53544
G1 X75.288 Y135.094 E21.54940
G1 X74.289 Y136.017 E21.60254
G1 X74.012 Y136.236 E21.61636
G1 X72.967 Y136.938 E21.66554
G1 X72.640 Y137.121 E21.68018
G1 X71.408 Y137.683 E21.73309
G1 X71.056 Y137.810 E21.74768
G1 X70.158 Y138.054 E21.78405
G1 X70.040 Y138.149 E21.78997
G1 X68.101 Y138.371 E21.86623
G1 X67.757 Y138.384 E21.87970
G1 X66.280 Y138.331 E21.93745
G1 X65.928 Y138.290 E21.95129
G1 X64.425 Y138.000 E22.01108
G1 X64.084 Y137.906 E22.02493
G1 X62.890 Y137.476 E22.07452
G1 X62.572 Y137.333 E22.08812
G1 X61.620 Y136.816 E22.13046
G1 X61.324 Y136.625 E22.14420
G1 X60.544 Y136.030 E22.18255
G1 X60.277 Y135.792 E22.19651
G1 X59.635 Y135.122 E22.23278
G1 X59.408 Y134.844 E22.24681
G1 X58.937 Y134.166 E22.27905
G1 X58.698 Y133.762 E22.29742
G1 X57.681 Y131.805 E22.38356
G1 X56.493 Y128.950 E22.50438
G1 X55.681 Y126.247 E22.61468
G1 X55.621 Y125.994 E22.62482
G1 X55.122 Y123.226 E22.73474
G1 X55.090 Y122.958 E22.74526
G1 X54.920 Y120.172 E22.85432
G1 X54.991 Y118.113 E22.93483
G1 X55.358 Y115.304 E23.04550
G1 X55.770 Y113.444 E23.11992
G1 X56.764 Y110.349 E23.24696
G1 X56.856 Y110.110 E23.25695
G1 X58.128 Y107.299 E23.37751
G1 X59.892 Y104.270 E23.51446
G1 X61.951 Y101.446 E23.65101
G1 X63.131 Y100.114 E23.72058
G1 X63.131 Y99.887 E23.72942
G1 X60.406 Y96.849 E23.88888
G1 X60.479 Y96.686 E23.89587
G1 X60.462 Y96.527 E23.90210
G1 X59.892 Y95.731 E23.94037
G1 X58.240 Y92.917 E24.06787
G1 X56.856 Y89.890 E24.19790
G1 X56.764 Y89.652 E24.20789
G1 X55.770 Y86.556 E24.33491
G1 X55.360 Y84.704 E24.40903
