; generated by Slic3r 1.2.9 on 2018-08-07 at 13:39:46

; external perimeters extrusion width = 0.35mm
; perimeters extrusion width = 0.39mm
; infill extrusion width = 0.39mm
; solid infill extrusion width = 0.39mm
; top infill extrusion width = 0.39mm

M107
M190 S55 ; set bed temperature
M104 S185 ; set temperature
G28 ; home all axes
G1 Z5 F5000 ; lift nozzle
M109 S185 ; wait for temperature to be reached
G21 ; set units to millimeters
G90 ; use absolute coordinates
M82 ; use absolute distances for extrusion
G92 E0
G1 E-1.00000 F1800.00000
G92 E0
G1 Z0.300 F7800.000
G1 X61.716 Y59.730 F7800.000
G1 E1.00000 F1800.00000
G1 X72.069 Y49.377 E1.57205 F1080.000
G1 X73.174 Y48.470 E1.62793
G1 X74.521 Y47.570 E1.69120
G1 X77.151 Y46.481 E1.80242
G1 X78.739 Y46.165 E1.86570
G1 X81.585 Y46.165 E1.97691
G1 X83.174 Y46.481 E2.04018
G1 X85.803 Y47.570 E2.15141
G1 X87.150 Y48.470 E2.21467
G1 X88.255 Y49.377 E2.27055
G1 X98.284 Y59.405 E2.82469
G1 X99.682 Y61.365 E2.91876
G1 X100.366 Y63.674 E3.01283
G1 X100.389 Y65.247 E3.07431
G1 X96.430 Y107.363 E4.72711
G1 X95.812 Y109.690 E4.82118
G1 X94.471 Y111.689 E4.91525
G1 X92.551 Y113.143 E5.00932
G1 X89.166 Y113.976 E5.14553
G1 X74.984 Y113.976 E5.69967
G1 X73.560 Y113.835 E5.75555
G1 X71.972 Y113.519 E5.81882
G1 X69.342 Y112.430 E5.93004
G1 X68.215 Y111.677 E5.98302
G1 X67.996 Y111.530 E5.99331
G1 X65.983 Y109.518 E6.10453
G1 X65.084 Y108.171 E6.16780
G1 X63.994 Y105.541 E6.27902
G1 X63.678 Y103.953 E6.34229
G1 X63.578 Y103.293 E6.36838
G1 X59.619 Y65.651 E7.84723
G1 X59.766 Y63.248 E7.94130
G1 X60.687 Y61.024 E8.03537
G1 X61.683 Y59.771 E8.09793
G1 E7.09793 F1800.00000
G92 E0
G1 X76.307 Y82.055 F7800.000
G1 E1.00000 F1800.00000
G1 X61.406 Y67.154 E1.82339 F1080.000
G1 X61.406 Y62.623 E2.00041
G1 X73.550 Y50.478 E2.67148
G1 X73.966 Y50.138 E2.69247
G1 X75.983 Y48.789 E2.78728
G1 X76.979 Y48.377 E2.82937
G1 X79.624 Y47.851 E2.93473
G1 X80.701 Y47.851 E2.97683
G1 X83.345 Y48.377 E3.08218
G1 X84.341 Y48.789 E3.12428
G1 X86.358 Y50.138 E3.21909
G1 X86.774 Y50.478 E3.24008
G1 X98.594 Y62.299 E3.89323
G1 X98.594 Y66.829 E4.07025
G1 X83.368 Y82.055 E4.91156
G1 X83.520 Y82.420 E4.92699
G1 X91.432 Y82.420 E5.23613
G1 X94.635 Y85.624 E5.41315
G1 X94.635 Y108.945 E6.32437
G1 X91.432 Y112.149 E6.50139
G1 X74.715 Y112.149 E7.15454
G1 X74.180 Y112.096 E7.17553
G1 X71.800 Y111.623 E7.27034
G1 X70.805 Y111.211 E7.31244
G1 X68.563 Y109.712 E7.41780
G1 X67.801 Y108.951 E7.45989
G1 X66.303 Y106.709 E7.56525
G1 X65.891 Y105.713 E7.60734
G1 X65.417 Y103.333 E7.70215
G1 X65.365 Y102.799 E7.72315
G1 X65.365 Y85.624 E8.39421
G1 X68.568 Y82.420 E8.57123
G1 X76.156 Y82.420 E8.86769
G1 X76.287 Y82.103 E8.88108
G1 X77.021 Y82.351 F7800.000
G1 X61.702 Y67.031 E9.72757 F1080.000
G1 X61.702 Y62.745 E9.89502
G1 X73.749 Y50.698 E10.56073
G1 X74.142 Y50.375 E10.58059
G1 X76.123 Y49.051 E10.67370
G1 X77.065 Y48.661 E10.71352
G1 X79.653 Y48.147 E10.81660
G1 X80.672 Y48.147 E10.85642
G1 X83.259 Y48.661 E10.95950
G1 X84.201 Y49.051 E10.99932
G1 X86.182 Y50.375 E11.09243
G1 X86.575 Y50.698 E11.11229
G1 X98.298 Y62.421 E11.76008
G1 X98.298 Y66.707 E11.92753
G1 X82.655 Y82.351 E12.79194
G1 X82.806 Y82.716 E12.80738
G1 X91.309 Y82.716 E13.13961
G1 X94.340 Y85.746 E13.30706
G1 X94.340 Y108.823 E14.20872
G1 X91.309 Y111.853 E14.37617
G1 X74.730 Y111.853 E15.02396
G1 X74.224 Y111.803 E15.04383
G1 X71.887 Y111.339 E15.13693
G1 X70.945 Y110.949 E15.17675
G1 X68.751 Y109.483 E15.27983
G1 X68.031 Y108.762 E15.31965
G1 X66.565 Y106.569 E15.42273
G1 X66.175 Y105.627 E15.46255
G1 X65.710 Y103.290 E15.55566
G1 X65.660 Y102.784 E15.57552
G1 X65.660 Y85.746 E16.24123
G1 X68.691 Y82.716 E16.40868
G1 X76.870 Y82.716 E16.72824
G1 X77.001 Y82.399 E16.74163
G1 X77.735 Y82.646 F7800.000
G1 X61.997 Y66.909 E17.61122 F1080.000
G1 X61.997 Y62.868 E17.76911
G1 X73.948 Y50.917 E18.42946
G1 X74.318 Y50.613 E18.44819
G1 X76.264 Y49.313 E18.53959
G1 X77.151 Y48.946 E18.57713
G1 X79.682 Y48.442 E18.67794
G1 X80.643 Y48.442 E18.71548
G1 X83.173 Y48.946 E18.81629
G1 X84.061 Y49.313 E18.85383
G1 X86.006 Y50.613 E18.94523
G1 X86.376 Y50.917 E18.96396
G1 X98.003 Y62.544 E19.60640
G1 X98.003 Y66.585 E19.76429
G1 X81.941 Y82.646 E20.65180
G1 X82.092 Y83.011 E20.66723
G1 X91.187 Y83.011 E21.02257
G1 X94.044 Y85.869 E21.18045
G1 X94.044 Y108.700 E22.07254
G1 X91.187 Y111.558 E22.23042
G1 X74.744 Y111.558 E22.87286
G1 X74.267 Y111.511 E22.89159
G1 X71.973 Y111.054 E22.98299
G1 X71.085 Y110.687 E23.02053
G1 X68.940 Y109.253 E23.12134
G1 X68.261 Y108.574 E23.15888
G1 X66.827 Y106.429 E23.25969
G1 X66.459 Y105.541 E23.29723
G1 X66.003 Y103.246 E23.38863
G1 X65.956 Y102.770 E23.40736
G1 X65.956 Y85.869 E24.06772
G1 X68.813 Y83.011 E24.22560
G1 X77.583 Y83.011 E24.56827
G1 X77.715 Y82.695 E24.58165
G1 X77.940 Y82.433 F7800.000
G1 X62.293 Y66.786 E25.44625 F1080.000
G1 X62.293 Y62.990 E25.59457
G1 X74.147 Y51.136 E26.24957
G1 X74.495 Y50.851 E26.26716
G1 X76.404 Y49.575 E26.35686
G1 X77.237 Y49.230 E26.39213
G1 X79.711 Y48.738 E26.49066
G1 X80.613 Y48.738 E26.52593
G1 X83.087 Y49.230 E26.62446
G1 X83.921 Y49.575 E26.65973
G1 X85.829 Y50.851 E26.74942
G1 X86.177 Y51.136 E26.76701
G1 X97.707 Y62.666 E27.40410
G1 X97.707 Y66.462 E27.55242
G1 X81.736 Y82.433 E28.43494
G1 X77.992 Y82.433 E28.58120
G1 X78.062 Y82.138 F7800.000
G1 X62.588 Y66.664 E29.43623 F1080.000
G1 X62.588 Y63.113 E29.57498
G1 X74.346 Y51.356 E30.22464
G1 X74.671 Y51.089 E30.24109
G1 X76.544 Y49.837 E30.32908
G1 X77.324 Y49.514 E30.36207
G1 X79.740 Y49.034 E30.45833
G1 X80.584 Y49.034 E30.49132
G1 X83.001 Y49.514 E30.58758
G1 X83.781 Y49.837 E30.62057
G1 X85.653 Y51.089 E30.70856
G1 X85.979 Y51.356 E30.72502
G1 X97.412 Y62.789 E31.35676
G1 X97.412 Y66.340 E31.49550
G1 X81.613 Y82.138 E32.36845
G1 X78.115 Y82.138 E32.50515
G1 X78.185 Y81.842 F7800.000
G1 X62.884 Y66.541 E33.35061 F1080.000
G1 X62.884 Y63.235 E33.47979
G1 X74.544 Y51.575 E34.12409
G1 X74.847 Y51.326 E34.13941
G1 X76.684 Y50.099 E34.22570
G1 X77.410 Y49.799 E34.25641
G1 X79.769 Y49.329 E34.35040
G1 X80.555 Y49.329 E34.38111
G1 X82.914 Y49.798 E34.47510
G1 X83.641 Y50.099 E34.50581
G1 X85.477 Y51.326 E34.59210
G1 X85.780 Y51.575 E34.60742
G1 X97.116 Y62.911 E35.23381
G1 X97.116 Y66.217 E35.36298
G1 X81.491 Y81.842 E36.22636
G1 X78.237 Y81.842 E36.35349
G1 X78.307 Y81.547 F7800.000
G1 X63.180 Y66.419 E37.18939 F1080.000
G1 X63.180 Y63.358 E37.30900
G1 X74.743 Y51.794 E37.94795
G1 X75.024 Y51.564 E37.96213
G1 X76.824 Y50.361 E38.04671
G1 X77.496 Y50.083 E38.07515
G1 X79.798 Y49.625 E38.16686
G1 X80.526 Y49.625 E38.19530
G1 X82.828 Y50.083 E38.28701
G1 X83.501 Y50.361 E38.31545
G1 X85.301 Y51.564 E38.40003
G1 X85.581 Y51.794 E38.41422
G1 X96.820 Y63.033 E39.03525
G1 X96.820 Y66.095 E39.15486
G1 X81.368 Y81.547 E40.00867
G1 X78.360 Y81.547 E40.12623
G1 X78.430 Y81.251 F7800.000
G1 X63.475 Y66.297 E40.95256 F1080.000
G1 X63.475 Y63.480 E41.06260
G1 X74.942 Y52.014 E41.69620
G1 X75.200 Y51.802 E41.70925
G1 X76.964 Y50.623 E41.79213
G1 X77.582 Y50.367 E41.81829
G1 X79.827 Y49.920 E41.90772
G1 X80.497 Y49.920 E41.93389
G1 X82.742 Y50.367 E42.02332
G1 X83.361 Y50.623 E42.04949
G1 X85.124 Y51.802 E42.13236
G1 X85.382 Y52.014 E42.14541
G1 X96.525 Y63.156 E42.76110
G1 X96.525 Y65.972 E42.87114
G1 X81.246 Y81.251 E43.71538
G1 X78.482 Y81.251 E43.82337
G1 X78.552 Y80.955 F7800.000
G1 X63.771 Y66.174 E44.64013 F1080.000
G1 X63.771 Y63.603 E44.74060
G1 X75.141 Y52.233 E45.36885
G1 X75.376 Y52.039 E45.38076
G1 X77.104 Y50.885 E45.46193
G1 X77.669 Y50.651 E45.48582
G1 X79.856 Y50.216 E45.57298
G1 X80.468 Y50.216 E45.59687
G1 X82.656 Y50.651 E45.68403
G1 X83.221 Y50.885 E45.70792
G1 X84.948 Y52.039 E45.78909
G1 X85.184 Y52.233 E45.80101
G1 X96.229 Y63.278 E46.41134
G1 X96.229 Y65.850 E46.51181
G1 X81.124 Y80.955 E47.34648
G1 X78.605 Y80.955 E47.44490
G1 X78.675 Y80.660 F7800.000
G1 X64.066 Y66.052 E48.25209 F1080.000
G1 X64.066 Y63.725 E48.34300
G1 X75.339 Y52.452 E48.96589
G1 X75.553 Y52.277 E48.97667
G1 X77.244 Y51.147 E49.05614
G1 X77.755 Y50.936 E49.07775
G1 X79.886 Y50.512 E49.16264
G1 X80.439 Y50.512 E49.18425
G1 X82.569 Y50.936 E49.26913
G1 X83.081 Y51.147 E49.29075
G1 X84.772 Y52.277 E49.37021
G1 X84.985 Y52.452 E49.38099
G1 X95.933 Y63.401 E49.98597
G1 X95.933 Y65.727 E50.07688
G1 X81.001 Y80.660 E50.90198
G1 X78.727 Y80.660 E50.99083
G1 X78.797 Y80.364 F7800.000
G1 X64.362 Y65.929 E51.78846 F1080.000
G1 X64.362 Y63.848 E51.86979
G1 X75.538 Y52.672 E52.48733
G1 X75.729 Y52.515 E52.49698
G1 X77.384 Y51.409 E52.57474
G1 X77.841 Y51.220 E52.59408
G1 X79.915 Y50.807 E52.67669
G1 X80.410 Y50.807 E52.69603
G1 X82.483 Y51.220 E52.77863
G1 X82.940 Y51.409 E52.79797
G1 X84.595 Y52.515 E52.87573
G1 X84.786 Y52.672 E52.88538
G1 X95.638 Y63.523 E53.48501
G1 X95.638 Y65.605 E53.56634
G1 X80.879 Y80.364 E54.38188
G1 X78.850 Y80.364 E54.46116
G1 X78.920 Y80.068 F7800.000
G1 X64.658 Y65.807 E55.24921 F1080.000
G1 X64.658 Y63.970 E55.32098
G1 X75.737 Y52.891 E55.93317
G1 X75.905 Y52.753 E55.94168
G1 X77.524 Y51.671 E56.01774
G1 X77.927 Y51.504 E56.03480
G1 X79.944 Y51.103 E56.11514
G1 X80.380 Y51.103 E56.13220
G1 X82.397 Y51.504 E56.21253
G1 X82.800 Y51.671 E56.22960
G1 X84.419 Y52.753 E56.30565
G1 X84.587 Y52.891 E56.31416
G1 X95.342 Y63.646 E56.90844
G1 X95.342 Y65.482 E56.98020
G1 X80.756 Y80.068 E57.78617
G1 X78.972 Y80.068 E57.85589
G1 X79.042 Y79.773 F7800.000
G1 X64.953 Y65.684 E58.63437 F1080.000
G1 X64.953 Y64.092 E58.69657
G1 X75.936 Y53.110 E59.30341
G1 X76.082 Y52.990 E59.31078
G1 X77.664 Y51.933 E59.38513
G1 X78.013 Y51.788 E59.39992
G1 X79.973 Y51.399 E59.47798
G1 X80.351 Y51.399 E59.49277
G1 X82.311 Y51.788 E59.57083
G1 X82.660 Y51.933 E59.58561
G1 X84.243 Y52.990 E59.65997
G1 X84.389 Y53.110 E59.66734
G1 X95.047 Y63.768 E60.25627
G1 X95.047 Y65.360 E60.31846
G1 X80.634 Y79.773 E61.11486
G1 X79.094 Y79.773 E61.17501
G1 X79.164 Y79.477 F7800.000
G1 X65.249 Y65.562 E61.94392 F1080.000
G1 X65.249 Y64.215 E61.99655
G1 X76.134 Y53.329 E62.59804
G1 X76.258 Y53.228 E62.60428
G1 X77.804 Y52.195 E62.67693
G1 X78.100 Y52.073 E62.68944
G1 X80.002 Y51.694 E62.76522
G1 X80.322 Y51.694 E62.77774
G1 X82.225 Y52.073 E62.85352
G1 X82.520 Y52.195 E62.86603
G1 X84.066 Y53.228 E62.93868
G1 X84.190 Y53.329 E62.94492
G1 X94.751 Y63.891 E63.52849
G1 X94.751 Y65.238 E63.58112
G1 X80.511 Y79.477 E64.36795
G1 X79.217 Y79.477 E64.41853
G1 X79.287 Y79.182 F7800.000
G1 X65.545 Y65.439 E65.17787 F1080.000
G1 X65.545 Y64.337 E65.22093
G1 X76.333 Y53.549 E65.81707
G1 X77.944 Y52.457 E65.89309
G1 X78.186 Y52.357 E65.90333
G1 X80.031 Y51.990 E65.97684
G1 X80.293 Y51.990 E65.98708
G1 X82.138 Y52.357 E66.06058
G1 X82.380 Y52.457 E66.07082
G1 X83.991 Y53.549 E66.14685
G1 X94.455 Y64.013 E66.72507
G1 X94.455 Y65.115 E66.76812
G1 X80.389 Y79.182 E67.54539
G1 X79.339 Y79.182 E67.58640
G1 X79.409 Y78.886 F7800.000
G1 X65.840 Y65.317 E68.33617 F1080.000
G1 X65.840 Y64.460 E68.36966
G1 X76.532 Y53.768 E68.96045
G1 X78.084 Y52.719 E69.03364
G1 X78.272 Y52.641 E69.04160
G1 X80.060 Y52.285 E69.11283
G1 X80.264 Y52.285 E69.12080
G1 X82.052 Y52.641 E69.19203
G1 X82.240 Y52.719 E69.19999
G1 X83.792 Y53.768 E69.27318
G1 X94.160 Y64.136 E69.84605
G1 X94.160 Y64.993 E69.87954
G1 X80.266 Y78.886 E70.64723
G1 X79.462 Y78.886 E70.67867
G1 X79.532 Y78.590 F7800.000
G1 X66.136 Y65.194 E71.41888 F1080.000
G1 X66.136 Y64.582 E71.44280
G1 X76.731 Y53.987 E72.02824
G1 X78.224 Y52.981 E72.09859
G1 X78.358 Y52.925 E72.10428
G1 X80.089 Y52.581 E72.17323
G1 X80.235 Y52.581 E72.17892
G1 X81.966 Y52.925 E72.24788
G1 X82.100 Y52.981 E72.25356
G1 X83.594 Y53.987 E72.32392
G1 X93.864 Y64.258 E72.89144
G1 X93.864 Y64.870 E72.91536
G1 X80.144 Y78.590 E73.67348
G1 X79.584 Y78.590 E73.69535
G1 X79.654 Y78.295 F7800.000
G1 X66.431 Y65.072 E74.42599 F1080.000
G1 X66.431 Y64.705 E74.44035
G1 X76.929 Y54.207 E75.02043
G1 X78.364 Y53.243 E75.08795
G1 X78.445 Y53.210 E75.09136
G1 X80.118 Y52.877 E75.15804
G1 X80.206 Y52.877 E75.16145
G1 X81.880 Y53.210 E75.22813
G1 X81.960 Y53.243 E75.23155
G1 X83.395 Y54.207 E75.29907
G1 X93.569 Y64.380 E75.86123
G1 X93.569 Y64.748 E75.87558
G1 X80.022 Y78.295 E76.62414
G1 X79.707 Y78.295 E76.63644
G1 X79.777 Y77.999 F7800.000
G1 X66.727 Y64.950 E77.35751 F1080.000
G1 X66.727 Y64.827 E77.36230
G1 X77.128 Y54.426 E77.93703
G1 X78.531 Y53.494 E78.00283
G1 X80.177 Y53.172 E78.06835
G1 X81.820 Y53.505 E78.13387
G1 X83.196 Y54.426 E78.19856
G1 X93.273 Y64.503 E78.75537
G1 X93.273 Y64.625 E78.76015
G1 X79.899 Y77.999 E79.49914
G1 X79.829 Y77.999 E79.50188
G1 E78.50188 F1800.00000
G92 E0
G1 X73.689 Y83.307 F7800.000
G1 E1.00000 F1800.00000
G1 X91.064 Y83.307 E1.67888 F1080.000
G1 X93.748 Y85.991 E1.82719
G1 X93.748 Y108.578 E2.70971
G1 X91.064 Y111.262 E2.85802
G1 X74.759 Y111.262 E3.49511
G1 X74.311 Y111.218 E3.51271
G1 X72.059 Y110.770 E3.60240
G1 X71.225 Y110.425 E3.63767
G1 X69.128 Y109.024 E3.73620
G1 X68.490 Y108.385 E3.77147
G1 X67.089 Y106.288 E3.87000
G1 X66.744 Y105.455 E3.90527
G1 X66.296 Y103.203 E3.99496
G1 X66.252 Y102.755 E4.01255
G1 X66.252 Y85.991 E4.66756
G1 X68.936 Y83.307 E4.81588
G1 X73.637 Y83.307 E4.99955
G1 X73.689 Y83.602 F7800.000
G1 X90.942 Y83.602 E5.67364 F1080.000
G1 X93.453 Y86.113 E5.81239
G1 X93.453 Y108.455 E6.68534
G1 X90.942 Y110.966 E6.82408
G1 X74.773 Y110.966 E7.45582
G1 X74.354 Y110.925 E7.47228
G1 X72.145 Y110.486 E7.56027
G1 X71.365 Y110.163 E7.59326
G1 X69.317 Y108.794 E7.68952
G1 X68.720 Y108.197 E7.72251
G1 X67.351 Y106.148 E7.81877
G1 X67.028 Y105.368 E7.85176
G1 X66.589 Y103.160 E7.93975
G1 X66.547 Y102.740 E7.95620
G1 X66.547 Y86.113 E8.60586
G1 X69.058 Y83.602 E8.74461
G1 X73.637 Y83.602 E8.92350
G1 X73.689 Y83.898 F7800.000
G1 X90.819 Y83.898 E9.59280 F1080.000
G1 X93.157 Y86.236 E9.72198
G1 X93.157 Y108.333 E10.58536
G1 X90.819 Y110.671 E10.71454
G1 X74.788 Y110.671 E11.34093
G1 X74.397 Y110.632 E11.35625
G1 X72.232 Y110.202 E11.44253
G1 X71.505 Y109.901 E11.47325
G1 X69.505 Y108.564 E11.56723
G1 X68.949 Y108.008 E11.59795
G1 X67.613 Y106.008 E11.69193
G1 X67.312 Y105.282 E11.72265
G1 X66.881 Y103.116 E11.80893
G1 X66.843 Y102.726 E11.82425
G1 X66.843 Y86.236 E12.46856
G1 X69.181 Y83.898 E12.59773
G1 X73.637 Y83.898 E12.77184
G1 X73.689 Y84.194 F7800.000
G1 X90.697 Y84.194 E13.43636 F1080.000
G1 X92.861 Y86.358 E13.55597
G1 X92.861 Y108.211 E14.40978
G1 X90.697 Y110.375 E14.52939
G1 X74.802 Y110.375 E15.15043
G1 X74.441 Y110.340 E15.16461
G1 X72.318 Y109.917 E15.24919
G1 X71.645 Y109.639 E15.27763
G1 X69.694 Y108.335 E15.36934
G1 X69.179 Y107.820 E15.39778
G1 X67.875 Y105.868 E15.48949
G1 X67.596 Y105.196 E15.51793
G1 X67.174 Y103.073 E15.60251
G1 X67.139 Y102.711 E15.61670
G1 X67.139 Y86.358 E16.25565
G1 X69.303 Y84.194 E16.37526
G1 X73.637 Y84.194 E16.54458
G1 X73.689 Y84.489 F7800.000
G1 X90.574 Y84.489 E17.20432 F1080.000
G1 X92.566 Y86.481 E17.31436
G1 X92.566 Y108.088 E18.15860
G1 X90.574 Y110.080 E18.26864
G1 X74.817 Y110.080 E18.88432
G1 X74.484 Y110.047 E18.89737
G1 X72.404 Y109.633 E18.98025
G1 X71.785 Y109.377 E19.00642
G1 X69.882 Y108.105 E19.09585
G1 X69.409 Y107.632 E19.12201
G1 X68.137 Y105.728 E19.21145
G1 X67.881 Y105.110 E19.23761
G1 X67.467 Y103.029 E19.32049
G1 X67.434 Y102.697 E19.33354
G1 X67.434 Y86.481 E19.96714
G1 X69.426 Y84.489 E20.07718
G1 X73.637 Y84.489 E20.24171
G1 X73.689 Y84.785 F7800.000
G1 X90.452 Y84.785 E20.89667 F1080.000
G1 X92.270 Y86.603 E20.99714
G1 X92.270 Y107.966 E21.83181
G1 X90.452 Y109.784 E21.93229
G1 X74.831 Y109.784 E22.54262
G1 X74.528 Y109.754 E22.55453
G1 X72.490 Y109.349 E22.63570
G1 X71.925 Y109.115 E22.65959
G1 X70.071 Y107.875 E22.74675
G1 X69.638 Y107.443 E22.77064
G1 X68.399 Y105.588 E22.85780
G1 X68.165 Y105.023 E22.88169
G1 X67.760 Y102.986 E22.96286
G1 X67.730 Y102.682 E22.97478
G1 X67.730 Y86.603 E23.60302
G1 X69.548 Y84.785 E23.70350
G1 X73.637 Y84.785 E23.86325
G1 X73.689 Y85.081 F7800.000
G1 X90.329 Y85.081 E24.51342 F1080.000
G1 X91.975 Y86.726 E24.60432
G1 X91.975 Y107.843 E25.42943
G1 X90.329 Y109.488 E25.52033
G1 X74.846 Y109.488 E26.12531
G1 X74.571 Y109.461 E26.13609
G1 X72.576 Y109.064 E26.21556
G1 X72.065 Y108.853 E26.23717
G1 X70.259 Y107.646 E26.32205
