; generated by Slic3r 1.1.7 on 2017-09-12 at 16:42:59

; perimeters extrusion width = 0.40mm
; infill extrusion width = 0.67mm
; solid infill extrusion width = 0.67mm
; top infill extrusion width = 0.67mm

G21 ; set units to millimeters
M107
M190 S60 ; wait for bed temperature to be reached
M104 S185 ; set temperature
G28 ; home all axes
G1 Z5 F5000 ; lift nozzle
M109 S185 ; wait for temperature to be reached
G90 ; use absolute coordinates
G92 E0
M82 ; use absolute distances for extrusion
G1 F1800.000 E-1.00000
G92 E0
G1 Z0.400 F9000.000
G1 X10.336 Y34.575 F9000.000
G1 E1.00000 F1800.000
G1 X12.403 Y33.913 E1.19656 F960.000
G1 X120.403 Y33.913 E10.97714
G1 X122.186 Y34.392 E11.14430
G1 X139.380 Y44.349 E12.94366
G1 X140.591 Y45.506 E13.09535
G1 X141.154 Y47.427 E13.27665
G1 X141.152 Y75.040 E15.77727
G1 X139.720 Y122.637 E20.08965
G1 X139.276 Y124.252 E20.24134
G1 X138.143 Y125.486 E20.39304
G1 X136.164 Y126.087 E20.58034
G1 X28.164 Y126.087 E30.36092
G1 X26.139 Y125.454 E30.55303
G1 X10.378 Y114.542 E32.28911
G1 X9.264 Y113.291 E32.44080
G1 X8.846 Y111.617 E32.59702
G1 X8.846 Y37.470 E39.31187
G1 X9.240 Y35.842 E39.46356
G1 X10.297 Y34.621 E39.60981
G1 F1800.000 E38.60981
G92 E0
G1 X7.832 Y28.335 F9000.000
G1 E1.00000 F1800.000
G1 X10.616 Y27.444 E1.26470 F960.000
G1 X11.099 Y27.329 E1.30970
G1 X11.636 Y27.245 E1.35891
G1 X12.131 Y27.207 E1.40389
G1 X120.633 Y27.207 E11.22990
G1 X121.052 Y27.234 E11.26797
G1 X121.508 Y27.294 E11.30962
G1 X121.921 Y27.377 E11.34771
G1 X122.289 Y27.476 E11.38224
G1 X122.436 Y27.476 E11.39551
G1 X123.250 Y27.259 E11.47184
G1 X124.748 Y28.126 E11.62865
G1 X126.488 Y28.604 E11.79204
G1 X126.909 Y29.334 E11.86837
G1 X127.013 Y29.438 E11.88164
G1 X142.921 Y38.650 E13.54641
G1 X143.571 Y39.110 E13.61858
G1 X143.862 Y39.356 E13.65306
G1 X145.555 Y40.974 E13.86515
G1 X146.081 Y41.628 E13.94111
G1 X146.558 Y42.411 E14.02421
G1 X146.897 Y43.179 E14.10017
G1 X147.660 Y45.780 E14.34566
G1 X147.757 Y46.227 E14.38706
G1 X147.828 Y46.722 E14.43234
G1 X147.861 Y47.178 E14.47375
G1 X147.857 Y75.215 E17.01287
G1 X146.417 Y123.047 E21.34649
G1 X146.383 Y123.426 E21.38098
G1 X146.242 Y124.211 E21.45314
G1 X145.634 Y126.429 E21.66145
G1 X145.346 Y127.135 E21.73048
G1 X144.942 Y127.864 E21.80599
G1 X144.497 Y128.483 E21.87502
G1 X142.765 Y130.367 E22.10679
G1 X142.109 Y130.914 E22.18417
G1 X141.317 Y131.412 E22.26882
G1 X140.540 Y131.766 E22.34620
G1 X137.867 Y132.579 E22.59924
G1 X137.405 Y132.683 E22.64205
G1 X136.894 Y132.759 E22.68887
G1 X136.423 Y132.793 E22.73168
G1 X27.899 Y132.793 E32.55970
G1 X27.415 Y132.757 E32.60364
G1 X26.890 Y132.677 E32.65170
G1 X26.418 Y132.567 E32.69564
G1 X23.886 Y131.777 E32.93580
G1 X23.436 Y131.597 E32.97974
G1 X22.959 Y131.364 E33.02779
G1 X22.540 Y131.119 E33.07174
G1 X6.389 Y119.937 E34.85070
G1 X6.090 Y119.702 E34.88519
G1 X5.508 Y119.157 E34.95735
G1 X3.974 Y117.435 E35.16624
G1 X3.533 Y116.799 E35.23632
G1 X3.137 Y116.051 E35.31299
G1 X2.861 Y115.328 E35.38307
G1 X2.288 Y113.035 E35.59707
G1 X2.216 Y112.650 E35.63261
G1 X2.164 Y112.224 E35.67148
G1 X2.139 Y111.832 E35.70701
G1 X2.139 Y37.262 E42.46014
G1 X2.211 Y36.468 E42.53230
G1 X2.279 Y36.094 E42.56679
G1 X2.821 Y33.858 E42.77510
G1 X3.087 Y33.144 E42.84413
G1 X3.468 Y32.402 E42.91965
G1 X3.895 Y31.771 E42.98868
G1 X5.578 Y29.825 E43.22165
G1 X6.238 Y29.245 E43.30122
G1 X7.040 Y28.715 E43.38828
G1 X7.778 Y28.361 E43.46241
G1 X8.038 Y28.854 F9000.000
G1 X10.765 Y27.981 E43.72169 F960.000
G1 X11.207 Y27.876 E43.76277
G1 X11.701 Y27.799 E43.80807
G1 X12.153 Y27.764 E43.84915
G1 X120.615 Y27.764 E53.67154
G1 X120.998 Y27.789 E53.70631
G1 X121.417 Y27.844 E53.74465
G1 X121.794 Y27.919 E53.77942
G1 X122.289 Y28.052 E53.82580
G1 X122.435 Y28.052 E53.83906
G1 X123.171 Y27.856 E53.90800
G1 X124.601 Y28.673 E54.05715
G1 X126.121 Y29.082 E54.19972
G1 X126.501 Y29.741 E54.26865
G1 X126.605 Y29.845 E54.28192
G1 X142.627 Y39.124 E55.95869
G1 X143.224 Y39.546 E56.02487
G1 X143.489 Y39.771 E56.05635
G1 X145.144 Y41.352 E56.26364
G1 X145.624 Y41.948 E56.33299
G1 X146.063 Y42.670 E56.40949
G1 X146.373 Y43.370 E56.47884
G1 X147.120 Y45.918 E56.71923
G1 X147.208 Y46.326 E56.75703
G1 X147.274 Y46.781 E56.79872
G1 X147.303 Y47.198 E56.83652
G1 X147.300 Y75.201 E59.37251
G1 X145.860 Y123.014 E63.70445
G1 X145.829 Y123.360 E63.73594
G1 X145.701 Y124.079 E63.80211
G1 X145.105 Y126.249 E64.00591
G1 X144.843 Y126.894 E64.06894
G1 X144.471 Y127.566 E64.13845
G1 X144.064 Y128.130 E64.20148
G1 X142.380 Y129.963 E64.42688
G1 X141.781 Y130.462 E64.49753
G1 X141.052 Y130.920 E64.57545
G1 X140.343 Y131.244 E64.64610
G1 X137.724 Y132.040 E64.89392
G1 X137.303 Y132.135 E64.93301
G1 X136.833 Y132.204 E64.97610
G1 X136.402 Y132.236 E65.01519
G1 X27.920 Y132.236 E74.83944
G1 X27.478 Y132.203 E74.87956
G1 X26.995 Y132.129 E74.92380
G1 X26.564 Y132.029 E74.96392
G1 X24.073 Y131.251 E75.20026
G1 X23.661 Y131.087 E75.24037
G1 X23.222 Y130.873 E75.28461
G1 X22.840 Y130.649 E75.32473
G1 X6.720 Y119.489 E77.10029
G1 X6.446 Y119.274 E77.13178
G1 X5.913 Y118.775 E77.19795
G1 X4.413 Y117.089 E77.40228
G1 X4.010 Y116.509 E77.46628
G1 X3.645 Y115.820 E77.53685
G1 X3.393 Y115.160 E77.60084
G1 X2.832 Y112.917 E77.81024
G1 X2.767 Y112.565 E77.84270
G1 X2.697 Y111.815 E77.91088
G1 X2.697 Y37.279 E84.66097
G1 X2.763 Y36.551 E84.72713
G1 X2.824 Y36.209 E84.75863
G1 X3.354 Y34.021 E84.96244
G1 X3.597 Y33.369 E85.02546
G1 X3.948 Y32.687 E85.09497
G1 X4.338 Y32.110 E85.15800
G1 X5.974 Y30.218 E85.38452
G1 X6.577 Y29.689 E85.45717
G1 X7.315 Y29.201 E85.53730
G1 X7.984 Y28.880 E85.60452
G1 X8.245 Y29.373 F9000.000
G1 X10.914 Y28.518 E85.85838 F960.000
G1 X11.314 Y28.423 E85.89555
G1 X11.765 Y28.353 E85.93694
G1 X12.175 Y28.321 E85.97410
G1 X120.596 Y28.321 E95.79289
G1 X121.326 Y28.394 E95.85933
G1 X121.667 Y28.462 E95.89080
G1 X122.288 Y28.629 E95.94902
G1 X122.434 Y28.629 E95.96228
G1 X123.091 Y28.454 E96.02382
G1 X124.385 Y29.192 E96.15873
G1 X125.754 Y29.560 E96.28706
G1 X126.093 Y30.149 E96.34860
G1 X126.196 Y30.252 E96.36187
G1 X142.334 Y39.598 E98.05064
G1 X142.876 Y39.981 E98.11082
G1 X143.116 Y40.185 E98.13930
G1 X144.733 Y41.729 E98.34180
G1 X145.167 Y42.269 E98.40454
G1 X145.568 Y42.928 E98.47443
G1 X145.848 Y43.562 E98.53718
G1 X146.580 Y46.055 E98.77247
G1 X146.660 Y46.424 E98.80667
G1 X146.719 Y46.841 E98.84475
G1 X146.746 Y47.217 E98.87896
G1 X146.743 Y75.186 E101.41183
G1 X145.304 Y122.980 E105.74207
G1 X145.276 Y123.294 E105.77056
G1 X145.159 Y123.948 E105.83074
G1 X144.577 Y126.070 E106.03004
G1 X144.339 Y126.653 E106.08706
G1 X144.000 Y127.267 E106.15057
G1 X143.632 Y127.778 E106.20760
G1 X141.995 Y129.559 E106.42664
G1 X141.453 Y130.010 E106.49056
G1 X140.787 Y130.429 E106.56175
G1 X140.145 Y130.722 E106.62567
G1 X137.582 Y131.501 E106.86827
G1 X137.201 Y131.587 E106.90363
G1 X136.771 Y131.650 E106.94301
G1 X136.382 Y131.679 E106.97837
G1 X27.941 Y131.679 E116.79885
G1 X27.541 Y131.649 E116.83515
G1 X27.100 Y131.582 E116.87557
G1 X26.710 Y131.491 E116.91186
G1 X24.259 Y130.726 E117.14439
G1 X23.886 Y130.578 E117.18068
G1 X23.485 Y130.382 E117.22110
G1 X23.139 Y130.179 E117.25740
G1 X7.051 Y119.040 E119.02954
G1 X6.803 Y118.846 E119.05803
G1 X6.318 Y118.392 E119.11821
G1 X4.851 Y116.744 E119.31800
G1 X4.486 Y116.219 E119.37590
G1 X4.154 Y115.589 E119.44038
G1 X3.925 Y114.992 E119.49827
G1 X3.377 Y112.798 E119.70308
G1 X3.318 Y112.480 E119.73244
G1 X3.254 Y111.798 E119.79445
G1 X3.254 Y37.295 E126.54150
G1 X3.314 Y36.633 E126.60167
G1 X3.370 Y36.324 E126.63016
G1 X3.888 Y34.185 E126.82947
G1 X4.108 Y33.595 E126.88649
G1 X4.429 Y32.971 E126.95000
G1 X4.781 Y32.449 E127.00703
G1 X6.371 Y30.611 E127.22708
G1 X6.916 Y30.132 E127.29281
G1 X7.590 Y29.687 E127.36603
G1 X8.191 Y29.399 E127.42633
G1 X8.451 Y29.892 F9000.000
G1 X11.064 Y29.055 E127.67478 F960.000
G1 X11.421 Y28.970 E127.70804
G1 X11.830 Y28.906 E127.74551
G1 X12.196 Y28.878 E127.77876
G1 X120.578 Y28.878 E137.59393
G1 X121.235 Y28.944 E137.65376
G1 X121.540 Y29.005 E137.68191
G1 X122.287 Y29.206 E137.75197
G1 X122.434 Y29.206 E137.76524
G1 X123.012 Y29.052 E137.81938
G1 X124.102 Y29.683 E137.93348
G1 X125.386 Y30.038 E138.05415
G1 X125.685 Y30.556 E138.10829
G1 X125.788 Y30.660 E138.12156
G1 X142.040 Y40.071 E139.82233
G1 X142.529 Y40.417 E139.87652
G1 X142.743 Y40.599 E139.90200
G1 X144.322 Y42.107 E140.09969
G1 X144.710 Y42.590 E140.15583
G1 X145.074 Y43.187 E140.21912
G1 X145.324 Y43.754 E140.27526
G1 X146.039 Y46.193 E140.50545
G1 X146.111 Y46.523 E140.53605
G1 X146.165 Y46.900 E140.57053
G1 X146.189 Y47.237 E140.60113
G1 X146.187 Y75.136 E143.12766
G1 X144.748 Y122.947 E147.45943
G1 X144.723 Y123.227 E147.48492
G1 X144.617 Y123.816 E147.53911
G1 X144.048 Y125.891 E147.73391
G1 X143.836 Y126.412 E147.78493
G1 X143.528 Y126.968 E147.84244
G1 X143.199 Y127.425 E147.89346
G1 X141.610 Y129.154 E148.10614
G1 X141.125 Y129.559 E148.16333
G1 X140.522 Y129.938 E148.22780
G1 X139.948 Y130.200 E148.28499
G1 X137.440 Y130.962 E148.52236
G1 X137.099 Y131.038 E148.55400
G1 X136.709 Y131.096 E148.58965
G1 X136.361 Y131.122 E148.62129
G1 X27.962 Y131.122 E158.43800
G1 X27.604 Y131.095 E158.47048
G1 X27.205 Y131.034 E158.50708
G1 X26.856 Y130.953 E158.53955
G1 X24.445 Y130.200 E158.76825
G1 X24.112 Y130.068 E158.80073
G1 X23.749 Y129.890 E158.83732
G1 X23.439 Y129.709 E158.86980
G1 X7.382 Y118.591 E160.63854
G1 X7.160 Y118.418 E160.66403
G1 X6.723 Y118.009 E160.71821
G1 X5.289 Y116.399 E160.91345
G1 X4.963 Y115.929 E160.96526
G1 X4.662 Y115.359 E161.02364
G1 X4.457 Y114.825 E161.07544
G1 X3.921 Y112.680 E161.27566
G1 X3.868 Y112.395 E161.30193
G1 X3.811 Y111.781 E161.35777
G1 X3.811 Y37.312 E168.10176
G1 X3.865 Y36.716 E168.15594
G1 X3.915 Y36.439 E168.18144
G1 X4.421 Y34.348 E168.37624
G1 X4.618 Y33.820 E168.42726
G1 X4.909 Y33.256 E168.48477
G1 X5.224 Y32.789 E168.53580
G1 X6.767 Y31.005 E168.74939
G1 X7.255 Y30.576 E168.80820
G1 X7.866 Y30.173 E168.87450
G1 X8.397 Y29.918 E168.92787
G1 X8.658 Y30.411 F9000.000
G1 X11.213 Y29.592 E169.17091 F960.000
G1 X11.529 Y29.517 E169.20026
G1 X11.895 Y29.460 E169.23382
G1 X12.218 Y29.435 E169.26316
G1 X120.560 Y29.435 E179.07472
G1 X120.833 Y29.453 E179.09955
G1 X121.413 Y29.548 E179.15277
G1 X122.287 Y29.782 E179.23467
G1 X122.433 Y29.782 E179.24794
G1 X122.932 Y29.649 E179.29469
G1 X123.886 Y30.202 E179.39454
G1 X125.019 Y30.516 E179.50098
G1 X125.277 Y30.963 E179.54772
G1 X125.380 Y31.067 E179.56099
G1 X141.747 Y40.545 E181.27376
G1 X142.181 Y40.853 E181.32195
G1 X142.370 Y41.013 E181.34444
G1 X143.910 Y42.485 E181.53733
G1 X144.253 Y42.911 E181.58686
G1 X144.579 Y43.445 E181.64355
G1 X144.800 Y43.946 E181.69308
G1 X145.499 Y46.331 E181.91817
G1 X145.611 Y46.960 E181.97601
G1 X145.632 Y47.257 E182.00302
G1 X145.630 Y75.125 E184.52679
G1 X144.191 Y122.914 E188.85650
G1 X144.169 Y123.161 E188.87899
G1 X144.076 Y123.685 E188.92718
G1 X143.520 Y125.711 E189.11748
G1 X143.332 Y126.172 E189.16250
G1 X143.057 Y126.669 E189.21401
G1 X142.766 Y127.073 E189.25903
G1 X141.225 Y128.750 E189.46534
G1 X140.797 Y129.107 E189.51580
G1 X140.257 Y129.446 E189.57354
G1 X139.750 Y129.678 E189.62400
G1 X137.297 Y130.423 E189.85615
G1 X136.648 Y130.542 E189.91596
G1 X136.340 Y130.565 E189.94387
G1 X27.983 Y130.565 E199.75681
G1 X27.668 Y130.541 E199.78547
G1 X27.310 Y130.486 E199.81825
G1 X27.002 Y130.415 E199.84690
G1 X24.631 Y129.675 E200.07178
G1 X24.337 Y129.558 E200.10043
G1 X24.012 Y129.399 E200.13321
G1 X23.739 Y129.239 E200.16187
G1 X7.712 Y118.143 E201.92719
G1 X7.517 Y117.990 E201.94969
G1 X7.128 Y117.626 E201.99787
G1 X5.728 Y116.053 E202.18857
G1 X5.440 Y115.639 E202.23428
G1 X5.170 Y115.128 E202.28657
G1 X4.990 Y114.657 E202.33228
G1 X4.466 Y112.561 E202.52791
G1 X4.419 Y112.310 E202.55108
G1 X4.368 Y111.764 E202.60074
G1 X4.368 Y37.328 E209.34170
G1 X4.416 Y36.798 E209.38988
G1 X4.460 Y36.554 E209.41238
G1 X4.955 Y34.511 E209.60268
G1 X5.129 Y34.046 E209.64770
G1 X5.389 Y33.540 E209.69921
G1 X5.667 Y33.128 E209.74423
G1 X7.163 Y31.398 E209.95136
G1 X7.594 Y31.020 E210.00325
G1 X8.141 Y30.658 E210.06263
G1 X8.603 Y30.437 E210.10909
G1 X8.864 Y30.930 F9000.000
G1 X11.363 Y30.129 E210.34671 F960.000
G1 X11.636 Y30.064 E210.37214
G1 X12.239 Y29.992 E210.42718
G1 X120.542 Y29.992 E220.23512
G1 X120.779 Y30.008 E220.25664
G1 X121.286 Y30.090 E220.30324
G1 X122.286 Y30.359 E220.39699
G1 X122.433 Y30.359 E220.41026
G1 X122.853 Y30.247 E220.44961
G1 X123.738 Y30.749 E220.54181
G1 X124.651 Y30.994 E220.62742
G1 X124.868 Y31.371 E220.66677
G1 X124.972 Y31.475 E220.68004
G1 X141.453 Y41.019 E222.40481
G1 X141.633 Y41.138 E222.42431
G1 X141.998 Y41.427 E222.46650
G1 X143.499 Y42.862 E222.65459
G1 X143.796 Y43.232 E222.69752
G1 X144.084 Y43.704 E222.74759
G1 X144.275 Y44.138 E222.79053
G1 X144.959 Y46.468 E223.01051
G1 X145.057 Y47.019 E223.06116
G1 X145.075 Y47.277 E223.08456
G1 X145.073 Y75.115 E225.60559
G1 X143.635 Y122.880 E229.93323
G1 X143.616 Y123.095 E229.95272
G1 X143.534 Y123.553 E229.99492
G1 X142.991 Y125.532 E230.18072
G1 X142.829 Y125.931 E230.21974
G1 X142.586 Y126.371 E230.26524
G1 X142.334 Y126.720 E230.30426
G1 X140.840 Y128.346 E230.50420
G1 X140.469 Y128.655 E230.54793
G1 X139.992 Y128.955 E230.59895
G1 X139.553 Y129.155 E230.64268
G1 X137.155 Y129.884 E230.86960
G1 X136.586 Y129.988 E230.92197
G1 X136.320 Y130.008 E230.94617
G1 X28.004 Y130.008 E240.75533
G1 X27.731 Y129.987 E240.78017
G1 X27.148 Y129.877 E240.83392
G1 X24.818 Y129.149 E241.05498
G1 X24.275 Y128.908 E241.10873
G1 X24.039 Y128.769 E241.13357
G1 X8.043 Y117.694 E242.89548
G1 X7.874 Y117.561 E242.91498
G1 X7.533 Y117.243 E242.95717
G1 X6.166 Y115.708 E243.14332
G1 X5.917 Y115.349 E243.18293
G1 X5.678 Y114.898 E243.22913
G1 X5.522 Y114.489 E243.26874
G1 X5.011 Y112.443 E243.45978
G1 X4.970 Y112.225 E243.47987
G1 X4.925 Y111.747 E243.52335
G1 X4.925 Y37.345 E250.26126
G1 X4.967 Y36.881 E250.30345
G1 X5.006 Y36.669 E250.32295
G1 X5.489 Y34.675 E250.50875
G1 X5.639 Y34.271 E250.54777
G1 X5.869 Y33.824 E250.59327
G1 X6.110 Y33.467 E250.63229
G1 X7.560 Y31.791 E250.83296
G1 X7.933 Y31.464 E250.87793
G1 X8.416 Y31.144 E250.93039
G1 X8.810 Y30.956 E250.96993
G1 X9.070 Y31.448 F9000.000
G1 X11.512 Y30.666 E251.20214 F960.000
G1 X11.743 Y30.611 E251.22366
G1 X12.261 Y30.549 E251.27087
G1 X120.523 Y30.549 E261.07521
G1 X120.724 Y30.562 E261.09342
G1 X121.160 Y30.633 E261.13340
G1 X122.286 Y30.936 E261.23899
G1 X122.432 Y30.936 E261.25226
G1 X122.773 Y30.845 E261.28421
G1 X123.455 Y31.240 E261.35559
G1 X124.284 Y31.473 E261.43355
G1 X124.460 Y31.778 E261.46550
G1 X124.564 Y31.882 E261.47877
G1 X141.312 Y41.593 E263.23201
G1 X141.625 Y41.842 E263.26821
G1 X143.088 Y43.240 E263.45149
G1 X143.339 Y43.552 E263.48782
G1 X143.589 Y43.962 E263.53129
G1 X143.751 Y44.329 E263.56762
G1 X144.419 Y46.606 E263.78250
G1 X144.502 Y47.079 E263.82595
G1 X144.518 Y47.297 E263.84576
G1 X144.516 Y75.104 E266.36404
G1 X143.079 Y122.847 E270.68961
G1 X142.993 Y123.422 E270.74226
G1 X142.463 Y125.353 E270.92356
G1 X142.325 Y125.690 E270.95658
G1 X142.114 Y126.072 E270.99608
G1 X141.901 Y126.368 E271.02909
G1 X140.455 Y127.942 E271.22267
G1 X140.141 Y128.203 E271.25968
G1 X139.727 Y128.463 E271.30396
G1 X139.355 Y128.633 E271.34097
G1 X137.013 Y129.345 E271.56266
G1 X136.525 Y129.434 E271.60759
G1 X136.299 Y129.451 E271.62807
G1 X28.025 Y129.451 E281.43346
G1 X27.794 Y129.433 E281.45448
G1 X27.294 Y129.339 E281.50059
G1 X25.004 Y128.624 E281.71783
G1 X24.539 Y128.416 E281.76395
G1 X24.339 Y128.299 E281.78496
G1 X8.374 Y117.246 E283.54347
G1 X7.938 Y116.860 E283.59612
G1 X6.605 Y115.363 E283.77772
G1 X6.394 Y115.059 E283.81124
G1 X6.187 Y114.667 E283.85135
G1 X6.054 Y114.322 E283.88486
G1 X5.555 Y112.324 E284.07131
G1 X5.482 Y111.730 E284.12556
G1 X5.482 Y37.361 E290.86043
G1 X5.551 Y36.784 E290.91308
G1 X6.022 Y34.838 E291.09438
G1 X6.149 Y34.497 E291.12740
G1 X6.349 Y34.109 E291.16690
G1 X6.553 Y33.807 E291.19991
G1 X7.956 Y32.185 E291.39413
G1 X8.272 Y31.907 E291.43218
G1 X8.691 Y31.630 E291.47772
G1 X9.016 Y31.474 E291.51034
G1 X9.277 Y31.967 F9000.000
G1 X11.661 Y31.203 E291.73713 F960.000
