; generated by Slic3r 1.2.9 on 2021-04-12 at 16:58:30

; external perimeters extrusion width = 0.35mm
; perimeters extrusion width = 0.52mm
; infill extrusion width = 0.52mm
; solid infill extrusion width = 0.52mm
; top infill extrusion width = 0.52mm

M107
M190 S90 ; set bed temperature
M104 S240 ; set temperature
G28 ; home all axes
G1 Z5 F5000 ; lift nozzle
M109 S240 ; wait for temperature to be reached
G21 ; set units to millimeters
G90 ; use absolute coordinates
M82 ; use absolute distances for extrusion
G92 E0
G1 E-1.00000 F1800.00000
G92 E0
G1 Z0.300 F7800.000
G1 X70.557 Y70.606 F7800.000
G1 E1.00000 F1800.00000
G1 X71.061 Y70.124 E1.02955 F1080.000
G1 X71.590 Y69.670 E1.05911
G1 X72.143 Y69.244 E1.08869
G1 X72.713 Y68.850 E1.11804
G1 X73.370 Y68.447 E1.15072
G1 X73.983 Y68.116 E1.18028
G1 X74.614 Y67.817 E1.20984
G1 X75.194 Y67.577 E1.23649
G1 X75.851 Y67.342 E1.26604
G1 X76.519 Y67.143 E1.29560
G1 X77.197 Y66.978 E1.32515
G1 X77.882 Y66.849 E1.35472
G1 X78.574 Y66.756 E1.38428
G1 X79.268 Y66.700 E1.41383
G1 X79.966 Y66.680 E1.44339
G1 X80.663 Y66.696 E1.47295
G1 X81.358 Y66.749 E1.50252
G1 X82.050 Y66.838 E1.53207
G1 X82.736 Y66.964 E1.56163
G1 X83.485 Y67.144 E1.59431
G1 X84.149 Y67.342 E1.62367
G1 X84.806 Y67.577 E1.65324
G1 X85.449 Y67.845 E1.68280
G1 X86.078 Y68.147 E1.71236
G1 X86.690 Y68.482 E1.74192
G1 X87.284 Y68.847 E1.77147
G1 X87.857 Y69.244 E1.80103
G1 X88.409 Y69.670 E1.83059
G1 X88.887 Y70.078 E1.85723
G1 X89.394 Y70.557 E1.88679
G1 X89.876 Y71.061 E1.91635
G1 X90.330 Y71.590 E1.94591
G1 X90.756 Y72.143 E1.97547
G1 X91.150 Y72.713 E2.00483
G1 X91.553 Y73.370 E2.03751
G1 X91.884 Y73.983 E2.06707
G1 X92.183 Y74.614 E2.09664
G1 X92.448 Y75.259 E2.12619
G1 X92.679 Y75.917 E2.15575
G1 X92.875 Y76.586 E2.18530
G1 X93.022 Y77.197 E2.21194
G1 X93.151 Y77.882 E2.24151
G1 X93.244 Y78.573 E2.27106
G1 X93.300 Y79.269 E2.30063
G1 X93.320 Y79.965 E2.33018
G1 X93.300 Y80.736 E2.36285
G1 X93.244 Y81.427 E2.39223
G1 X93.151 Y82.118 E2.42179
G1 X93.022 Y82.803 E2.45135
G1 X92.857 Y83.481 E2.48090
G1 X92.658 Y84.149 E2.51047
G1 X92.423 Y84.805 E2.54002
G1 X92.155 Y85.449 E2.56959
G1 X91.853 Y86.078 E2.59915
G1 X91.518 Y86.690 E2.62871
G1 X91.153 Y87.284 E2.65827
G1 X90.756 Y87.857 E2.68783
G1 X90.330 Y88.409 E2.71736
G1 X89.896 Y88.917 E2.74567
G1 X89.419 Y89.419 E2.77503
G1 X88.918 Y89.895 E2.80436
G1 X88.409 Y90.330 E2.83273
G1 X87.857 Y90.756 E2.86226
G1 X87.284 Y91.153 E2.89182
G1 X86.690 Y91.518 E2.92138
G1 X86.078 Y91.853 E2.95094
G1 X85.449 Y92.155 E2.98050
G1 X84.805 Y92.423 E3.01008
G1 X84.149 Y92.658 E3.03962
G1 X83.481 Y92.857 E3.06919
G1 X82.803 Y93.022 E3.09874
G1 X82.122 Y93.150 E3.12811
G1 X81.358 Y93.251 E3.16079
G1 X80.663 Y93.304 E3.19035
G1 X79.965 Y93.320 E3.21991
G1 X79.269 Y93.300 E3.24946
G1 X78.573 Y93.244 E3.27903
G1 X77.882 Y93.151 E3.30858
G1 X77.264 Y93.036 E3.33522
G1 X76.586 Y92.875 E3.36479
G1 X75.917 Y92.679 E3.39434
G1 X75.259 Y92.448 E3.42390
G1 X74.614 Y92.183 E3.45346
G1 X73.922 Y91.853 E3.48595
G1 X73.310 Y91.518 E3.51550
G1 X72.716 Y91.153 E3.54506
G1 X72.143 Y90.756 E3.57463
G1 X71.591 Y90.331 E3.60415
G1 X71.062 Y89.876 E3.63373
G1 X70.578 Y89.417 E3.66198
G1 X70.124 Y88.939 E3.68994
G1 X69.670 Y88.409 E3.71952
G1 X69.244 Y87.857 E3.74906
G1 X68.847 Y87.284 E3.77862
G1 X68.482 Y86.690 E3.80818
G1 X68.149 Y86.082 E3.83754
G1 X67.817 Y85.386 E3.87022
G1 X67.577 Y84.805 E3.89687
G1 X67.342 Y84.149 E3.92642
G1 X67.143 Y83.481 E3.95598
G1 X66.978 Y82.803 E3.98553
G1 X66.849 Y82.118 E4.01509
G1 X66.756 Y81.427 E4.04466
G1 X66.700 Y80.732 E4.07421
G1 X66.680 Y80.034 E4.10378
G1 X66.696 Y79.337 E4.13333
G1 X66.749 Y78.646 E4.16271
G1 X66.849 Y77.882 E4.19538
G1 X66.978 Y77.197 E4.22494
G1 X67.142 Y76.519 E4.25449
G1 X67.342 Y75.851 E4.28406
G1 X67.577 Y75.195 E4.31360
G1 X67.817 Y74.614 E4.34025
G1 X68.116 Y73.983 E4.36981
G1 X68.447 Y73.370 E4.39937
G1 X68.810 Y72.774 E4.42894
G1 X69.203 Y72.199 E4.45849
G1 X69.627 Y71.644 E4.48805
G1 X70.078 Y71.113 E4.51761
G1 X70.521 Y70.644 E4.54495
G1 E3.54495 F1800.00000
G92 E0
G1 X87.636 Y87.636 F7800.000
G1 E1.00000 F1800.00000
G1 X87.226 Y88.025 E1.02396 F900.000
G1 X86.796 Y88.393 E1.04793
G1 X86.348 Y88.737 E1.07190
G1 X85.883 Y89.056 E1.09579
G1 X85.400 Y89.352 E1.11982
G1 X84.904 Y89.621 E1.14372
G1 X84.391 Y89.866 E1.16784
G1 X83.870 Y90.082 E1.19172
G1 X83.337 Y90.271 E1.21568
G1 X82.795 Y90.431 E1.23965
G1 X82.245 Y90.563 E1.26361
G1 X81.689 Y90.666 E1.28758
G1 X81.129 Y90.740 E1.31154
G1 X80.565 Y90.784 E1.33551
G1 X80.000 Y90.799 E1.35947
G1 X79.435 Y90.784 E1.38344
G1 X78.871 Y90.740 E1.40740
G1 X78.311 Y90.666 E1.43137
G1 X77.755 Y90.563 E1.45533
G1 X77.205 Y90.431 E1.47930
G1 X76.663 Y90.271 E1.50326
G1 X76.130 Y90.082 E1.52723
G1 X75.608 Y89.866 E1.55119
G1 X75.097 Y89.622 E1.57516
G1 X74.602 Y89.353 E1.59905
G1 X74.117 Y89.056 E1.62315
G1 X73.652 Y88.737 E1.64705
G1 X73.204 Y88.393 E1.67102
G1 X72.774 Y88.025 E1.69498
G1 X72.364 Y87.636 E1.71895
G1 X71.975 Y87.226 E1.74292
G1 X71.607 Y86.796 E1.76688
G1 X71.263 Y86.348 E1.79084
G1 X70.944 Y85.883 E1.81475
G1 X70.648 Y85.400 E1.83877
G1 X70.379 Y84.904 E1.86265
G1 X70.134 Y84.391 E1.88677
G1 X69.918 Y83.870 E1.91067
G1 X69.729 Y83.337 E1.93463
G1 X69.569 Y82.795 E1.95860
G1 X69.437 Y82.245 E1.98256
G1 X69.334 Y81.689 E2.00653
G1 X69.260 Y81.129 E2.03049
G1 X69.216 Y80.565 E2.05446
G1 X69.201 Y80.000 E2.07842
G1 X69.216 Y79.435 E2.10239
G1 X69.260 Y78.871 E2.12635
G1 X69.334 Y78.311 E2.15032
G1 X69.437 Y77.755 E2.17428
G1 X69.569 Y77.205 E2.19825
G1 X69.729 Y76.663 E2.22221
G1 X69.918 Y76.130 E2.24618
G1 X70.134 Y75.609 E2.27006
G1 X70.378 Y75.097 E2.29410
G1 X70.647 Y74.603 E2.31797
G1 X70.944 Y74.116 E2.34213
G1 X71.263 Y73.652 E2.36600
G1 X71.607 Y73.204 E2.38997
G1 X71.975 Y72.774 E2.41393
G1 X72.364 Y72.364 E2.43790
G1 X72.774 Y71.975 E2.46186
G1 X73.204 Y71.607 E2.48583
G1 X73.652 Y71.263 E2.50979
G1 X74.118 Y70.943 E2.53376
G1 X74.600 Y70.648 E2.55772
G1 X75.097 Y70.378 E2.58169
G1 X75.611 Y70.133 E2.60579
G1 X76.130 Y69.918 E2.62962
G1 X76.672 Y69.726 E2.65397
G1 X77.706 Y69.446 E2.69939
G1 X78.311 Y69.334 E2.72547
G1 X78.871 Y69.260 E2.74943
G1 X79.435 Y69.216 E2.77340
G1 X79.997 Y69.201 E2.79722
G1 X80.565 Y69.216 E2.82132
G1 X81.129 Y69.260 E2.84530
G1 X81.692 Y69.334 E2.86939
G1 X82.245 Y69.437 E2.89322
G1 X82.795 Y69.569 E2.91719
G1 X83.337 Y69.729 E2.94115
G1 X83.872 Y69.919 E2.96522
G1 X84.392 Y70.135 E2.98908
G1 X84.903 Y70.378 E3.01305
G1 X85.400 Y70.648 E3.03701
G1 X85.882 Y70.943 E3.06098
G1 X86.348 Y71.263 E3.08494
G1 X86.796 Y71.607 E3.10891
G1 X87.226 Y71.975 E3.13287
G1 X87.636 Y72.364 E3.15684
G1 X88.025 Y72.774 E3.18080
G1 X88.393 Y73.204 E3.20477
G1 X88.737 Y73.652 E3.22873
G1 X89.056 Y74.116 E3.25259
G1 X89.353 Y74.602 E3.27676
G1 X89.622 Y75.097 E3.30063
G1 X89.867 Y75.610 E3.32470
G1 X90.082 Y76.130 E3.34856
G1 X90.271 Y76.663 E3.37252
G1 X90.431 Y77.205 E3.39648
G1 X90.563 Y77.755 E3.42045
G1 X90.666 Y78.311 E3.44441
G1 X90.740 Y78.871 E3.46838
G1 X90.784 Y79.435 E3.49234
G1 X90.799 Y80.000 E3.51631
G1 X90.784 Y80.565 E3.54027
G1 X90.740 Y81.129 E3.56424
G1 X90.666 Y81.689 E3.58820
G1 X90.563 Y82.245 E3.61217
G1 X90.431 Y82.795 E3.63613
G1 X90.271 Y83.337 E3.66010
G1 X90.082 Y83.870 E3.68406
G1 X89.866 Y84.391 E3.70795
G1 X89.621 Y84.904 E3.73207
G1 X89.352 Y85.400 E3.75596
G1 X89.056 Y85.883 E3.77998
G1 X88.737 Y86.348 E3.80389
G1 X88.393 Y86.796 E3.82785
G1 X88.025 Y87.226 E3.85182
G1 X87.672 Y87.598 E3.87356
G1 X87.409 Y87.409 F7800.000
G1 X87.011 Y87.787 E3.89681 F900.000
G1 X86.594 Y88.143 E3.92006
G1 X86.159 Y88.477 E3.94332
G1 X85.708 Y88.787 E3.96650
G1 X85.239 Y89.074 E3.98982
G1 X84.759 Y89.335 E4.01300
G1 X84.260 Y89.573 E4.03641
G1 X83.755 Y89.782 E4.05958
G1 X83.238 Y89.965 E4.08283
G1 X82.712 Y90.121 E4.10609
G1 X82.179 Y90.249 E4.12934
G1 X81.639 Y90.349 E4.15259
G1 X81.095 Y90.421 E4.17585
G1 X80.548 Y90.464 E4.19910
G1 X80.000 Y90.478 E4.22235
G1 X79.452 Y90.464 E4.24561
G1 X78.905 Y90.421 E4.26886
G1 X78.361 Y90.349 E4.29211
G1 X77.821 Y90.249 E4.31536
G1 X77.288 Y90.121 E4.33862
G1 X76.762 Y89.965 E4.36187
G1 X76.245 Y89.782 E4.38512
G1 X75.738 Y89.572 E4.40838
G1 X75.243 Y89.336 E4.43163
G1 X74.762 Y89.075 E4.45481
G1 X74.292 Y88.787 E4.47820
G1 X73.841 Y88.477 E4.50139
G1 X73.406 Y88.143 E4.52464
G1 X72.989 Y87.787 E4.54789
G1 X72.591 Y87.409 E4.57115
G1 X72.213 Y87.011 E4.59440
G1 X71.857 Y86.594 E4.61765
G1 X71.523 Y86.159 E4.64091
G1 X71.213 Y85.708 E4.66410
G1 X70.926 Y85.239 E4.68741
G1 X70.665 Y84.759 E4.71058
G1 X70.427 Y84.260 E4.73399
G1 X70.218 Y83.755 E4.75717
G1 X70.035 Y83.238 E4.78042
G1 X69.879 Y82.712 E4.80368
G1 X69.751 Y82.179 E4.82693
G1 X69.651 Y81.639 E4.85018
G1 X69.579 Y81.095 E4.87344
G1 X69.536 Y80.548 E4.89669
G1 X69.522 Y80.000 E4.91994
G1 X69.536 Y79.452 E4.94319
G1 X69.579 Y78.905 E4.96645
G1 X69.651 Y78.361 E4.98970
G1 X69.751 Y77.821 E5.01295
G1 X69.879 Y77.288 E5.03621
G1 X70.035 Y76.762 E5.05946
G1 X70.218 Y76.245 E5.08271
G1 X70.427 Y75.740 E5.10588
G1 X70.664 Y75.243 E5.12922
G1 X70.924 Y74.763 E5.15237
G1 X71.213 Y74.291 E5.17582
G1 X71.523 Y73.841 E5.19898
G1 X71.857 Y73.406 E5.22223
G1 X72.213 Y72.989 E5.24548
G1 X72.591 Y72.591 E5.26874
G1 X72.989 Y72.213 E5.29199
G1 X73.406 Y71.857 E5.31524
G1 X73.841 Y71.523 E5.33850
G1 X74.293 Y71.212 E5.36175
G1 X74.761 Y70.926 E5.38500
G1 X75.243 Y70.664 E5.40826
G1 X75.741 Y70.426 E5.43164
G1 X76.245 Y70.218 E5.45476
G1 X76.767 Y70.033 E5.47825
G1 X77.777 Y69.759 E5.52260
G1 X78.361 Y69.651 E5.54776
G1 X78.905 Y69.579 E5.57102
G1 X79.452 Y69.536 E5.59427
G1 X79.997 Y69.522 E5.61738
G1 X80.548 Y69.536 E5.64077
G1 X81.095 Y69.579 E5.66403
G1 X81.642 Y69.651 E5.68741
G1 X82.179 Y69.751 E5.71053
G1 X82.712 Y69.879 E5.73379
G1 X83.238 Y70.035 E5.75704
G1 X83.757 Y70.219 E5.78039
G1 X84.262 Y70.428 E5.80355
G1 X84.757 Y70.664 E5.82680
G1 X85.239 Y70.926 E5.85005
G1 X85.707 Y71.212 E5.87331
G1 X86.159 Y71.523 E5.89656
G1 X86.594 Y71.857 E5.91981
G1 X87.011 Y72.213 E5.94306
G1 X87.409 Y72.591 E5.96632
G1 X87.787 Y72.989 E5.98957
G1 X88.143 Y73.406 E6.01282
G1 X88.477 Y73.841 E6.03608
G1 X88.787 Y74.291 E6.05923
G1 X89.076 Y74.763 E6.08268
G1 X89.336 Y75.243 E6.10584
G1 X89.573 Y75.740 E6.12920
G1 X89.782 Y76.245 E6.15234
G1 X89.965 Y76.762 E6.17559
G1 X90.121 Y77.288 E6.19885
G1 X90.249 Y77.821 E6.22210
G1 X90.349 Y78.361 E6.24535
G1 X90.421 Y78.905 E6.26861
G1 X90.464 Y79.452 E6.29186
G1 X90.478 Y80.000 E6.31511
G1 X90.464 Y80.548 E6.33837
G1 X90.421 Y81.095 E6.36162
G1 X90.349 Y81.639 E6.38487
G1 X90.249 Y82.179 E6.40812
G1 X90.121 Y82.712 E6.43138
G1 X89.965 Y83.238 E6.45463
G1 X89.782 Y83.755 E6.47788
G1 X89.573 Y84.260 E6.50106
G1 X89.335 Y84.759 E6.52447
G1 X89.074 Y85.239 E6.54764
G1 X88.787 Y85.708 E6.57095
G1 X88.477 Y86.159 E6.59415
G1 X88.143 Y86.594 E6.61740
G1 X87.787 Y87.011 E6.64065
G1 X87.445 Y87.371 E6.66168
G1 X87.195 Y87.195 F7800.000
G1 X86.808 Y87.562 E6.68179 F540.000
G1 X86.403 Y87.908 E6.70190
G1 X85.981 Y88.232 E6.72201
G1 X85.543 Y88.533 E6.74206
G1 X85.088 Y88.812 E6.76223
G1 X84.621 Y89.065 E6.78228
G1 X84.137 Y89.296 E6.80252
G1 X83.646 Y89.499 E6.82256
G1 X83.144 Y89.677 E6.84267
G1 X82.634 Y89.828 E6.86278
G1 X82.116 Y89.953 E6.88289
G1 X81.592 Y90.050 E6.90300
G1 X81.064 Y90.119 E6.92311
G1 X80.533 Y90.161 E6.94322
G1 X80.000 Y90.175 E6.96333
G1 X79.467 Y90.161 E6.98344
G1 X78.936 Y90.119 E7.00355
G1 X78.408 Y90.050 E7.02366
G1 X77.884 Y89.953 E7.04377
G1 X77.366 Y89.828 E7.06388
G1 X76.856 Y89.677 E7.08399
G1 X76.354 Y89.499 E7.10410
G1 X75.861 Y89.295 E7.12421
G1 X75.381 Y89.066 E7.14432
G1 X74.914 Y88.813 E7.16437
G1 X74.457 Y88.533 E7.18459
G1 X74.019 Y88.232 E7.20465
G1 X73.597 Y87.908 E7.22476
G1 X73.192 Y87.562 E7.24487
G1 X72.805 Y87.195 E7.26498
G1 X72.438 Y86.808 E7.28509
G1 X72.092 Y86.403 E7.30519
G1 X71.768 Y85.981 E7.32530
G1 X71.467 Y85.543 E7.34536
G1 X71.188 Y85.088 E7.36552
G1 X70.935 Y84.621 E7.38556
G1 X70.704 Y84.137 E7.40581
G1 X70.501 Y83.646 E7.42585
G1 X70.323 Y83.144 E7.44596
G1 X70.172 Y82.633 E7.46607
G1 X70.047 Y82.116 E7.48618
G1 X69.950 Y81.592 E7.50629
G1 X69.881 Y81.064 E7.52640
G1 X69.839 Y80.533 E7.54651
G1 X69.825 Y80.000 E7.56662
G1 X69.839 Y79.467 E7.58673
G1 X69.881 Y78.936 E7.60684
G1 X69.950 Y78.408 E7.62695
G1 X70.047 Y77.884 E7.64706
G1 X70.172 Y77.367 E7.66717
G1 X70.323 Y76.856 E7.68728
G1 X70.501 Y76.354 E7.70739
G1 X70.704 Y75.863 E7.72743
G1 X70.934 Y75.381 E7.74761
G1 X71.187 Y74.915 E7.76763
G1 X71.468 Y74.456 E7.78791
G1 X71.768 Y74.019 E7.80794
G1 X72.092 Y73.597 E7.82805
G1 X72.438 Y73.192 E7.84816
G1 X72.805 Y72.805 E7.86827
G1 X73.192 Y72.438 E7.88838
G1 X73.597 Y72.092 E7.90849
G1 X74.019 Y71.768 E7.92860
G1 X74.458 Y71.466 E7.94871
G1 X74.912 Y71.188 E7.96882
G1 X75.381 Y70.934 E7.98893
G1 X75.864 Y70.703 E8.00915
G1 X76.354 Y70.501 E8.02915
G1 X76.858 Y70.322 E8.04933
G1 X77.844 Y70.055 E8.08793
G1 X78.408 Y69.950 E8.10958
G1 X78.936 Y69.881 E8.12969
G1 X79.467 Y69.839 E8.14980
G1 X79.997 Y69.825 E8.16978
G1 X80.532 Y69.839 E8.19001
G1 X81.064 Y69.881 E8.21013
G1 X81.595 Y69.951 E8.23035
G1 X82.116 Y70.047 E8.25034
G1 X82.633 Y70.172 E8.27045
G1 X83.144 Y70.323 E8.29057
G1 X83.649 Y70.502 E8.31076
G1 X84.139 Y70.705 E8.33078
G1 X84.619 Y70.934 E8.35089
G1 X85.088 Y71.188 E8.37100
G1 X85.542 Y71.466 E8.39111
G1 X85.981 Y71.768 E8.41122
G1 X86.403 Y72.092 E8.43133
G1 X86.808 Y72.438 E8.45144
G1 X87.195 Y72.805 E8.47155
G1 X87.562 Y73.192 E8.49166
G1 X87.908 Y73.597 E8.51177
G1 X88.232 Y74.019 E8.53188
G1 X88.532 Y74.456 E8.55190
G1 X88.813 Y74.915 E8.57219
G1 X89.066 Y75.381 E8.59221
G1 X89.296 Y75.864 E8.61242
G1 X89.499 Y76.354 E8.63243
G1 X89.677 Y76.856 E8.65254
G1 X89.828 Y77.367 E8.67265
G1 X89.953 Y77.884 E8.69276
G1 X90.050 Y78.408 E8.71287
G1 X90.119 Y78.936 E8.73298
G1 X90.161 Y79.467 E8.75309
G1 X90.175 Y80.000 E8.77320
G1 X90.161 Y80.533 E8.79331
G1 X90.119 Y81.064 E8.81342
G1 X90.050 Y81.592 E8.83353
G1 X89.953 Y82.116 E8.85364
G1 X89.828 Y82.634 E8.87375
G1 X89.677 Y83.144 E8.89386
G1 X89.499 Y83.646 E8.91397
G1 X89.296 Y84.137 E8.93401
G1 X89.065 Y84.621 E8.95426
G1 X88.812 Y85.088 E8.97430
G1 X88.533 Y85.543 E8.99446
G1 X88.232 Y85.981 E9.01452
G1 X87.908 Y86.403 E9.03463
G1 X87.562 Y86.808 E9.05474
G1 X87.231 Y87.157 E9.07286
G1 X87.282 Y87.534 F7800.000
G1 X87.920 Y87.920 F7800.000
G1 X87.492 Y88.326 E9.09787 F900.000
G1 X87.049 Y88.705 E9.12259
G1 X86.584 Y89.062 E9.14745
G1 X86.100 Y89.394 E9.17230
G1 X85.600 Y89.700 E9.19716
G1 X85.085 Y89.980 E9.22202
G1 X84.556 Y90.232 E9.24687
G1 X84.014 Y90.457 E9.27173
G1 X83.461 Y90.653 E9.29659
G1 X82.899 Y90.819 E9.32144
G1 X82.329 Y90.956 E9.34630
G1 X81.752 Y91.063 E9.37116
G1 X81.171 Y91.139 E9.39601
G1 X80.586 Y91.186 E9.42087
G1 X80.000 Y91.201 E9.44572
G1 X79.414 Y91.186 E9.47058
G1 X78.829 Y91.139 E9.49544
G1 X78.248 Y91.063 E9.52029
G1 X77.671 Y90.956 E9.54515
G1 X77.101 Y90.819 E9.57001
G1 X76.539 Y90.653 E9.59486
G1 X75.986 Y90.457 E9.61972
G1 X75.444 Y90.232 E9.64458
G1 X74.915 Y89.980 E9.66943
G1 X74.400 Y89.700 E9.69428
G1 X73.896 Y89.391 E9.71933
G1 X73.416 Y89.062 E9.74400
G1 X72.951 Y88.705 E9.76886
G1 X72.505 Y88.324 E9.79371
G1 X72.080 Y87.920 E9.81857
G1 X71.676 Y87.495 E9.84343
G1 X71.295 Y87.049 E9.86828
G1 X70.938 Y86.584 E9.89314
G1 X70.606 Y86.100 E9.91800
G1 X70.300 Y85.600 E9.94285
G1 X70.020 Y85.085 E9.96770
G1 X69.766 Y84.552 E9.99275
G1 X69.543 Y84.014 E10.01742
G1 X69.347 Y83.461 E10.04228
G1 X69.181 Y82.899 E10.06713
G1 X69.044 Y82.329 E10.09199
G1 X68.937 Y81.752 E10.11685
G1 X68.861 Y81.171 E10.14170
G1 X68.814 Y80.586 E10.16656
G1 X68.799 Y80.000 E10.19142
G1 X68.814 Y79.414 E10.21627
G1 X68.861 Y78.829 E10.24113
G1 X68.937 Y78.248 E10.26599
G1 X69.044 Y77.671 E10.29084
G1 X69.181 Y77.101 E10.31570
G1 X69.347 Y76.539 E10.34056
G1 X69.543 Y75.986 E10.36541
G1 X69.767 Y75.444 E10.39027
G1 X70.020 Y74.915 E10.41512
G1 X70.300 Y74.400 E10.43998
G1 X70.609 Y73.896 E10.46502
G1 X70.938 Y73.416 E10.48969
G1 X71.295 Y72.951 E10.51455
G1 X71.676 Y72.505 E10.53941
G1 X72.080 Y72.080 E10.56426
G1 X72.505 Y71.676 E10.58912
G1 X72.951 Y71.295 E10.61398
