; generated by Slic3r 1.1.7 on 2016-10-11 at 16:08:04

; perimeters extrusion width = 0.40mm
; infill extrusion width = 0.42mm
; solid infill extrusion width = 0.42mm
; top infill extrusion width = 0.42mm

G21 ; set units to millimeters
M107
M190 S60 ; wait for bed temperature to be reached
M104 S185 ; set temperature
G28 ; home all axes
G1 Z5 F5000 ; lift nozzle
M109 S185 ; wait for temperature to be reached
G90 ; use absolute coordinates
G92 E0
M82 ; use absolute distances for extrusion
G1 F1800.000 E-1.00000
G92 E0
G1 Z0.400 F9000.000
G1 X36.167 Y70.770 F9000.000
G1 E1.00000 F1800.000
G1 X63.275 Y55.499 E4.61210 F960.000
G1 X108.943 Y41.939 E10.14276
G1 X110.000 Y41.786 E10.26678
G1 X112.000 Y41.786 E10.49897
G1 X113.666 Y42.180 E10.69774
G1 X114.978 Y43.280 E10.89651
G1 X115.714 Y45.500 E11.16800
G1 X115.714 Y114.500 E19.17865
G1 X115.320 Y116.166 E19.37742
G1 X114.220 Y117.478 E19.57619
G1 X112.000 Y118.214 E19.84767
G1 X110.000 Y118.214 E20.07986
G1 X108.696 Y117.978 E20.23374
G1 X36.696 Y90.978 E29.16109
G1 X35.274 Y90.023 E29.35986
G1 X34.432 Y88.533 E29.55863
G1 X34.286 Y87.500 E29.67970
G1 X34.286 Y73.999 E31.24711
G1 X34.681 Y72.333 E31.44588
G1 X36.126 Y70.813 E31.68937
G1 F1800.000 E30.68937
G92 E0
G1 X33.368 Y67.464 F9000.000
G1 E1.00000 F1800.000
G1 X33.890 Y67.085 E1.07479 F960.000
G1 X61.266 Y51.663 E4.72274
G1 X61.916 Y51.388 E4.80464
G1 X107.930 Y37.731 E10.37704
G1 X108.236 Y37.669 E10.41329
G1 X109.462 Y37.491 E10.55713
G1 X109.773 Y37.463 E10.59339
G1 X112.137 Y37.458 E10.86788
G1 X112.366 Y37.471 E10.89440
G1 X112.864 Y37.543 E10.95283
G1 X114.289 Y37.880 E11.12288
G1 X114.403 Y37.889 E11.13619
G1 X115.200 Y37.819 E11.22901
G1 X115.595 Y38.150 E11.28894
G1 X115.744 Y38.225 E11.30831
G1 X116.247 Y38.344 E11.36823
G1 X116.667 Y39.025 E11.46105
G1 X116.741 Y39.111 E11.47436
G1 X118.010 Y40.174 E11.66647
G1 X118.374 Y40.578 E11.72959
G1 X118.742 Y41.120 E11.80564
G1 X118.983 Y41.607 E11.86876
G1 X119.882 Y44.317 E12.20026
G1 X119.956 Y44.623 E12.23678
G1 X120.017 Y44.997 E12.28076
G1 X120.042 Y45.311 E12.31729
G1 X120.042 Y114.638 E20.36590
G1 X120.029 Y114.866 E20.39243
G1 X119.957 Y115.364 E20.45085
G1 X119.467 Y117.431 E20.69755
G1 X119.311 Y117.861 E20.75063
G1 X119.064 Y118.353 E20.81457
G1 X118.813 Y118.736 E20.86766
G1 X117.326 Y120.510 E21.13642
G1 X116.922 Y120.874 E21.19955
G1 X116.380 Y121.242 E21.27559
G1 X115.893 Y121.483 E21.33871
G1 X113.183 Y122.382 E21.67021
G1 X112.877 Y122.456 E21.70674
G1 X112.503 Y122.517 E21.75072
G1 X112.189 Y122.542 E21.78725
G1 X109.718 Y122.534 E22.07418
G1 X109.332 Y122.491 E22.11924
G1 X107.819 Y122.217 E22.29773
G1 X107.443 Y122.122 E22.34280
G1 X35.047 Y94.982 E31.31886
G1 X34.839 Y94.889 E31.34538
G1 X34.397 Y94.647 E31.40381
G1 X32.633 Y93.463 E31.65051
G1 X32.286 Y93.165 E31.70360
G1 X31.912 Y92.761 E31.76753
G1 X31.642 Y92.392 E31.82062
G1 X30.556 Y90.469 E32.07701
G1 X30.406 Y90.134 E32.11962
G1 X30.263 Y89.716 E32.17091
G1 X30.178 Y89.359 E32.21352
G1 X29.989 Y88.025 E32.36989
G1 X29.963 Y87.722 E32.40528
G1 X29.958 Y73.861 E34.01449
G1 X30.003 Y73.359 E34.07292
G1 X30.542 Y71.031 E34.35039
G1 X30.727 Y70.547 E34.41059
G1 X31.024 Y69.997 E34.48309
G1 X31.329 Y69.578 E34.54329
G1 X33.152 Y67.660 E34.85044
G1 X33.324 Y67.504 E34.87743
G1 X33.828 Y68.011 F9000.000
G1 X34.263 Y67.694 E34.93989 F960.000
G1 X61.599 Y52.295 E38.58242
G1 X62.138 Y52.067 E38.65037
G1 X108.096 Y38.426 E44.21596
G1 X109.552 Y38.199 E44.38704
G1 X109.812 Y38.176 E44.41732
G1 X112.303 Y38.183 E44.70658
G1 X112.719 Y38.243 E44.75536
G1 X114.237 Y38.602 E44.93640
G1 X114.351 Y38.610 E44.94970
G1 X114.968 Y38.556 E45.02158
G1 X115.266 Y38.806 E45.06679
G1 X115.415 Y38.881 E45.08616
G1 X115.794 Y38.971 E45.13138
G1 X116.119 Y39.498 E45.20325
G1 X116.194 Y39.584 E45.21656
G1 X117.513 Y40.690 E45.41632
G1 X117.811 Y41.020 E45.46797
G1 X118.124 Y41.480 E45.53253
G1 X118.320 Y41.879 E45.58418
G1 X119.195 Y44.515 E45.90662
G1 X119.307 Y45.083 E45.97379
G1 X119.328 Y45.339 E46.00368
G1 X119.328 Y114.617 E54.04655
G1 X119.257 Y115.219 E54.11698
G1 X118.782 Y117.226 E54.35645
G1 X118.654 Y117.578 E54.39988
G1 X118.444 Y117.996 E54.45417
G1 X118.239 Y118.309 E54.49760
G1 X116.810 Y120.013 E54.75580
G1 X116.480 Y120.311 E54.80745
G1 X116.020 Y120.624 E54.87201
G1 X115.621 Y120.820 E54.92366
G1 X112.985 Y121.695 E55.24610
G1 X112.417 Y121.807 E55.31327
G1 X112.161 Y121.828 E55.34315
G1 X109.766 Y121.821 E55.62119
G1 X109.444 Y121.786 E55.65882
G1 X107.963 Y121.517 E55.83359
G1 X107.648 Y121.437 E55.87122
G1 X35.318 Y94.320 E64.83930
G1 X34.778 Y94.043 E64.90973
G1 X33.066 Y92.893 E65.14919
G1 X32.782 Y92.650 E65.19263
G1 X32.464 Y92.307 E65.24691
G1 X32.243 Y92.004 E65.29035
G1 X31.194 Y90.147 E65.53804
G1 X31.071 Y89.873 E65.57290
G1 X30.950 Y89.518 E65.61645
G1 X30.881 Y89.226 E65.65131
G1 X30.676 Y87.684 E65.83186
G1 X30.672 Y73.882 E67.43426
G1 X30.710 Y73.463 E67.48305
G1 X31.226 Y71.242 E67.74782
G1 X31.377 Y70.845 E67.79707
G1 X31.630 Y70.379 E67.85864
G1 X31.879 Y70.036 E67.90789
G1 X33.784 Y68.051 E68.22724
G1 X34.288 Y68.558 F9000.000
G1 X34.637 Y68.304 E68.27736 F960.000
G1 X61.932 Y52.927 E71.91448
G1 X62.361 Y52.746 E71.96849
G1 X108.262 Y39.120 E77.52727
G1 X109.850 Y38.890 E77.71362
G1 X112.241 Y38.895 E77.99118
G1 X112.575 Y38.942 E78.03032
G1 X114.184 Y39.323 E78.22234
G1 X114.299 Y39.332 E78.23564
G1 X114.736 Y39.293 E78.28656
G1 X114.937 Y39.462 E78.31707
G1 X115.086 Y39.537 E78.33645
G1 X115.342 Y39.598 E78.36696
G1 X115.572 Y39.971 E78.41788
G1 X115.647 Y40.058 E78.43118
G1 X117.016 Y41.205 E78.63860
G1 X117.248 Y41.462 E78.67877
G1 X117.505 Y41.840 E78.73186
G1 X117.658 Y42.151 E78.77203
G1 X118.508 Y44.713 E79.08540
G1 X118.556 Y44.907 E79.10865
G1 X118.614 Y45.368 E79.16255
G1 X118.614 Y114.596 E87.19969
G1 X118.558 Y115.075 E87.25567
G1 X118.097 Y117.021 E87.48790
G1 X117.997 Y117.295 E87.52168
G1 X117.825 Y117.638 E87.56632
G1 X117.665 Y117.882 E87.60010
G1 X116.295 Y119.516 E87.84773
G1 X116.038 Y119.748 E87.88790
G1 X115.660 Y120.005 E87.94099
G1 X115.349 Y120.158 E87.98116
G1 X112.787 Y121.008 E88.29454
G1 X112.332 Y121.098 E88.34844
G1 X112.132 Y121.114 E88.37168
G1 X109.814 Y121.109 E88.64082
G1 X109.555 Y121.080 E88.67101
G1 X108.106 Y120.817 E88.84207
G1 X107.854 Y120.753 E88.87226
G1 X35.588 Y93.659 E97.83235
G1 X35.159 Y93.438 E97.88833
G1 X33.498 Y92.323 E98.12056
G1 X33.277 Y92.134 E98.15434
G1 X33.016 Y91.852 E98.19898
G1 X32.845 Y91.617 E98.23276
G1 X31.832 Y89.825 E98.47175
G1 X31.737 Y89.612 E98.49886
G1 X31.583 Y89.092 E98.56171
G1 X31.389 Y87.646 E98.73110
G1 X31.386 Y73.903 E100.32670
G1 X31.417 Y73.567 E100.36584
G1 X31.910 Y71.452 E100.61792
G1 X32.027 Y71.144 E100.65622
G1 X32.235 Y70.761 E100.70684
G1 X32.429 Y70.494 E100.74515
G1 X34.244 Y68.598 E101.04979
G1 X34.748 Y69.105 F9000.000
G1 X35.011 Y68.913 E101.08756 F960.000
G1 X62.265 Y53.559 E104.71927
G1 X62.489 Y53.459 E104.74773
G1 X108.428 Y39.815 E110.31131
G1 X109.889 Y39.603 E110.48273
G1 X112.179 Y39.606 E110.74857
G1 X112.431 Y39.642 E110.77808
G1 X114.132 Y40.045 E110.98107
G1 X114.246 Y40.053 E110.99437
G1 X114.503 Y40.031 E111.02434
G1 X114.608 Y40.118 E111.04015
G1 X114.757 Y40.193 E111.05952
G1 X114.889 Y40.224 E111.07533
G1 X115.025 Y40.444 E111.10530
G1 X115.100 Y40.531 E111.11860
G1 X116.519 Y41.721 E111.33367
G1 X116.685 Y41.904 E111.36236
G1 X116.887 Y42.201 E111.40397
G1 X116.996 Y42.422 E111.43267
G1 X117.821 Y44.910 E111.73698
G1 X117.900 Y45.396 E111.79414
G1 X117.900 Y114.575 E119.82555
G1 X117.858 Y114.931 E119.86708
G1 X117.411 Y116.816 E120.09207
G1 X117.340 Y117.012 E120.11620
G1 X117.205 Y117.281 E120.15118
G1 X117.091 Y117.455 E120.17531
G1 X115.779 Y119.019 E120.41238
G1 X115.596 Y119.185 E120.44107
G1 X115.299 Y119.387 E120.48268
G1 X115.078 Y119.496 E120.51138
G1 X112.590 Y120.321 E120.81570
G1 X112.246 Y120.388 E120.85632
G1 X109.862 Y120.396 E121.13312
G1 X108.249 Y120.118 E121.32316
G1 X107.983 Y120.044 E121.35520
G1 X35.858 Y92.998 E130.29802
G1 X35.540 Y92.834 E130.33955
G1 X33.931 Y91.754 E130.56454
G1 X33.773 Y91.618 E130.58867
G1 X33.568 Y91.397 E130.62365
G1 X33.446 Y91.229 E130.64778
G1 X32.470 Y89.502 E130.87807
G1 X32.402 Y89.350 E130.89744
G1 X32.285 Y88.959 E130.94481
G1 X32.103 Y87.609 E131.10304
G1 X32.100 Y73.923 E132.69182
G1 X32.124 Y73.670 E132.72133
G1 X32.594 Y71.663 E132.96071
G1 X32.678 Y71.443 E132.98807
G1 X32.841 Y71.142 E133.02774
G1 X32.979 Y70.951 E133.05510
G1 X34.704 Y69.145 E133.34502
G1 X35.208 Y69.652 F9000.000
G1 X35.384 Y69.522 E133.37046 F960.000
G1 X62.599 Y54.192 E136.99675
G1 X62.749 Y54.124 E137.01592
G1 X108.594 Y40.510 E142.56804
G1 X109.928 Y40.316 E142.72451
G1 X112.117 Y40.318 E142.97865
G1 X112.286 Y40.342 E142.99851
G1 X114.080 Y40.766 E143.21248
G1 X114.271 Y40.768 E143.23474
G1 X114.437 Y40.851 E143.25626
G1 X114.553 Y41.004 E143.27851
G1 X116.023 Y42.236 E143.50123
G1 X116.122 Y42.346 E143.51844
G1 X116.268 Y42.561 E143.54858
G1 X116.334 Y42.694 E143.56579
G1 X117.134 Y45.108 E143.86105
G1 X117.185 Y45.425 E143.89833
G1 X117.185 Y114.554 E151.92400
G1 X117.158 Y114.786 E151.95108
G1 X116.726 Y116.611 E152.16884
G1 X116.683 Y116.728 E152.18332
G1 X116.517 Y117.028 E152.22306
G1 X115.264 Y118.523 E152.44956
G1 X115.154 Y118.622 E152.46678
G1 X114.939 Y118.768 E152.49691
G1 X114.806 Y118.834 E152.51413
G1 X112.392 Y119.634 E152.80939
G1 X112.161 Y119.679 E152.83674
G1 X109.910 Y119.683 E153.09802
G1 X108.392 Y119.418 E153.27692
G1 X108.219 Y119.370 E153.29781
G1 X36.128 Y92.336 E162.23636
G1 X35.921 Y92.229 E162.26344
G1 X34.364 Y91.184 E162.48119
G1 X34.121 Y90.943 E162.52094
G1 X34.047 Y90.842 E162.53542
G1 X33.067 Y89.089 E162.76858
G1 X32.988 Y88.826 E162.80048
G1 X32.815 Y87.533 E162.95190
G1 X32.815 Y73.944 E164.52950
G1 X32.831 Y73.774 E164.54936
G1 X33.278 Y71.873 E164.77604
G1 X33.446 Y71.524 E164.82110
G1 X33.529 Y71.409 E164.83751
G1 X35.163 Y69.692 E165.11272
G1 X35.668 Y70.199 F9000.000
G1 X35.758 Y70.131 E165.12581 F960.000
G1 X63.009 Y54.789 E168.75651
G1 X108.747 Y41.208 E174.29568
G1 X109.966 Y41.029 E174.43870
G1 X112.034 Y41.029 E174.67872
G1 X114.015 Y41.485 E174.91477
G1 X115.526 Y42.752 E175.14369
G1 X115.649 Y42.922 E175.16804
G1 X116.447 Y45.306 E175.45992
G1 X116.471 Y45.454 E175.47732
G1 X116.471 Y114.534 E183.49726
G1 X116.026 Y116.445 E183.72512
G1 X115.943 Y116.601 E183.74560
G1 X114.748 Y118.026 E183.96153
G1 X114.534 Y118.171 E183.99156
G1 X112.194 Y118.947 E184.27776
G1 X112.075 Y118.969 E184.29184
G1 X109.958 Y118.971 E184.53760
G1 X108.454 Y118.696 E184.71507
G1 X36.399 Y91.675 E193.64934
G1 X36.302 Y91.625 E193.66197
G1 X34.796 Y90.614 E193.87249
G1 X34.649 Y90.454 E193.89775
G1 X33.733 Y88.827 E194.11450
G1 X33.690 Y88.692 E194.13093
G1 X33.529 Y87.520 E194.26828
G1 X33.538 Y73.878 E195.85216
G1 X33.962 Y72.084 E196.06614
G1 X34.052 Y71.905 E196.08936
G1 X35.625 Y70.241 E196.35526
G1 X36.601 Y71.413 F9000.000
G1 X36.685 Y71.347 E196.36763 F960.000
G1 X63.611 Y56.189 E199.95496
G1 X109.081 Y42.688 E205.46167
G1 X110.081 Y42.543 E205.57893
G1 X111.870 Y42.543 E205.78664
G1 X113.234 Y42.856 E205.94911
G1 X113.383 Y42.931 E205.96848
G1 X114.248 Y43.656 E206.09955
G1 X114.360 Y43.821 E206.12262
G1 X114.939 Y45.567 E206.33625
G1 X114.957 Y45.680 E206.34955
G1 X114.957 Y114.370 E214.32414
G1 X114.644 Y115.734 E214.48660
G1 X114.569 Y115.883 E214.50597
G1 X113.844 Y116.748 E214.63705
G1 X113.679 Y116.860 E214.66012
G1 X111.933 Y117.439 E214.87375
G1 X111.820 Y117.457 E214.88705
G1 X110.100 Y117.457 E215.08667
G1 X108.868 Y117.234 E215.23209
G1 X37.010 Y90.277 E224.14226
G1 X35.917 Y89.542 E224.29513
G1 X35.803 Y89.420 E224.31450
G1 X35.195 Y88.344 E224.45799
G1 X35.152 Y88.217 E224.47352
G1 X35.043 Y87.421 E224.56678
G1 X35.043 Y74.130 E226.10992
G1 X35.348 Y72.802 E226.26804
G1 X35.438 Y72.636 E226.29002
G1 X36.559 Y71.456 E226.47897
G1 F1800.000 E225.47897
G92 E0
G1 X109.643 Y50.754 F9000.000
G1 E1.00000 F1800.000
G1 X109.643 Y45.352 E1.62720 F960.000
G1 X109.852 Y45.143 E1.66154
G1 X112.148 Y45.143 E1.92808
G1 X112.357 Y45.352 E1.96242
G1 X112.357 Y50.754 E2.58962
G1 X112.148 Y50.964 E2.62396
G1 X109.852 Y50.964 E2.89049
G1 X109.685 Y50.797 E2.91787
G1 F1800.000 E1.91787
G92 E0
G1 X113.361 Y50.760 F9000.000
G1 E1.00000 F1800.000
G1 X114.243 Y51.126 E1.11080 F960.000
G1 X114.243 Y106.874 E7.58304
G1 X113.361 Y107.240 E7.69384
G1 X112.444 Y106.322 E7.84448
G1 X111.490 Y106.322 E7.95525
G1 X111.071 Y105.904 E8.02394
G1 X111.071 Y105.556 E8.06429
G1 X110.444 Y104.929 E8.16732
G1 X103.490 Y104.929 E8.97467
G1 X103.071 Y104.510 E9.04336
G1 X103.071 Y88.990 E10.84527
G1 X103.490 Y88.571 E10.91395
G1 X110.444 Y88.571 E11.72131
G1 X111.071 Y87.944 E11.82435
G1 X111.071 Y85.056 E12.15955
G1 X110.444 Y84.429 E12.26259
G1 X41.490 Y84.429 E20.26792
G1 X41.071 Y84.010 E20.33660
G1 X41.071 Y73.556 E21.55027
G1 X40.444 Y72.929 E21.65331
G1 X37.504 Y72.929 E21.99466
G1 X37.224 Y71.863 E22.12259
G1 X62.553 Y57.594 E25.49770
G1 X63.261 Y58.008 E25.59285
G1 X63.261 Y65.503 E26.46306
G1 X63.888 Y66.131 E26.56609
G1 X89.343 Y66.131 E29.52122
G1 X89.761 Y66.549 E29.58991
G1 X89.761 Y77.503 E30.86164
G1 X90.388 Y78.131 E30.96467
G1 X93.276 Y78.131 E31.29989
G1 X93.903 Y77.503 E31.40292
G1 X93.903 Y62.616 E33.13130
G1 X93.276 Y61.988 E33.23433
G1 X67.456 Y61.988 E36.23188
G1 X67.090 Y61.735 E36.28359
G1 X65.816 Y58.368 E36.70155
G1 X65.266 Y57.988 E36.77911
G1 X64.356 Y57.988 E36.88473
G1 X64.179 Y56.766 E37.02820
G1 X109.006 Y43.455 E42.45710
G1 X109.575 Y44.410 E42.58611
G1 X108.929 Y45.056 E42.69219
G1 X108.929 Y51.050 E43.38807
G1 X109.556 Y51.678 E43.49110
G1 X112.444 Y51.678 E43.82632
G1 X113.319 Y50.803 E43.96999
G1 F1800.000 E42.96999
G92 E0
G1 X66.333 Y56.871 F9000.000
G1 E1.00000 F1800.000
G1 X107.641 Y44.606 E6.00263 F960.000
G1 X108.215 Y45.034 E6.08579
G1 X108.215 Y51.346 E6.81857
G1 X109.260 Y52.392 E6.99029
G1 X113.110 Y52.392 E7.43725
G1 X113.529 Y52.810 E7.50594
G1 X113.529 Y105.190 E13.58700
G1 X113.110 Y105.608 E13.65568
G1 X112.287 Y105.608 E13.75131
G1 X112.024 Y105.499 E13.78429
G1 X110.740 Y104.215 E13.99522
G1 X104.204 Y104.215 E14.75401
G1 X103.785 Y103.796 E14.82269
G1 X103.785 Y89.704 E16.45878
G1 X104.204 Y89.285 E16.52747
G1 X110.740 Y89.285 E17.28626
G1 X111.785 Y88.239 E17.45798
G1 X111.785 Y84.761 E17.86186
G1 X110.740 Y83.715 E18.03359
G1 X42.204 Y83.715 E25.99035
G1 X41.785 Y83.296 E26.05904
G1 X41.786 Y73.261 E27.22413
G1 X40.740 Y72.215 E27.39587
G1 X40.226 Y72.215 E27.45545
G1 X39.947 Y71.149 E27.58338
G1 X61.839 Y58.816 E30.50051
G1 X62.547 Y59.230 E30.59566
G1 X62.547 Y65.799 E31.35835
G1 X63.593 Y66.845 E31.53006
G1 X88.628 Y66.845 E34.43663
G1 X89.047 Y67.263 E34.50531
G1 X89.047 Y77.799 E35.72848
G1 X90.093 Y78.845 E35.90019
G1 X93.572 Y78.845 E36.30410
G1 X94.617 Y77.799 E36.47582
G1 X94.617 Y62.320 E38.27288
G1 X93.572 Y61.274 E38.44460
G1 X67.950 Y61.274 E41.41922
G1 X67.583 Y61.021 E41.47092
G1 X66.405 Y57.907 E41.85746
G1 X66.191 Y57.759 E41.88763
G1 X66.323 Y56.930 E41.98512
G1 F1800.000 E40.98512
G92 E0
G1 X111.933 Y83.898 F9000.000
G1 E1.00000 F1800.000
G1 X111.035 Y83.000 E1.14735 F960.000
G1 X42.918 Y83.000 E9.05555
G1 X42.500 Y82.582 E9.12423
G1 X42.500 Y72.965 E10.24074
G1 X41.357 Y71.822 E10.42837
G1 X41.453 Y71.120 E10.51068
G1 X61.125 Y60.038 E13.13190
G1 X61.833 Y60.452 E13.22706
G1 X61.833 Y66.095 E13.88221
G1 X63.297 Y67.559 E14.12262
G1 X87.914 Y67.559 E16.98061
G1 X88.333 Y67.978 E17.04930
G1 X88.333 Y78.095 E18.22390
G1 X89.797 Y79.559 E18.46430
G1 X93.867 Y79.559 E18.93689
G1 X95.332 Y78.095 E19.17729
G1 X95.332 Y62.024 E21.04304
G1 X93.867 Y60.560 E21.28344
G1 X68.443 Y60.560 E24.23513
G1 X68.077 Y60.307 E24.28684
G1 X67.147 Y57.850 E24.59185
G1 X67.423 Y57.292 E24.66411
G1 X106.926 Y45.563 E29.44817
G1 X107.500 Y45.991 E29.53133
G1 X107.500 Y51.642 E30.18735
G1 X108.965 Y53.106 E30.42776
G1 X112.396 Y53.106 E30.82615
G1 X112.815 Y53.524 E30.89484
G1 X112.815 Y83.533 E34.37869
G1 X111.988 Y83.875 E34.48252
G1 F1800.000 E33.48252
G92 E0
G1 X68.936 Y59.846 F9000.000
G1 E1.00000 F1800.000
