; generated by Slic3r 1.2.9 on 2019-05-25 at 19:58:34

; external perimeters extrusion width = 0.35mm
; perimeters extrusion width = 0.37mm
; infill extrusion width = 0.37mm
; solid infill extrusion width = 0.37mm
; top infill extrusion width = 0.37mm

M107
M190 S90 ; set bed temperature
M104 S230 ; set temperature
G28 ; home all axes
G1 Z5 F5000 ; lift nozzle
M109 S230 ; wait for temperature to be reached
G21 ; set units to millimeters
G90 ; use absolute coordinates
M82 ; use absolute distances for extrusion
G92 E0
G1 E-1.00000 F1800.00000
G92 E0
G1 Z0.350 F7800.000
G1 X53.356 Y43.465 F7800.000
G1 E1.00000 F1800.00000
G1 X64.912 Y31.909 E1.86915 F1080.000
G1 X66.304 Y31.074 E1.95549
G1 X67.277 Y30.929 E2.00780
G1 X96.277 Y30.929 E3.55007
G1 X96.583 Y30.943 E3.56633
G1 X107.583 Y31.952 E4.15378
G1 X109.115 Y32.488 E4.24012
G1 X110.215 Y33.683 E4.32647
G1 X110.529 Y34.499 E4.37295
G1 X125.374 Y96.042 E7.73977
G1 X125.468 Y96.826 E7.78178
G1 X125.468 Y114.726 E8.73373
G1 X125.074 Y116.301 E8.82007
G1 X123.877 Y117.574 E8.91299
G1 X106.017 Y128.574 E10.02851
G1 X104.263 Y129.071 E10.12547
G1 X87.263 Y129.071 E11.02955
G1 X85.688 Y128.677 E11.11590
G1 X84.920 Y128.114 E11.16652
G1 X35.535 Y79.662 E14.84586
G1 X34.686 Y78.277 E14.93221
G1 X34.532 Y77.274 E14.98619
G1 X34.532 Y75.274 E15.09255
G1 X35.017 Y73.540 E15.18828
G1 X52.860 Y44.097 E17.01924
G1 X53.323 Y43.507 E17.05914
G1 X53.820 Y44.561 F7800.000
G1 X66.007 Y32.374 E17.97572 F1080.000
G1 X66.831 Y32.032 E18.02315
G1 X96.723 Y32.032 E19.61284
G1 X97.547 Y32.374 E19.66027
G1 X98.162 Y32.989 E19.70653
G1 X98.289 Y33.041 E19.71383
G1 X108.206 Y33.041 E20.24122
G1 X109.519 Y34.354 E20.33998
G1 X109.519 Y45.132 E20.91313
G1 X108.206 Y46.445 E21.01189
G1 X82.951 Y46.445 E22.35498
G1 X82.824 Y46.497 E22.36227
G1 X77.171 Y52.150 E22.78742
G1 X77.119 Y52.277 E22.79472
G1 X77.119 Y78.203 E24.17349
G1 X75.806 Y79.516 E24.27226
G1 X36.949 Y79.516 E26.33873
G1 X35.635 Y78.203 E26.43750
G1 X35.635 Y74.345 E26.64263
G1 X36.949 Y73.032 E26.74140
G1 X53.277 Y73.032 E27.60976
G1 X53.479 Y72.830 E27.62496
G1 X53.479 Y45.384 E29.08456
G1 X53.800 Y44.609 E29.12920
G1 X54.113 Y44.756 F7800.000
G1 X66.203 Y32.666 E30.03848 F1080.000
G1 X66.900 Y32.377 E30.07862
G1 X96.655 Y32.377 E31.66101
G1 X97.352 Y32.666 E31.70114
G1 X98.019 Y33.334 E31.75136
G1 X98.146 Y33.386 E31.75865
G1 X108.063 Y33.386 E32.28605
G1 X109.174 Y34.497 E32.36962
G1 X109.174 Y44.989 E32.92757
G1 X108.063 Y46.100 E33.01114
G1 X82.808 Y46.100 E34.35422
G1 X82.681 Y46.152 E34.36152
G1 X76.827 Y52.007 E34.80186
G1 X76.774 Y52.134 E34.80916
G1 X76.774 Y78.060 E36.18793
G1 X75.663 Y79.171 E36.27150
G1 X37.091 Y79.171 E38.32278
G1 X35.980 Y78.060 E38.40635
G1 X35.980 Y74.488 E38.59629
G1 X37.091 Y73.377 E38.67986
G1 X53.622 Y73.377 E39.55897
G1 X53.824 Y73.175 E39.57417
G1 X53.824 Y45.453 E41.04847
G1 X54.093 Y44.804 E41.08581
G1 X54.405 Y44.951 F7800.000
G1 X66.398 Y32.958 E41.98779 F1080.000
G1 X66.968 Y32.722 E42.02063
G1 X96.586 Y32.722 E43.59573
G1 X97.156 Y32.958 E43.62856
G1 X97.876 Y33.678 E43.68272
G1 X98.003 Y33.731 E43.69002
G1 X107.920 Y33.731 E44.21741
G1 X108.829 Y34.640 E44.28579
G1 X108.829 Y44.846 E44.82854
G1 X107.920 Y45.755 E44.89692
G1 X82.665 Y45.755 E46.24000
G1 X82.539 Y45.807 E46.24730
G1 X76.482 Y51.864 E46.70284
G1 X76.429 Y51.991 E46.71014
G1 X76.429 Y77.917 E48.08890
G1 X75.520 Y78.826 E48.15728
G1 X37.234 Y78.826 E50.19337
G1 X36.325 Y77.917 E50.26175
G1 X36.325 Y74.631 E50.43649
G1 X37.234 Y73.722 E50.50486
G1 X53.967 Y73.722 E51.39472
G1 X54.169 Y73.520 E51.40991
G1 X54.169 Y45.522 E52.89891
G1 X54.385 Y45.000 E52.92895
G1 X54.698 Y45.147 F7800.000
G1 X66.593 Y33.251 E53.82364 F1080.000
G1 X67.037 Y33.067 E53.84918
G1 X96.517 Y33.067 E55.41698
G1 X96.961 Y33.251 E55.44252
G1 X97.734 Y34.023 E55.50063
G1 X97.860 Y34.076 E55.50793
G1 X107.777 Y34.076 E56.03532
G1 X108.484 Y34.783 E56.08850
G1 X108.484 Y44.703 E56.61606
G1 X107.777 Y45.410 E56.66924
G1 X82.523 Y45.410 E58.01232
G1 X82.396 Y45.463 E58.01962
G1 X76.137 Y51.722 E58.49036
G1 X76.084 Y51.848 E58.49765
G1 X76.084 Y77.774 E59.87642
G1 X75.377 Y78.481 E59.92960
G1 X37.377 Y78.481 E61.95050
G1 X36.670 Y77.774 E62.00368
G1 X36.670 Y74.774 E62.16322
G1 X37.377 Y74.067 E62.21641
G1 X54.312 Y74.067 E63.11701
G1 X54.514 Y73.865 E63.13220
G1 X54.514 Y45.590 E64.63589
G1 X54.677 Y45.195 E64.65863
G1 X54.990 Y45.342 F7800.000
G1 X66.789 Y33.543 E65.54603 F1080.000
G1 X67.106 Y33.412 E65.56427
G1 X96.449 Y33.412 E67.12477
G1 X96.766 Y33.543 E67.14302
G1 X97.591 Y34.368 E67.20507
G1 X97.718 Y34.421 E67.21237
G1 X107.634 Y34.421 E67.73976
G1 X108.139 Y34.926 E67.77775
G1 X108.139 Y44.560 E68.29012
G1 X107.634 Y45.065 E68.32810
G1 X82.380 Y45.065 E69.67119
G1 X82.253 Y45.118 E69.67848
G1 X75.792 Y51.579 E70.16441
G1 X75.739 Y51.705 E70.17171
G1 X75.739 Y77.631 E71.55048
G1 X75.234 Y78.136 E71.58846
G1 X37.520 Y78.136 E73.59416
G1 X37.015 Y77.631 E73.63215
G1 X37.015 Y74.917 E73.77650
G1 X37.520 Y74.412 E73.81449
G1 X54.657 Y74.412 E74.72583
G1 X54.859 Y74.210 E74.74103
G1 X54.859 Y45.659 E76.25941
G1 X54.970 Y45.391 E76.27486
G1 X55.282 Y45.537 F7800.000
G1 X66.984 Y33.836 E77.15495 F1080.000
G1 X67.174 Y33.757 E77.16590
G1 X96.380 Y33.757 E78.71911
G1 X96.570 Y33.835 E78.73005
G1 X97.448 Y34.713 E78.79606
G1 X97.575 Y34.766 E78.80336
G1 X107.492 Y34.766 E79.33075
G1 X107.795 Y35.069 E79.35354
G1 X107.795 Y44.417 E79.85071
G1 X107.492 Y44.720 E79.87350
G1 X82.237 Y44.720 E81.21659
G1 X82.110 Y44.773 E81.22388
G1 X75.447 Y51.436 E81.72501
G1 X75.395 Y51.563 E81.73230
G1 X75.395 Y77.488 E83.11107
G1 X75.091 Y77.791 E83.13386
G1 X37.663 Y77.791 E85.12437
G1 X37.360 Y77.488 E85.14716
G1 X37.360 Y75.060 E85.27632
G1 X37.663 Y74.757 E85.29911
G1 X55.001 Y74.757 E86.22120
G1 X55.204 Y74.555 E86.23639
G1 X55.204 Y45.728 E87.76947
G1 X55.262 Y45.586 E87.77762
G1 E86.77762 F1800.00000
G92 E0
G1 X37.806 Y75.102 F7800.000
G1 E1.00000 F1800.00000
G1 X55.346 Y75.102 E1.93283 F1080.000
G1 X55.548 Y74.900 E1.94803
G1 X55.548 Y45.796 E3.49579
G1 X55.575 Y45.733 E3.49944
G1 X67.180 Y34.128 E4.37224
G1 X67.243 Y34.102 E4.37589
G1 X96.312 Y34.102 E5.92180
G1 X96.375 Y34.128 E5.92545
G1 X97.305 Y35.058 E5.99541
G1 X97.432 Y35.111 E6.00270
G1 X107.349 Y35.111 E6.53010
G1 X107.450 Y35.212 E6.53769
G1 X107.450 Y44.274 E7.01967
G1 X107.349 Y44.375 E7.02727
G1 X82.094 Y44.375 E8.37035
G1 X81.967 Y44.428 E8.37765
G1 X75.102 Y51.293 E8.89397
G1 X75.050 Y51.420 E8.90126
G1 X75.050 Y77.345 E10.28003
G1 X74.949 Y77.447 E10.28763
G1 X37.806 Y77.447 E12.26294
G1 X37.705 Y77.345 E12.27054
G1 X37.705 Y75.203 E12.38450
G1 X37.769 Y75.139 E12.38930
G1 E11.38930 F1800.00000
G92 E0
G1 X85.021 Y54.797 F7800.000
G1 E1.00000 F1800.00000
G1 X86.334 Y53.484 E1.09877 F1080.000
G1 X105.191 Y53.484 E2.10162
G1 X106.505 Y54.797 E2.20038
G1 X106.505 Y59.723 E2.46234
G1 X106.557 Y59.850 E2.46964
G1 X116.163 Y69.456 E3.19212
G1 X116.505 Y70.280 E3.23955
G1 X116.505 Y94.382 E4.52134
G1 X116.707 Y94.584 E4.53653
G1 X123.051 Y94.584 E4.87395
G1 X124.365 Y95.897 E4.97272
G1 X124.365 Y115.654 E6.02343
G1 X123.051 Y116.968 E6.12220
G1 X111.266 Y116.968 E6.74898
G1 X111.139 Y117.020 E6.75628
G1 X106.557 Y121.602 E7.10087
G1 X106.505 Y121.729 E7.10817
G1 X106.505 Y126.654 E7.37013
G1 X105.191 Y127.968 E7.46890
G1 X86.334 Y127.968 E8.47175
G1 X85.021 Y126.654 E8.57051
G1 X85.021 Y54.850 E12.38919
G1 X85.366 Y54.940 F7800.000
G1 X86.477 Y53.829 E12.47276 F1080.000
G1 X105.049 Y53.829 E13.46042
G1 X106.160 Y54.940 E13.54399
G1 X106.160 Y59.866 E13.80595
G1 X106.212 Y59.993 E13.81324
G1 X115.871 Y69.651 E14.53967
G1 X116.160 Y70.349 E14.57981
G1 X116.160 Y94.727 E15.87629
G1 X116.362 Y94.929 E15.89148
G1 X122.909 Y94.929 E16.23965
G1 X124.020 Y96.040 E16.32322
G1 X124.020 Y115.512 E17.35874
G1 X122.909 Y116.623 E17.44231
G1 X111.123 Y116.623 E18.06909
G1 X110.996 Y116.675 E18.07639
G1 X106.212 Y121.459 E18.43618
G1 X106.160 Y121.586 E18.44348
G1 X106.160 Y126.512 E18.70543
G1 X105.049 Y127.623 E18.78901
G1 X86.477 Y127.623 E19.77666
G1 X85.366 Y126.512 E19.86023
G1 X85.366 Y54.993 E23.66372
G1 X85.711 Y55.083 F7800.000
G1 X86.620 Y54.174 E23.73209 F1080.000
G1 X104.906 Y54.174 E24.70455
G1 X105.815 Y55.083 E24.77293
G1 X105.815 Y60.009 E25.03489
G1 X105.867 Y60.136 E25.04219
G1 X115.579 Y69.847 E25.77257
G1 X115.815 Y70.417 E25.80540
G1 X115.815 Y95.072 E27.11657
G1 X116.017 Y95.274 E27.13177
G1 X122.766 Y95.274 E27.49068
G1 X123.675 Y96.183 E27.55906
G1 X123.675 Y115.369 E28.57938
G1 X122.766 Y116.278 E28.64776
G1 X110.980 Y116.278 E29.27454
G1 X110.853 Y116.330 E29.28184
G1 X105.867 Y121.316 E29.65682
G1 X105.815 Y121.443 E29.66412
G1 X105.815 Y126.369 E29.92608
G1 X104.906 Y127.278 E29.99445
G1 X86.620 Y127.278 E30.96692
G1 X85.711 Y126.369 E31.03529
G1 X85.711 Y55.136 E34.82358
G1 X86.056 Y55.226 F7800.000
G1 X86.763 Y54.519 E34.87676 F1080.000
G1 X104.763 Y54.519 E35.83403
G1 X105.470 Y55.226 E35.88721
G1 X105.470 Y60.152 E36.14917
G1 X105.522 Y60.278 E36.15646
G1 X115.286 Y70.042 E36.89079
G1 X115.470 Y70.486 E36.91633
G1 X115.470 Y95.417 E38.24220
G1 X115.672 Y95.619 E38.25739
G1 X122.623 Y95.619 E38.62705
G1 X123.330 Y96.326 E38.68023
G1 X123.330 Y115.226 E39.68536
G1 X122.623 Y115.933 E39.73854
G1 X110.837 Y115.933 E40.36532
G1 X110.710 Y115.986 E40.37262
G1 X105.522 Y121.173 E40.76280
G1 X105.470 Y121.300 E40.77010
G1 X105.470 Y126.226 E41.03206
G1 X104.763 Y126.933 E41.08524
G1 X86.763 Y126.933 E42.04251
G1 X86.056 Y126.226 E42.09569
G1 X86.056 Y55.278 E45.86878
G1 X86.401 Y55.369 F7800.000
G1 X86.906 Y54.864 E45.90676 F1080.000
G1 X104.620 Y54.864 E46.84884
G1 X105.125 Y55.369 E46.88683
G1 X105.125 Y60.295 E47.14878
G1 X105.178 Y60.421 E47.15608
G1 X114.994 Y70.238 E47.89436
G1 X115.125 Y70.554 E47.91260
G1 X115.125 Y95.762 E49.25316
G1 X115.327 Y95.964 E49.26835
G1 X122.480 Y95.964 E49.64875
G1 X122.985 Y96.469 E49.68674
G1 X122.985 Y115.083 E50.67668
G1 X122.480 Y115.588 E50.71466
G1 X110.694 Y115.588 E51.34145
G1 X110.567 Y115.641 E51.34874
G1 X105.178 Y121.031 E51.75412
G1 X105.125 Y121.157 E51.76141
G1 X105.125 Y126.083 E52.02337
G1 X104.620 Y126.588 E52.06136
G1 X86.906 Y126.588 E53.00343
G1 X86.401 Y126.083 E53.04142
G1 X86.401 Y55.421 E56.79931
G1 X86.745 Y55.512 F7800.000
G1 X87.048 Y55.209 E56.82211 F1080.000
G1 X104.477 Y55.209 E57.74899
G1 X104.780 Y55.512 E57.77178
G1 X104.780 Y60.437 E58.03374
G1 X104.833 Y60.564 E58.04103
G1 X114.701 Y70.433 E58.78326
G1 X114.780 Y70.623 E58.79420
G1 X114.780 Y96.107 E60.14946
G1 X114.982 Y96.309 E60.16465
G1 X122.337 Y96.309 E60.55580
G1 X122.640 Y96.612 E60.57859
G1 X122.640 Y114.940 E61.55333
G1 X122.337 Y115.243 E61.57612
G1 X110.551 Y115.243 E62.20290
G1 X110.425 Y115.296 E62.21020
G1 X104.833 Y120.888 E62.63077
G1 X104.780 Y121.014 E62.63807
G1 X104.780 Y125.940 E62.90002
G1 X104.477 Y126.243 E62.92282
G1 X87.048 Y126.243 E63.84970
G1 X86.745 Y125.940 E63.87249
G1 X86.745 Y55.564 E67.61519
G1 X87.090 Y55.654 F7800.000
G1 X87.191 Y55.553 E67.62279 F1080.000
G1 X104.334 Y55.553 E68.53447
G1 X104.435 Y55.654 E68.54207
G1 X104.435 Y60.580 E68.80403
G1 X104.488 Y60.707 E68.81132
G1 X114.409 Y70.628 E69.55750
G1 X114.435 Y70.692 E69.56115
G1 X114.435 Y96.451 E70.93109
G1 X114.637 Y96.653 E70.94629
G1 X122.194 Y96.653 E71.34818
G1 X122.295 Y96.754 E71.35577
G1 X122.295 Y114.797 E72.31532
G1 X122.194 Y114.898 E72.32292
G1 X110.408 Y114.898 E72.94970
G1 X110.282 Y114.951 E72.95700
G1 X104.488 Y120.745 E73.39276
G1 X104.435 Y120.872 E73.40006
G1 X104.435 Y125.797 E73.66201
G1 X104.334 Y125.898 E73.66961
G1 X87.191 Y125.898 E74.58130
G1 X87.090 Y125.797 E74.58889
G1 X87.090 Y55.707 E78.31640
G1 E77.31640 F1800.00000
G92 E0
G1 X55.931 Y75.484 F7800.000
G1 E1.00000 F1800.00000
G1 X55.931 Y45.917 E2.57240 F540.000
G1 X67.364 Y34.484 E3.43230
G1 X96.190 Y34.484 E4.96531
G1 X97.199 Y35.493 E5.04119
G1 X107.067 Y35.493 E5.56599
G1 X107.067 Y43.993 E6.01803
G1 X81.861 Y43.993 E7.35852
G1 X74.667 Y51.187 E7.89959
G1 X74.667 Y77.064 E9.27576
G1 X38.087 Y77.064 E11.22114
G1 X38.087 Y75.484 E11.30517
G1 X55.878 Y75.484 E12.25132
G1 X56.281 Y75.484 F7800.000
G1 X56.276 Y75.829 F7800.000
G1 X56.276 Y46.060 E13.83447 F900.000
G1 X67.507 Y34.829 E14.67917
G1 X96.047 Y34.829 E16.19699
G1 X97.056 Y35.838 E16.27287
G1 X106.722 Y35.838 E16.78692
G1 X106.722 Y43.648 E17.20228
G1 X81.718 Y43.648 E18.53203
G1 X74.322 Y51.044 E19.08829
G1 X74.322 Y76.719 E20.45372
G1 X38.432 Y76.719 E22.36241
G1 X38.432 Y75.829 E22.40976
G1 X56.223 Y75.829 E23.35592
G1 X56.621 Y76.374 F7800.000
G1 X56.621 Y46.203 E24.96046 F900.000
G1 X67.650 Y35.174 E25.78997
G1 X95.905 Y35.174 E27.29259
G1 X96.913 Y36.183 E27.36847
G1 X106.377 Y36.183 E27.87178
G1 X106.377 Y43.303 E28.25046
G1 X81.576 Y43.303 E29.56946
G1 X73.977 Y50.901 E30.14092
G1 X73.977 Y76.374 E31.49560
G1 X56.673 Y76.374 E32.41587
G1 X56.448 Y76.274 F7800.000
G1 X38.605 Y76.274 E34.52043 F360.000
G1 X56.821 Y75.988 F7800.000
G1 X57.007 Y76.174 E34.53444 F360.000
G1 X57.495 Y76.174 E34.56038
G1 X56.821 Y75.500 E34.61108
G1 X56.821 Y75.013 E34.63702
G1 X57.982 Y76.174 E34.72440
G1 X58.470 Y76.174 E34.75035
G1 X56.821 Y74.525 E34.87442
G1 X56.821 Y74.037 E34.90036
G1 X58.958 Y76.174 E35.06112
G1 X59.446 Y76.174 E35.08706
G1 X56.821 Y73.549 E35.28451
G1 X56.821 Y73.061 E35.31046
G1 X59.934 Y76.174 E35.54459
G1 X60.421 Y76.174 E35.57054
G1 X56.821 Y72.574 E35.84136
G1 X56.821 Y72.086 E35.86730
G1 X60.909 Y76.174 E36.17482
G1 X61.397 Y76.174 E36.20076
G1 X56.821 Y71.598 E36.54496
G1 X56.821 Y71.110 E36.57091
G1 X61.885 Y76.174 E36.95180
G1 X62.372 Y76.174 E36.97774
G1 X56.821 Y70.622 E37.39532
G1 X56.821 Y70.135 E37.42126
G1 X62.860 Y76.174 E37.87553
G1 X63.348 Y76.174 E37.90147
G1 X56.821 Y69.647 E38.39243
G1 X56.821 Y69.159 E38.41837
G1 X63.836 Y76.174 E38.94601
G1 X64.324 Y76.174 E38.97196
G1 X56.821 Y68.671 E39.53629
G1 X56.821 Y68.184 E39.56223
G1 X64.811 Y76.174 E40.16325
G1 X65.299 Y76.174 E40.18919
G1 X56.821 Y67.696 E40.82690
G1 X56.821 Y67.208 E40.85285
G1 X65.787 Y76.174 E41.52724
G1 X66.275 Y76.174 E41.55319
G1 X56.821 Y66.720 E42.26427
G1 X56.821 Y66.232 E42.29021
G1 X66.762 Y76.174 E43.03799
G1 X67.250 Y76.174 E43.06393
G1 X56.821 Y65.745 E43.84839
G1 X56.821 Y65.257 E43.87434
G1 X67.738 Y76.174 E44.69549
G1 X68.226 Y76.174 E44.72143
G1 X56.821 Y64.769 E45.57927
G1 X56.821 Y64.281 E45.60521
G1 X68.714 Y76.174 E46.49974
G1 X69.201 Y76.174 E46.52568
G1 X56.821 Y63.794 E47.45690
G1 X56.821 Y63.306 E47.48284
G1 X69.689 Y76.174 E48.45074
G1 X70.177 Y76.174 E48.47668
G1 X56.821 Y62.818 E49.48128
G1 X56.821 Y62.330 E49.50722
G1 X70.665 Y76.174 E50.54850
G1 X71.152 Y76.174 E50.57444
G1 X56.821 Y61.842 E51.65241
G1 X56.821 Y61.355 E51.67835
G1 X71.640 Y76.174 E52.79301
G1 X72.128 Y76.174 E52.81895
G1 X56.821 Y60.867 E53.97030
G1 X56.821 Y60.379 E53.99624
G1 X72.616 Y76.174 E55.18427
G1 X73.104 Y76.174 E55.21022
G1 X56.821 Y59.891 E56.43494
G1 X56.821 Y59.404 E56.46088
G1 X73.591 Y76.174 E57.72229
G1 X73.777 Y75.873 E57.74114
G1 X56.821 Y58.916 E59.01655
G1 X56.821 Y58.428 E59.04249
G1 X73.777 Y75.385 E60.31790
G1 X73.777 Y74.897 E60.34384
G1 X56.821 Y57.940 E61.61925
G1 X56.821 Y57.452 E61.64519
G1 X73.777 Y74.409 E62.92060
G1 X73.777 Y73.922 E62.94654
G1 X56.821 Y56.965 E64.22195
G1 X56.821 Y56.477 E64.24789
G1 X73.777 Y73.434 E65.52330
G1 X73.777 Y72.946 E65.54924
G1 X56.821 Y55.989 E66.82465
G1 X56.821 Y55.501 E66.85060
G1 X73.777 Y72.458 E68.12600
G1 X73.777 Y71.970 E68.15195
G1 X56.821 Y55.014 E69.42735
G1 X56.821 Y54.526 E69.45330
G1 X73.777 Y71.483 E70.72870
G1 X73.777 Y70.995 E70.75465
G1 X56.821 Y54.038 E72.03005
G1 X56.821 Y53.550 E72.05600
G1 X73.777 Y70.507 E73.33140
G1 X73.777 Y70.019 E73.35735
G1 X56.821 Y53.062 E74.63275
G1 X56.821 Y52.575 E74.65870
G1 X73.777 Y69.531 E75.93410
G1 X73.777 Y69.044 E75.96005
G1 X56.821 Y52.087 E77.23545
G1 X56.821 Y51.599 E77.26140
G1 X73.777 Y68.556 E78.53680
G1 X73.777 Y68.068 E78.56275
G1 X56.821 Y51.111 E79.83816
G1 X56.821 Y50.624 E79.86410
G1 X73.777 Y67.580 E81.13951
G1 X73.777 Y67.093 E81.16545
G1 X56.821 Y50.136 E82.44086
G1 X56.821 Y49.648 E82.46680
