; generated by Slic3r 1.1.7 on 2016-10-11 at 16:09:41

; perimeters extrusion width = 0.40mm
; infill extrusion width = 0.42mm
; solid infill extrusion width = 0.42mm
; top infill extrusion width = 0.42mm

G21 ; set units to millimeters
M107
M190 S60 ; wait for bed temperature to be reached
M104 S185 ; set temperature
G28 ; home all axes
G1 Z5 F5000 ; lift nozzle
M109 S185 ; wait for temperature to be reached
G90 ; use absolute coordinates
G92 E0
M82 ; use absolute distances for extrusion
G1 F1800.000 E-1.00000
G92 E0
G1 Z0.400 F9000.000
G1 X37.940 Y52.379 F9000.000
G1 E1.00000 F1800.000
G1 X52.940 Y42.379 E3.09296 F960.000
G1 X53.929 Y41.913 E3.21991
G1 X80.029 Y34.053 E6.38445
G1 X81.100 Y33.895 E6.51013
G1 X99.000 Y33.895 E8.58825
G1 X100.666 Y34.290 E8.78702
G1 X102.162 Y35.662 E9.02270
G1 X113.162 Y53.522 E11.45791
G1 X113.714 Y55.470 E11.69293
G1 X113.713 Y72.550 E13.67585
G1 X113.351 Y89.399 E15.63249
G1 X112.920 Y91.056 E15.83126
G1 X112.290 Y91.919 E15.95522
G1 X79.890 Y124.990 E21.33019
G1 X78.443 Y125.904 E21.52896
G1 X77.237 Y126.105 E21.67082
G1 X40.237 Y126.105 E25.96639
G1 X38.571 Y125.710 E26.16516
G1 X37.259 Y124.610 E26.36393
G1 X36.523 Y122.408 E26.63347
G1 X36.286 Y72.470 E32.43120
G1 X36.286 Y55.470 E34.40484
G1 X36.680 Y53.804 E34.60361
G1 X37.900 Y52.424 E34.81737
G1 F1800.000 E33.81737
G92 E0
G1 X105.400 Y64.870 F9000.000
G1 E1.00000 F1800.000
G1 X100.600 Y64.870 E1.55726 F420.000
G1 X100.600 Y57.070 E2.46282
G1 X105.400 Y57.070 E3.02008
G1 X105.400 Y64.810 E3.91867
G1 X105.400 Y65.270 F9000.000
G1 F1800.000 E2.91867
G92 E0
G1 X97.400 Y46.010 F9000.000
G1 E1.00000 F1800.000
G1 X82.600 Y46.010 E2.71823 F420.000
G1 X82.600 Y39.210 E3.50768
G1 X97.400 Y39.210 E5.22591
G1 X97.400 Y45.950 E6.00840
G1 X97.400 Y46.410 F9000.000
G1 X77.664 Y47.355 F9000.000
G1 X80.114 Y47.355 E6.29283 F600.000
G1 X80.114 Y63.584 E8.17689
G1 X63.886 Y63.584 E10.06094
G1 X63.886 Y47.355 E11.94499
G1 X72.236 Y47.355 E12.91439
G1 X72.236 Y47.155 E12.93761
G1 X77.664 Y47.155 E13.56782
G1 X77.664 Y47.295 E13.58408
G1 X72.950 Y48.070 F9000.000
G1 X72.950 Y47.870 E13.60730 F420.000
G1 X76.950 Y47.870 E14.07168
G1 X76.950 Y48.070 E14.09490
G1 X79.400 Y48.070 E14.37934
G1 X79.400 Y62.870 E16.09757
G1 X64.600 Y62.870 E17.81579
G1 X64.600 Y48.070 E19.53403
G1 X72.890 Y48.070 E20.49647
G1 X72.850 Y47.896 F9000.000
G1 F1800.000 E19.49647
G92 E0
G1 X49.400 Y57.070 F9000.000
G1 E1.00000 F1800.000
G1 X49.400 Y64.870 E1.90556 F420.000
G1 X44.600 Y64.870 E2.46282
G1 X44.600 Y57.070 E3.36838
G1 X49.340 Y57.070 E3.91867
G1 X49.800 Y57.070 F9000.000
G1 X50.828 Y55.641 F9000.000
G1 X47.414 Y55.641 E4.31507 F600.000
G1 X55.757 Y47.298 E5.68492
G1 X63.172 Y47.298 E6.54570
G1 X63.172 Y64.298 E8.51935
G1 X80.828 Y64.298 E10.56922
G1 X80.828 Y47.438 E12.52661
G1 X97.172 Y47.438 E14.42401
G1 X97.172 Y50.227 E14.74781
G1 X102.586 Y55.641 E15.63676
G1 X99.172 Y55.641 E16.03316
G1 X99.172 Y66.298 E17.27036
G1 X106.828 Y66.298 E18.15927
G1 X106.828 Y57.298 E19.20414
G1 X108.172 Y57.298 E19.36010
G1 X108.172 Y70.641 E20.90922
G1 X41.828 Y70.641 E28.61145
G1 X41.828 Y57.298 E30.16057
G1 X43.172 Y57.298 E30.31653
G1 X43.172 Y66.298 E31.36140
G1 X50.828 Y66.298 E32.25031
G1 X50.828 Y55.701 E33.48054
G1 X50.114 Y56.355 F9000.000
G1 X45.690 Y56.355 E33.99419 F600.000
G1 X55.461 Y46.584 E35.59856
G1 X81.886 Y46.584 E38.66633
G1 X81.886 Y46.724 E38.68258
G1 X97.886 Y46.724 E40.54012
G1 X97.886 Y49.931 E40.91248
G1 X104.310 Y56.355 E41.96726
G1 X99.886 Y56.355 E42.48091
G1 X99.886 Y65.584 E43.55229
G1 X106.114 Y65.584 E44.27538
G1 X106.114 Y56.584 E45.32025
G1 X108.886 Y56.584 E45.64203
G1 X108.886 Y71.356 E47.35697
G1 X41.114 Y71.356 E55.22502
G1 X41.114 Y56.584 E56.93996
G1 X43.886 Y56.584 E57.26175
G1 X43.886 Y65.584 E58.30662
G1 X50.114 Y65.584 E59.02970
G1 X50.114 Y56.415 E60.09412
G1 F1800.000 E59.09412
G92 E0
G1 X81.500 Y45.870 F9000.000
G1 E1.00000 F1800.000
G1 X81.500 Y38.010 E1.91252 F420.000
G1 X98.600 Y38.010 E3.89776
G1 X98.600 Y49.635 E5.24746
G1 X104.834 Y55.870 E6.27104
G1 X109.600 Y55.870 E6.82432
G1 X109.600 Y72.070 E8.70509
G1 X40.400 Y72.070 E16.73896
G1 X40.400 Y55.870 E18.61972
G1 X45.166 Y55.870 E19.17300
G1 X55.166 Y45.870 E20.81485
G1 X81.440 Y45.870 E23.86521
G1 X81.900 Y45.870 F9000.000
G1 X93.575 Y47.936 F9000.000
G1 X100.783 Y55.144 E25.04863 F960.000
G1 X99.763 Y55.144 E25.16701
G1 X92.555 Y47.936 E26.35044
G1 X91.536 Y47.936 E26.46882
G1 X98.743 Y55.144 E27.65224
G1 X98.674 Y56.094 E27.76285
G1 X90.516 Y47.936 E29.10229
G1 X89.496 Y47.936 E29.22067
G1 X98.674 Y57.113 E30.72751
G1 X98.674 Y58.133 E30.84589
G1 X88.477 Y47.936 E32.52016
G1 X87.457 Y47.936 E32.63854
G1 X98.674 Y59.153 E34.48022
G1 X98.674 Y60.172 E34.59860
G1 X86.437 Y47.936 E36.60769
G1 X85.417 Y47.936 E36.72608
G1 X98.674 Y61.192 E38.90259
G1 X98.674 Y62.212 E39.02097
G1 X84.398 Y47.936 E41.36489
G1 X83.378 Y47.936 E41.48327
G1 X98.674 Y63.231 E43.99462
G1 X98.674 Y64.251 E44.11300
G1 X82.358 Y47.936 E46.79176
G1 X81.339 Y47.936 E46.91014
G1 X98.674 Y65.271 E49.75631
G1 X98.674 Y66.291 E49.87469
G1 X81.326 Y48.943 E52.72295
G1 X81.326 Y49.962 E52.84133
G1 X101.507 Y70.144 E56.15480
G1 X100.488 Y70.144 E56.27318
G1 X81.326 Y50.982 E59.41923
G1 X81.326 Y52.002 E59.53761
G1 X99.468 Y70.144 E62.51624
G1 X98.448 Y70.144 E62.63462
G1 X81.326 Y53.021 E65.44584
G1 X81.326 Y54.041 E65.56422
G1 X97.429 Y70.144 E68.20802
G1 X96.409 Y70.144 E68.32640
G1 X81.326 Y55.061 E70.80278
G1 X81.326 Y56.080 E70.92116
G1 X95.389 Y70.144 E73.23013
G1 X94.370 Y70.144 E73.34851
G1 X81.326 Y57.100 E75.49007
G1 X81.326 Y58.120 E75.60845
G1 X93.350 Y70.144 E77.58259
G1 X92.330 Y70.144 E77.70097
G1 X81.326 Y59.139 E79.50769
G1 X81.326 Y60.159 E79.62607
G1 X91.311 Y70.144 E81.26538
G1 X90.291 Y70.144 E81.38376
G1 X81.326 Y61.179 E82.85565
G1 X81.326 Y62.198 E82.97403
G1 X89.271 Y70.144 E84.27850
G1 X88.252 Y70.144 E84.39688
G1 X81.326 Y63.218 E85.53394
G1 X81.326 Y64.238 E85.65232
G1 X87.232 Y70.144 E86.62197
G1 X86.212 Y70.144 E86.74035
G1 X80.864 Y64.796 E87.61839
G1 X79.845 Y64.796 E87.73677
G1 X85.192 Y70.144 E88.61481
G1 X84.173 Y70.144 E88.73319
G1 X78.825 Y64.796 E89.61123
G1 X77.805 Y64.796 E89.72961
G1 X83.153 Y70.144 E90.60765
G1 X82.133 Y70.144 E90.72603
G1 X76.786 Y64.796 E91.60407
G1 X75.766 Y64.796 E91.72245
G1 X81.114 Y70.144 E92.60049
G1 X80.094 Y70.144 E92.71887
G1 X74.746 Y64.796 E93.59692
G1 X73.727 Y64.796 E93.71530
G1 X79.074 Y70.144 E94.59334
G1 X78.055 Y70.144 E94.71172
G1 X72.707 Y64.796 E95.58976
G1 X71.687 Y64.796 E95.70814
G1 X77.035 Y70.144 E96.58618
G1 X76.015 Y70.144 E96.70456
G1 X70.668 Y64.796 E97.58260
G1 X69.648 Y64.796 E97.70098
G1 X74.996 Y70.144 E98.57902
G1 X73.976 Y70.144 E98.69740
G1 X68.628 Y64.796 E99.57544
G1 X67.609 Y64.796 E99.69382
G1 X72.956 Y70.144 E100.57187
G1 X71.937 Y70.144 E100.69025
G1 X66.589 Y64.796 E101.56829
G1 X65.569 Y64.796 E101.68667
G1 X70.917 Y70.144 E102.56471
G1 X69.897 Y70.144 E102.68309
G1 X64.549 Y64.796 E103.56113
G1 X63.530 Y64.796 E103.67951
G1 X68.878 Y70.144 E104.55755
G1 X67.858 Y70.144 E104.67593
G1 X50.751 Y53.037 E107.48466
G1 X51.261 Y52.527 E107.56837
G1 X62.674 Y63.940 E109.44224
G1 X62.674 Y62.920 E109.56062
G1 X51.771 Y52.017 E111.35078
G1 X52.280 Y51.507 E111.43449
G1 X62.674 Y61.901 E113.14095
G1 X62.674 Y60.881 E113.25933
G1 X52.790 Y50.997 E114.88208
G1 X53.300 Y50.487 E114.96578
G1 X62.674 Y59.861 E116.50483
G1 X62.674 Y58.841 E116.62321
G1 X53.810 Y49.978 E118.07854
G1 X54.320 Y49.468 E118.16225
G1 X62.674 Y57.822 E119.53387
G1 X62.674 Y56.802 E119.65225
G1 X54.830 Y48.958 E120.94017
G1 X55.339 Y48.448 E121.02388
G1 X62.674 Y55.782 E122.22809
G1 X62.674 Y54.763 E122.34647
G1 X55.849 Y47.938 E123.46697
G1 X56.727 Y47.796 E123.57014
G1 X62.674 Y53.743 E124.54662
G1 X62.674 Y52.723 E124.66500
G1 X57.746 Y47.796 E125.47406
G1 X58.766 Y47.796 E125.59244
G1 X62.674 Y51.704 E126.23409
G1 X62.674 Y50.684 E126.35247
G1 X59.786 Y47.796 E126.82670
G1 X60.805 Y47.796 E126.94508
G1 X62.674 Y49.664 E127.25189
G1 X62.674 Y48.645 E127.37027
G1 X61.825 Y47.796 E127.50967
G1 X50.241 Y53.546 F9000.000
G1 X66.838 Y70.144 E130.23468 F960.000
G1 X65.819 Y70.144 E130.35306
G1 X49.731 Y54.056 E132.99437
G1 X49.221 Y54.566 E133.07808
G1 X49.799 Y55.144 E133.17290
G1 X48.779 Y55.144 E133.29128
G1 X48.712 Y55.076 E133.30239
G1 X51.326 Y56.671 F9000.000
G1 X64.799 Y70.144 E135.51444 F960.000
G1 X63.779 Y70.144 E135.63282
G1 X51.326 Y57.690 E137.67745
G1 X51.326 Y58.710 E137.79583
G1 X62.760 Y70.144 E139.67305
G1 X61.740 Y70.144 E139.79143
G1 X51.326 Y59.730 E141.50123
G1 X51.326 Y60.749 E141.61961
G1 X60.720 Y70.144 E143.16199
G1 X59.701 Y70.144 E143.28038
G1 X51.326 Y61.769 E144.65534
G1 X51.326 Y62.789 E144.77372
G1 X58.681 Y70.144 E145.98128
G1 X57.661 Y70.144 E146.09966
G1 X51.326 Y63.808 E147.13980
G1 X51.326 Y64.828 E147.25818
G1 X56.642 Y70.144 E148.13090
G1 X55.622 Y70.144 E148.24928
G1 X51.326 Y65.848 E148.95459
G1 X51.254 Y66.796 E149.06495
G1 X54.602 Y70.144 E149.61462
G1 X53.583 Y70.144 E149.73300
G1 X50.235 Y66.796 E150.28267
G1 X49.215 Y66.796 E150.40105
G1 X52.563 Y70.144 E150.95073
G1 X51.543 Y70.144 E151.06911
G1 X48.195 Y66.796 E151.61878
G1 X47.176 Y66.796 E151.73716
G1 X50.523 Y70.144 E152.28683
G1 X49.504 Y70.144 E152.40521
G1 X46.156 Y66.796 E152.95488
G1 X45.136 Y66.796 E153.07326
G1 X48.484 Y70.144 E153.62293
G1 X47.464 Y70.144 E153.74131
G1 X44.117 Y66.796 E154.29098
G1 X43.198 Y66.897 E154.39830
G1 X46.445 Y70.144 E154.93141
G1 X45.425 Y70.144 E155.04979
G1 X42.434 Y67.153 E155.54083
G1 X42.326 Y68.064 E155.64739
G1 X44.405 Y70.144 E155.98879
G1 X43.386 Y70.144 E156.10717
G1 X42.326 Y69.084 E156.28116
G1 X42.326 Y70.104 E156.39954
G1 X42.366 Y70.144 E156.40610
G1 X99.179 Y66.796 F9000.000
G1 X102.527 Y70.144 E156.95577 F960.000
G1 X103.547 Y70.144 E157.07416
G1 X100.199 Y66.796 E157.62383
G1 X101.218 Y66.796 E157.74221
G1 X104.566 Y70.144 E158.29188
G1 X105.586 Y70.144 E158.41026
G1 X102.238 Y66.796 E158.95993
G1 X103.258 Y66.796 E159.07831
G1 X106.606 Y70.144 E159.62798
G1 X107.625 Y70.144 E159.74636
G1 X104.278 Y66.796 E160.29603
G1 X105.297 Y66.796 E160.41441
G1 X107.674 Y69.172 E160.80464
G1 X107.674 Y68.153 E160.92302
G1 X106.317 Y66.796 E161.14583
G1 F1800.000 E160.14583
G92 E0
G1 X96.674 Y50.015 F9000.000
G1 E1.00000 F1800.000
G1 X94.595 Y47.936 E1.34140 F960.000
G1 X95.614 Y47.936 E1.45978
G1 X96.674 Y48.995 E1.63376
G1 X96.674 Y47.976 E1.75214
G1 X96.634 Y47.936 E1.75871
G1 X98.000 Y46.367 F9000.000
G1 X98.000 Y38.853 E2.24732 F240.000
G1 X97.958 Y38.651 E2.26069
G1 X97.757 Y38.610 E2.27405
G1 X81.857 Y38.610 E3.30795
G1 F1800.000 E2.30795
G92 E0
G1 X107.500 Y57.655 F9000.000
G1 E1.00000 F1800.000
G1 X107.500 Y66.655 E1.58523 F240.000
G1 X42.500 Y66.655 F9000.000
G1 X42.500 Y57.655 E2.17046 F240.000
G1 F1800.000 E1.17046
G92 E0
G1 X59.909 Y120.562 F9000.000
G1 E1.00000 F1800.000
G1 X59.909 Y91.704 E4.35031 F600.000
G1 X70.395 Y81.219 E6.07185
G1 X97.880 Y81.219 E9.26280
G1 X98.889 Y82.228 E9.42845
G1 X107.809 Y82.228 E10.46404
G1 X107.809 Y87.491 E11.07510
G1 X83.551 Y87.491 E13.89136
G1 X75.409 Y95.633 E15.22817
G1 X75.409 Y120.562 E18.12233
G1 X59.969 Y120.562 E19.91483
G1 X59.195 Y121.276 F9000.000
G1 X59.195 Y91.408 E23.38239 F600.000
G1 X70.099 Y80.505 E25.17262
G1 X98.176 Y80.505 E28.43226
G1 X99.185 Y81.513 E28.59790
G1 X108.523 Y81.513 E29.68206
G1 X108.523 Y88.205 E30.45895
G1 X83.847 Y88.205 E33.32378
G1 X76.123 Y95.929 E34.59190
G1 X76.123 Y121.276 E37.53463
G1 X59.255 Y121.276 E39.49295
G1 X58.481 Y120.790 F9000.000
G1 X58.481 Y91.112 E42.93845 F420.000
G1 X69.803 Y79.790 E44.79736
G1 X98.472 Y79.790 E48.12569
G1 X99.481 Y80.799 E48.29133
G1 X109.237 Y80.799 E49.42406
G1 X109.237 Y88.919 E50.36677
G1 X84.143 Y88.919 E53.28016
G1 X76.837 Y96.225 E54.47960
G1 X76.837 Y121.990 E57.47090
G1 X40.637 Y121.990 E61.67359
G1 X40.637 Y120.790 E61.81291
G1 X58.421 Y120.790 E63.87752
G1 X58.881 Y120.790 F9000.000
G1 X60.407 Y120.024 F9000.000
G1 X60.447 Y120.064 E63.88409 F960.000
G1 X61.461 Y120.064 E64.00181
G1 X60.407 Y119.010 E64.17487
G1 X60.407 Y117.996 E64.29259
G1 X62.475 Y120.064 E64.63213
G1 X63.489 Y120.064 E64.74985
G1 X60.407 Y116.982 E65.25588
G1 X60.407 Y115.968 E65.37360
G1 X64.503 Y120.064 E66.04611
G1 X65.517 Y120.064 E66.16384
G1 X60.407 Y114.954 E67.00284
G1 X60.407 Y113.940 E67.12056
G1 X66.531 Y120.064 E68.12604
G1 X67.545 Y120.064 E68.24377
G1 X60.407 Y112.926 E69.41574
G1 X60.407 Y111.912 E69.53346
G1 X68.559 Y120.064 E70.87191
G1 X69.573 Y120.064 E70.98964
G1 X60.407 Y110.898 E72.49458
G1 X60.407 Y109.884 E72.61230
G1 X70.587 Y120.064 E74.28373
G1 X71.601 Y120.064 E74.40145
G1 X60.407 Y108.870 E76.23937
G1 X60.407 Y107.856 E76.35709
G1 X72.615 Y120.064 E78.36149
G1 X73.629 Y120.064 E78.47921
G1 X60.407 Y106.842 E80.65010
G1 X60.407 Y105.828 E80.76782
G1 X74.643 Y120.064 E83.10520
G1 X74.911 Y119.318 E83.19722
G1 X60.407 Y104.814 E85.57860
G1 X60.407 Y103.800 E85.69632
G1 X74.911 Y118.304 E88.07770
G1 X74.911 Y117.290 E88.19542
G1 X60.407 Y102.786 E90.57680
G1 X60.407 Y101.772 E90.69452
G1 X74.911 Y116.276 E93.07590
G1 X74.911 Y115.262 E93.19362
G1 X60.407 Y100.758 E95.57500
G1 X60.407 Y99.744 E95.69272
G1 X74.911 Y114.248 E98.07410
G1 X74.911 Y113.234 E98.19182
G1 X60.407 Y98.730 E100.57320
G1 X60.407 Y97.716 E100.69092
G1 X74.911 Y112.220 E103.07230
G1 X74.911 Y111.206 E103.19002
G1 X60.407 Y96.702 E105.57140
G1 X60.407 Y95.688 E105.68912
G1 X74.911 Y110.192 E108.07050
G1 X74.911 Y109.178 E108.18822
G1 X60.407 Y94.674 E110.56960
G1 X60.407 Y93.660 E110.68732
G1 X74.911 Y108.164 E113.06870
G1 X74.911 Y107.150 E113.18642
G1 X60.407 Y92.646 E115.56780
G1 X60.560 Y91.785 E115.66930
G1 X74.911 Y106.136 E118.02550
G1 X74.911 Y105.122 E118.14323
G1 X61.067 Y91.278 E120.41619
G1 X61.574 Y90.771 E120.49943
G1 X74.911 Y104.108 E122.68915
G1 X74.911 Y103.094 E122.80688
G1 X62.081 Y90.264 E124.91336
G1 X62.588 Y89.757 E124.99660
G1 X74.911 Y102.080 E127.01983
G1 X74.911 Y101.066 E127.13756
G1 X63.095 Y89.250 E129.07755
G1 X63.602 Y88.743 E129.16079
G1 X74.911 Y100.052 E131.01754
G1 X74.911 Y99.038 E131.13526
G1 X64.109 Y88.236 E132.90877
G1 X64.616 Y87.729 E132.99201
G1 X74.911 Y98.024 E134.68227
G1 X74.911 Y97.010 E134.80000
G1 X65.123 Y87.222 E136.40702
G1 X65.630 Y86.715 E136.49026
G1 X74.911 Y95.996 E138.01404
G1 X75.134 Y95.204 E138.10949
G1 X66.137 Y86.208 E139.58655
G1 X66.644 Y85.701 E139.66980
G1 X75.641 Y94.697 E141.14685
G1 X76.148 Y94.190 E141.23010
G1 X67.151 Y85.194 E142.70716
G1 X67.658 Y84.687 E142.79040
G1 X76.655 Y93.683 E144.26746
G1 X77.162 Y93.176 E144.35070
G1 X68.165 Y84.180 E145.82776
G1 X68.672 Y83.673 E145.91100
G1 X77.669 Y92.669 E147.38806
G1 X78.176 Y92.162 E147.47131
G1 X69.179 Y83.166 E148.94836
G1 X69.686 Y82.659 E149.03161
G1 X78.683 Y91.655 E150.50867
G1 X79.190 Y91.148 E150.59191
G1 X70.193 Y82.152 E152.06897
G1 X70.772 Y81.716 E152.15303
G1 X79.697 Y90.641 E153.61837
G1 X80.204 Y90.134 E153.70161
G1 X71.786 Y81.716 E155.08370
G1 X72.800 Y81.716 E155.20143
G1 X80.711 Y89.627 E156.50028
G1 X81.218 Y89.120 E156.58352
G1 X73.814 Y81.716 E157.79913
G1 X74.828 Y81.716 E157.91685
G1 X81.725 Y88.613 E159.04921
G1 X82.232 Y88.106 E159.13246
G1 X75.842 Y81.716 E160.18158
G1 X76.856 Y81.716 E160.29930
G1 X82.739 Y87.599 E161.26518
G1 X83.246 Y87.092 E161.34842
G1 X77.870 Y81.716 E162.23105
G1 X78.884 Y81.716 E162.34878
G1 X84.161 Y86.993 E163.21515
G1 X85.175 Y86.993 E163.33287
G1 X79.898 Y81.716 E164.19924
G1 X80.912 Y81.716 E164.31696
G1 X86.189 Y86.993 E165.18333
G1 X87.203 Y86.993 E165.30106
G1 X81.926 Y81.716 E166.16742
G1 X82.940 Y81.716 E166.28515
G1 X88.217 Y86.993 E167.15152
G1 X89.231 Y86.993 E167.26924
G1 X83.954 Y81.716 E168.13561
G1 X84.968 Y81.716 E168.25333
G1 X90.245 Y86.993 E169.11970
G1 X91.259 Y86.993 E169.23743
G1 X85.982 Y81.716 E170.10379
G1 X86.996 Y81.716 E170.22152
G1 X92.273 Y86.993 E171.08789
G1 X93.287 Y86.993 E171.20561
G1 X88.010 Y81.716 E172.07198
G1 X89.024 Y81.716 E172.18970
G1 X94.301 Y86.993 E173.05607
G1 X95.315 Y86.993 E173.17380
G1 X90.038 Y81.716 E174.04016
G1 X91.052 Y81.716 E174.15789
