; generated by Slic3r 1.2.9 on 2019-06-10 at 10:03:49

; external perimeters extrusion width = 0.35mm
; perimeters extrusion width = 0.44mm
; infill extrusion width = 0.44mm
; solid infill extrusion width = 0.44mm
; top infill extrusion width = 0.44mm

M107
M190 S100 ; set bed temperature
M104 S240 ; set temperature
G28 ; home all axes
G1 Z5 F5000 ; lift nozzle
M109 S240 ; wait for temperature to be reached
G21 ; set units to millimeters
G90 ; use absolute coordinates
M82 ; use absolute distances for extrusion
G92 E0
G1 E-1.00000 F1800.00000
G92 E0
G1 Z0.300 F7800.000
G1 X14.220 Y40.765 F7800.000
G1 E1.00000 F1800.00000
G1 X14.997 Y40.492 E1.03218 F1080.000
G1 X15.815 Y40.251 E1.06551
G1 X16.579 Y40.068 E1.09620
G1 X17.417 Y39.911 E1.12953
G1 X18.330 Y39.791 E1.16551
G1 X19.181 Y39.725 E1.19885
G1 X20.000 Y39.704 E1.23086
G1 X152.000 Y39.704 E6.38837
G1 X152.483 Y39.732 E6.40726
G1 X153.079 Y39.842 E6.43096
G1 X153.571 Y40.002 E6.45117
G1 X154.119 Y40.264 E6.47489
G1 X154.552 Y40.545 E6.49508
G1 X155.013 Y40.939 E6.51877
G1 X155.359 Y41.323 E6.53898
G1 X155.703 Y41.824 E6.56271
G1 X155.937 Y42.284 E6.58287
G1 X156.141 Y42.857 E6.60665
G1 X156.248 Y43.362 E6.62679
G1 X156.295 Y43.966 E6.65048
G1 X156.296 Y116.000 E9.46499
G1 X156.268 Y116.482 E9.48387
G1 X156.158 Y117.079 E9.50758
G1 X155.998 Y117.571 E9.52779
G1 X155.736 Y118.119 E9.55152
G1 X155.455 Y118.552 E9.57169
G1 X155.061 Y119.013 E9.59538
G1 X154.677 Y119.359 E9.61560
G1 X154.177 Y119.703 E9.63929
G1 X153.717 Y119.937 E9.65948
G1 X153.144 Y120.140 E9.68320
G1 X152.638 Y120.248 E9.70341
G1 X152.000 Y120.296 E9.72842
G1 X19.966 Y120.295 E14.88726
G1 X19.113 Y120.271 E14.92060
G1 X18.263 Y120.202 E14.95393
G1 X17.484 Y120.100 E14.98461
G1 X16.579 Y119.932 E15.02059
G1 X15.750 Y119.731 E15.05392
G1 X14.932 Y119.487 E15.08726
G1 X14.192 Y119.225 E15.11795
G1 X13.430 Y118.911 E15.15013
G1 X12.632 Y118.534 E15.18461
G1 X11.882 Y118.129 E15.21795
G1 X11.153 Y117.685 E15.25128
G1 X10.449 Y117.203 E15.28461
G1 X9.771 Y116.685 E15.31795
G1 X9.071 Y116.087 E15.35393
G1 X8.454 Y115.499 E15.38726
G1 X7.849 Y114.856 E15.42174
G1 X7.315 Y114.229 E15.45392
G1 X6.837 Y113.605 E15.48461
G1 X6.352 Y112.903 E15.51794
G1 X5.905 Y112.177 E15.55128
G1 X5.465 Y111.368 E15.58726
G1 X5.100 Y110.597 E15.62059
G1 X4.775 Y109.808 E15.65392
G1 X4.492 Y109.003 E15.68726
G1 X4.251 Y108.185 E15.72059
G1 X4.049 Y107.326 E15.75507
G1 X3.900 Y106.516 E15.78725
G1 X3.798 Y105.737 E15.81794
G1 X3.729 Y104.887 E15.85127
G1 X3.704 Y104.000 E15.88593
G1 X3.704 Y56.000 E17.76139
G1 X3.725 Y55.181 E17.79340
G1 X3.798 Y54.263 E17.82938
G1 X3.916 Y53.388 E17.86386
G1 X4.068 Y52.579 E17.89604
G1 X4.251 Y51.815 E17.92673
G1 X4.513 Y50.932 E17.96271
G1 X4.775 Y50.192 E17.99339
G1 X5.100 Y49.403 E18.02673
G1 X5.466 Y48.632 E18.06006
G1 X5.905 Y47.823 E18.09604
G1 X6.315 Y47.153 E18.12673
G1 X6.797 Y46.449 E18.16006
G1 X7.315 Y45.771 E18.19339
G1 X7.913 Y45.071 E18.22938
G1 X8.454 Y44.502 E18.26006
G1 X9.071 Y43.913 E18.29339
G1 X9.771 Y43.315 E18.32937
G1 X10.395 Y42.837 E18.36006
G1 X11.097 Y42.352 E18.39339
G1 X11.882 Y41.871 E18.42937
G1 X12.572 Y41.496 E18.46006
G1 X13.341 Y41.127 E18.49339
G1 X14.170 Y40.783 E18.52847
G1 E17.52847 F1800.00000
G92 E0
G1 X21.229 Y107.771 F7800.000
G1 E1.00000 F1800.00000
G1 X21.229 Y52.229 E3.17016 F900.000
G1 X138.771 Y52.229 E7.76279
G1 X138.771 Y107.771 E9.93295
G1 X21.281 Y107.771 E14.52353
G1 X21.524 Y107.476 F7800.000
G1 X21.524 Y52.524 E16.67059 F900.000
G1 X138.476 Y52.524 E21.24012
G1 X138.476 Y107.476 E23.38718
G1 X21.577 Y107.476 E27.95465
G1 X21.820 Y107.180 F7800.000
G1 X21.820 Y52.820 E30.07861 F540.000
G1 X138.180 Y52.820 E34.62504
G1 X138.180 Y107.180 E36.74900
G1 X21.872 Y107.180 E41.29338
G1 X21.470 Y107.180 F7800.000
G1 E40.29338 F1800.00000
G92 E0
G1 X12.009 Y82.584 F7800.000
G1 E1.00000 F1800.00000
G1 X11.567 Y82.716 E1.01799 F270.000
G1 X11.000 Y82.775 E1.04028
G1 X10.423 Y82.715 E1.06295
G1 X9.871 Y82.536 E1.08562
G1 X9.377 Y82.251 E1.10790
G1 X9.031 Y81.955 E1.12570
G1 X8.678 Y81.519 E1.14759
G1 X8.459 Y81.114 E1.16558
G1 X8.285 Y80.577 E1.18766
G1 X8.225 Y80.000 E1.21032
G1 X8.285 Y79.423 E1.23299
G1 X8.464 Y78.871 E1.25566
G1 X8.749 Y78.377 E1.27793
G1 X9.045 Y78.031 E1.29573
G1 X9.480 Y77.679 E1.31760
G1 X9.881 Y77.461 E1.33540
G1 X10.423 Y77.285 E1.35766
G1 X10.984 Y77.226 E1.37974
G1 X11.443 Y77.261 E1.39773
G1 X11.995 Y77.409 E1.42002
G1 X12.512 Y77.672 E1.44269
G1 X12.963 Y78.037 E1.46536
G1 X13.328 Y78.488 E1.48804
G1 X13.587 Y78.997 E1.51033
G1 X13.717 Y79.438 E1.52832
G1 X13.775 Y80.000 E1.55039
G1 X13.715 Y80.577 E1.57305
G1 X13.539 Y81.119 E1.59532
G1 X13.321 Y81.520 E1.61312
G1 X12.963 Y81.963 E1.63540
G1 X12.512 Y82.328 E1.65805
G1 X12.055 Y82.561 E1.67808
G1 X11.898 Y82.309 F7800.000
G1 X11.509 Y82.425 E1.69394 F270.000
G1 X11.000 Y82.478 E1.71395
G1 X10.485 Y82.424 E1.73419
G1 X9.992 Y82.264 E1.75444
G1 X9.549 Y82.008 E1.77443
G1 X9.244 Y81.747 E1.79011
G1 X8.925 Y81.354 E1.80988
G1 X8.732 Y80.997 E1.82574
G1 X8.576 Y80.515 E1.84554
G1 X8.522 Y80.000 E1.86578
G1 X8.576 Y79.485 E1.88602
G1 X8.736 Y78.992 E1.90627
G1 X8.992 Y78.549 E1.92626
G1 X9.252 Y78.244 E1.94194
G1 X9.645 Y77.926 E1.96169
G1 X9.998 Y77.734 E1.97737
G1 X10.485 Y77.576 E1.99736
G1 X10.989 Y77.523 E2.01717
G1 X11.393 Y77.554 E2.03303
G1 X11.888 Y77.686 E2.05304
G1 X12.350 Y77.922 E2.07328
G1 X12.752 Y78.248 E2.09352
G1 X13.078 Y78.650 E2.11377
G1 X13.311 Y79.107 E2.13378
G1 X13.426 Y79.496 E2.14964
G1 X13.478 Y80.000 E2.16945
G1 X13.424 Y80.515 E2.18968
G1 X13.266 Y81.002 E2.20968
G1 X13.074 Y81.355 E2.22536
G1 X12.752 Y81.752 E2.24535
G1 X12.350 Y82.078 E2.26559
G1 X11.945 Y82.285 E2.28335
G1 X11.788 Y82.033 F7800.000
G1 X11.451 Y82.134 E2.29708 F270.000
G1 X11.000 Y82.181 E2.31481
G1 X10.547 Y82.133 E2.33262
G1 X10.113 Y81.992 E2.35044
G1 X9.720 Y81.766 E2.36816
G1 X9.456 Y81.540 E2.38171
G1 X9.172 Y81.190 E2.39935
G1 X9.005 Y80.880 E2.41308
G1 X8.867 Y80.453 E2.43062
G1 X8.819 Y80.000 E2.44843
G1 X8.867 Y79.547 E2.46625
G1 X9.008 Y79.113 E2.48406
G1 X9.234 Y78.720 E2.50179
G1 X9.460 Y78.456 E2.51534
G1 X9.810 Y78.172 E2.53297
G1 X10.115 Y78.007 E2.54652
G1 X10.546 Y77.867 E2.56424
G1 X10.993 Y77.819 E2.58178
G1 X11.343 Y77.846 E2.59552
G1 X11.782 Y77.964 E2.61324
G1 X12.188 Y78.171 E2.63106
G1 X12.542 Y78.458 E2.64887
G1 X12.829 Y78.812 E2.66669
G1 X13.035 Y79.216 E2.68442
G1 X13.134 Y79.554 E2.69815
G1 X13.181 Y80.000 E2.71569
G1 X13.133 Y80.453 E2.73350
G1 X12.993 Y80.885 E2.75122
G1 X12.828 Y81.190 E2.76478
G1 X12.542 Y81.542 E2.78250
G1 X12.188 Y81.829 E2.80031
G1 X11.835 Y82.009 E2.81580
G1 X11.728 Y82.378 F7800.000
G1 E1.81580 F1800.00000
G92 E0
G1 X146.225 Y80.000 F7800.000
G1 E1.00000 F1800.00000
G1 X146.285 Y79.423 E1.02267 F270.000
G1 X146.464 Y78.871 E1.04533
G1 X146.746 Y78.382 E1.06740
G1 X147.045 Y78.031 E1.08539
G1 X147.480 Y77.679 E1.10729
G1 X147.881 Y77.461 E1.12509
G1 X148.423 Y77.285 E1.14735
G1 X148.984 Y77.226 E1.16942
G1 X149.443 Y77.261 E1.18741
G1 X149.995 Y77.409 E1.20971
G1 X150.512 Y77.672 E1.23238
G1 X150.955 Y78.031 E1.25467
G1 X151.254 Y78.382 E1.27266
G1 X151.536 Y78.871 E1.29474
G1 X151.715 Y79.423 E1.31739
G1 X151.775 Y80.000 E1.34006
G1 X151.715 Y80.577 E1.36274
G1 X151.539 Y81.119 E1.38501
G1 X151.321 Y81.520 E1.40281
G1 X150.969 Y81.955 E1.42471
G1 X150.618 Y82.254 E1.44269
G1 X150.129 Y82.536 E1.46477
G1 X149.577 Y82.715 E1.48743
G1 X149.000 Y82.775 E1.51010
G1 X148.423 Y82.715 E1.53277
G1 X147.871 Y82.536 E1.55544
G1 X147.377 Y82.251 E1.57771
G1 X147.031 Y81.955 E1.59551
G1 X146.679 Y81.520 E1.61739
G1 X146.461 Y81.119 E1.63519
G1 X146.285 Y80.577 E1.65746
G1 X146.230 Y80.052 E1.67808
G1 X146.522 Y80.000 F7800.000
G1 X146.576 Y79.485 E1.69832 F270.000
G1 X146.736 Y78.992 E1.71856
G1 X146.989 Y78.553 E1.73837
G1 X147.252 Y78.244 E1.75423
G1 X147.645 Y77.926 E1.77399
G1 X147.998 Y77.734 E1.78967
G1 X148.485 Y77.576 E1.80966
G1 X148.989 Y77.523 E1.82947
G1 X149.393 Y77.554 E1.84533
G1 X149.888 Y77.686 E1.86534
G1 X150.350 Y77.922 E1.88558
G1 X150.748 Y78.244 E1.90559
G1 X151.011 Y78.553 E1.92145
G1 X151.264 Y78.992 E1.94126
G1 X151.424 Y79.485 E1.96149
G1 X151.478 Y80.000 E1.98174
G1 X151.424 Y80.515 E2.00198
G1 X151.266 Y81.002 E2.02198
G1 X151.074 Y81.355 E2.03766
G1 X150.756 Y81.748 E2.05742
G1 X150.447 Y82.011 E2.07328
G1 X150.008 Y82.264 E2.09309
G1 X149.515 Y82.424 E2.11332
G1 X149.000 Y82.478 E2.13357
G1 X148.485 Y82.424 E2.15381
G1 X147.992 Y82.264 E2.17405
G1 X147.549 Y82.008 E2.19405
G1 X147.244 Y81.747 E2.20973
G1 X146.926 Y81.355 E2.22948
G1 X146.734 Y81.002 E2.24516
G1 X146.576 Y80.515 E2.26515
G1 X146.527 Y80.052 E2.28335
G1 X146.819 Y80.000 F7800.000
G1 X146.867 Y79.547 E2.30116 F270.000
G1 X147.008 Y79.113 E2.31897
G1 X147.232 Y78.724 E2.33652
G1 X147.460 Y78.456 E2.35025
G1 X147.810 Y78.172 E2.36788
G1 X148.115 Y78.007 E2.38144
G1 X148.546 Y77.867 E2.39916
G1 X148.993 Y77.819 E2.41670
G1 X149.343 Y77.846 E2.43043
G1 X149.782 Y77.964 E2.44816
G1 X150.188 Y78.171 E2.46597
G1 X150.540 Y78.456 E2.48370
G1 X150.768 Y78.724 E2.49743
G1 X150.992 Y79.113 E2.51497
G1 X151.133 Y79.547 E2.53279
G1 X151.181 Y80.000 E2.55060
G1 X151.133 Y80.453 E2.56842
G1 X150.993 Y80.885 E2.58614
G1 X150.828 Y81.190 E2.59969
G1 X150.544 Y81.540 E2.61733
G1 X150.276 Y81.768 E2.63106
G1 X149.887 Y81.992 E2.64860
G1 X149.453 Y82.133 E2.66641
G1 X149.000 Y82.181 E2.68423
G1 X148.547 Y82.133 E2.70204
G1 X148.113 Y81.992 E2.71986
G1 X147.720 Y81.766 E2.73758
G1 X147.456 Y81.540 E2.75113
G1 X147.172 Y81.190 E2.76876
G1 X147.007 Y80.885 E2.78232
G1 X146.867 Y80.453 E2.80004
G1 X146.824 Y80.052 E2.81580
G1 X146.522 Y79.815 F7800.000
G1 E1.81580 F1800.00000
G92 E0
G1 X154.229 Y44.031 F7800.000
G1 E1.00000 F1800.00000
G1 X154.229 Y115.970 E3.81080 F900.000
G1 X154.198 Y116.358 E3.82604
G1 X154.154 Y116.567 E3.83436
G1 X154.031 Y116.915 E3.84878
G1 X153.931 Y117.109 E3.85732
G1 X153.730 Y117.401 E3.87115
G1 X153.483 Y117.661 E3.88519
G1 X153.313 Y117.799 E3.89373
G1 X153.003 Y117.989 E3.90794
G1 X152.803 Y118.077 E3.91649
G1 X152.453 Y118.181 E3.93073
G1 X151.980 Y118.229 E3.94933
G1 X20.010 Y118.229 E9.10566
G1 X19.255 Y118.209 E9.13516
G1 X18.513 Y118.151 E9.16426
G1 X17.774 Y118.053 E9.19337
G1 X17.070 Y117.923 E9.22135
G1 X16.317 Y117.743 E9.25161
G1 X15.603 Y117.532 E9.28068
G1 X14.901 Y117.283 E9.30979
G1 X14.213 Y116.998 E9.33889
G1 X13.566 Y116.690 E9.36688
G1 X12.885 Y116.322 E9.39713
G1 X12.251 Y115.933 E9.42621
G1 X11.637 Y115.511 E9.45531
G1 X11.046 Y115.058 E9.48442
G1 X10.479 Y114.574 E9.51353
G1 X9.960 Y114.081 E9.54151
G1 X9.426 Y113.520 E9.57176
G1 X8.942 Y112.954 E9.60084
G1 X8.489 Y112.363 E9.62995
G1 X8.083 Y111.773 E9.65793
G1 X7.677 Y111.114 E9.68818
G1 X7.322 Y110.460 E9.71726
G1 X7.002 Y109.787 E9.74637
G1 X6.717 Y109.099 E9.77547
G1 X6.468 Y108.397 E9.80458
G1 X6.256 Y107.683 E9.83368
G1 X6.082 Y106.958 E9.86279
G1 X5.947 Y106.226 E9.89189
G1 X5.849 Y105.487 E9.92100
G1 X5.791 Y104.745 E9.95010
G1 X5.771 Y103.990 E9.97960
G1 X5.771 Y56.010 E11.85428
G1 X5.791 Y55.255 E11.88378
G1 X5.849 Y54.513 E11.91288
G1 X5.947 Y53.774 E11.94199
G1 X6.082 Y53.042 E11.97109
G1 X6.256 Y52.317 E12.00020
G1 X6.468 Y51.603 E12.02930
G1 X6.707 Y50.928 E12.05729
G1 X7.002 Y50.212 E12.08754
G1 X7.322 Y49.540 E12.11662
G1 X7.678 Y48.886 E12.14572
G1 X8.067 Y48.251 E12.17483
G1 X8.488 Y47.637 E12.20391
G1 X8.961 Y47.024 E12.23416
G1 X9.426 Y46.479 E12.26214
G1 X9.939 Y45.939 E12.29125
G1 X10.479 Y45.426 E12.32036
G1 X11.046 Y44.942 E12.34946
G1 X11.637 Y44.489 E12.37857
G1 X12.227 Y44.083 E12.40655
G1 X12.886 Y43.677 E12.43680
G1 X13.540 Y43.322 E12.46588
G1 X14.213 Y43.002 E12.49499
G1 X14.901 Y42.717 E12.52409
G1 X15.603 Y42.468 E12.55320
G1 X16.290 Y42.264 E12.58118
G1 X17.042 Y42.082 E12.61144
G1 X17.774 Y41.947 E12.64051
G1 X18.513 Y41.849 E12.66962
G1 X19.255 Y41.791 E12.69872
G1 X20.010 Y41.771 E12.72822
G1 X151.986 Y41.771 E17.88478
G1 X152.233 Y41.784 E17.89445
G1 X152.463 Y41.821 E17.90357
G1 X152.906 Y41.965 E17.92176
G1 X153.297 Y42.189 E17.93936
G1 X153.582 Y42.433 E17.95403
G1 X153.868 Y42.787 E17.97181
G1 X154.080 Y43.202 E17.99000
G1 X154.197 Y43.636 E18.00760
G1 X154.225 Y43.978 E18.02101
G1 X154.524 Y44.019 F7800.000
G1 X154.524 Y115.981 E20.83273 F900.000
G1 X154.491 Y116.401 E20.84917
G1 X154.439 Y116.647 E20.85900
G1 X154.303 Y117.032 E20.87495
G1 X154.186 Y117.261 E20.88500
G1 X153.961 Y117.588 E20.90050
G1 X153.684 Y117.879 E20.91621
G1 X153.484 Y118.041 E20.92626
G1 X153.140 Y118.251 E20.94199
G1 X152.905 Y118.355 E20.95205
G1 X152.519 Y118.470 E20.96779
G1 X152.264 Y118.510 E20.97788
G1 X151.988 Y118.524 E20.98869
G1 X20.006 Y118.524 E26.14547
G1 X19.240 Y118.504 E26.17542
G1 X18.482 Y118.445 E26.20514
G1 X17.728 Y118.345 E26.23485
G1 X17.009 Y118.212 E26.26342
G1 X16.240 Y118.029 E26.29428
G1 X15.512 Y117.813 E26.32398
G1 X14.795 Y117.560 E26.35369
G1 X14.092 Y117.269 E26.38340
G1 X13.432 Y116.954 E26.41197
G1 X12.738 Y116.578 E26.44283
G1 X12.090 Y116.181 E26.47253
G1 X11.463 Y115.750 E26.50224
G1 X10.860 Y115.287 E26.53195
G1 X10.281 Y114.794 E26.56166
G1 X9.751 Y114.290 E26.59023
G1 X9.206 Y113.718 E26.62109
G1 X8.713 Y113.140 E26.65079
G1 X8.250 Y112.537 E26.68050
G1 X7.835 Y111.934 E26.70907
G1 X7.421 Y111.262 E26.73993
G1 X7.059 Y110.594 E26.76963
G1 X6.731 Y109.908 E26.79934
G1 X6.440 Y109.205 E26.82905
G1 X6.187 Y108.488 E26.85876
G1 X5.971 Y107.759 E26.88847
G1 X5.793 Y107.020 E26.91818
G1 X5.655 Y106.272 E26.94789
G1 X5.555 Y105.518 E26.97760
G1 X5.496 Y104.760 E27.00731
G1 X5.476 Y103.994 E27.03726
G1 X5.476 Y56.006 E28.91224
G1 X5.496 Y55.240 E28.94219
G1 X5.555 Y54.482 E28.97190
G1 X5.655 Y53.728 E29.00161
G1 X5.793 Y52.980 E29.03132
G1 X5.971 Y52.241 E29.06103
G1 X6.187 Y51.512 E29.09074
G1 X6.431 Y50.822 E29.11932
G1 X6.732 Y50.092 E29.15018
G1 X7.059 Y49.406 E29.17987
G1 X7.422 Y48.738 E29.20958
G1 X7.819 Y48.090 E29.23929
G1 X8.249 Y47.463 E29.26899
G1 X8.731 Y46.838 E29.29985
G1 X9.206 Y46.281 E29.32842
G1 X9.730 Y45.730 E29.35813
G1 X10.281 Y45.206 E29.38784
G1 X10.860 Y44.713 E29.41755
G1 X11.463 Y44.250 E29.44726
G1 X12.066 Y43.835 E29.47584
G1 X12.738 Y43.421 E29.50670
G1 X13.406 Y43.059 E29.53639
G1 X14.092 Y42.731 E29.56611
G1 X14.795 Y42.440 E29.59582
G1 X15.512 Y42.187 E29.62553
G1 X16.213 Y41.979 E29.65410
G1 X16.981 Y41.793 E29.68496
G1 X17.728 Y41.655 E29.71466
G1 X18.482 Y41.555 E29.74437
G1 X19.240 Y41.496 E29.77408
G1 X20.006 Y41.476 E29.80403
G1 X151.993 Y41.476 E34.96104
G1 X152.264 Y41.490 E34.97162
G1 X152.525 Y41.531 E34.98195
G1 X152.780 Y41.600 E34.99227
G1 X153.026 Y41.694 E35.00259
G1 X153.262 Y41.814 E35.01291
G1 X153.474 Y41.952 E35.02277
G1 X153.789 Y42.220 E35.03895
G1 X153.961 Y42.412 E35.04902
G1 X154.117 Y42.625 E35.05934
G1 X154.249 Y42.854 E35.06966
G1 X154.356 Y43.096 E35.07998
G1 X154.438 Y43.347 E35.09031
G1 X154.490 Y43.594 E35.10017
G1 X154.520 Y43.967 E35.11479
G1 X154.820 Y44.007 F7800.000
G1 X154.820 Y115.993 E37.92742 F540.000
G1 X154.785 Y116.443 E37.94508
G1 X154.724 Y116.727 E37.95642
G1 X154.575 Y117.149 E37.97389
G1 X154.440 Y117.413 E37.98546
G1 X154.191 Y117.774 E38.00262
G1 X153.885 Y118.097 E38.02000
G1 X153.655 Y118.283 E38.03157
G1 X153.278 Y118.513 E38.04881
G1 X153.007 Y118.633 E38.06039
G1 X152.584 Y118.759 E38.07763
G1 X152.295 Y118.804 E38.08908
G1 X151.995 Y118.820 E38.10079
G1 X20.002 Y118.820 E43.25803
G1 X19.224 Y118.800 E43.28844
G1 X18.451 Y118.739 E43.31876
G1 X17.682 Y118.637 E43.34907
G1 X16.948 Y118.501 E43.37824
G1 X16.164 Y118.315 E43.40971
G1 X15.420 Y118.095 E43.44001
G1 X14.689 Y117.836 E43.47033
G1 X13.972 Y117.539 E43.50064
G1 X13.298 Y117.217 E43.52982
G1 X12.590 Y116.834 E43.56128
G1 X11.928 Y116.429 E43.59159
G1 X11.289 Y115.990 E43.62190
G1 X10.674 Y115.517 E43.65222
G1 X10.084 Y115.013 E43.68254
G1 X9.542 Y114.499 E43.71171
G1 X8.987 Y113.916 E43.74317
G1 X8.483 Y113.326 E43.77348
G1 X8.010 Y112.711 E43.80379
G1 X7.588 Y112.096 E43.83297
G1 X7.165 Y111.410 E43.86443
G1 X6.795 Y110.728 E43.89474
G1 X6.461 Y110.028 E43.92506
G1 X6.164 Y109.311 E43.95537
G1 X5.905 Y108.580 E43.98569
