; generated by Slic3r 1.1.7 on 2016-10-11 at 14:59:12

; perimeters extrusion width = 0.40mm
; infill extrusion width = 0.42mm
; solid infill extrusion width = 0.42mm
; top infill extrusion width = 0.42mm

G21 ; set units to millimeters
M107
M190 S60 ; wait for bed temperature to be reached
M104 S185 ; set temperature
G28 ; home all axes
G1 Z5 F5000 ; lift nozzle
M109 S185 ; wait for temperature to be reached
G90 ; use absolute coordinates
G92 E0
M82 ; use absolute distances for extrusion
G1 F1800.000 E-1.00000
G92 E0
G1 Z0.400 F9000.000
G1 X15.665 Y46.999 F9000.000
G1 E1.00000 F1800.000
G1 X55.853 Y4.205 E7.81557 F960.000
G1 X56.177 Y3.988 E7.86087
G1 X57.516 Y3.433 E8.02911
G1 X58.623 Y3.286 E8.15879
G1 X131.348 Y3.357 E16.60186
G1 X131.730 Y3.433 E16.64716
G1 X133.069 Y3.988 E16.81540
G1 X133.394 Y4.205 E16.86070
G1 X134.418 Y5.229 E17.02895
G1 X134.635 Y5.554 E17.07425
G1 X135.190 Y6.893 E17.24249
G1 X135.337 Y8.000 E17.37218
G1 X135.266 Y140.725 E32.78103
G1 X134.276 Y145.699 E33.36991
G1 X133.722 Y147.038 E33.53815
G1 X130.904 Y151.256 E34.12704
G1 X129.879 Y152.281 E34.29528
G1 X125.662 Y155.099 E34.88416
G1 X124.323 Y155.653 E35.05241
G1 X118.623 Y156.714 E35.72546
G1 X69.899 Y156.643 E41.38221
G1 X64.924 Y155.653 E41.97109
G1 X63.585 Y155.099 E42.13935
G1 X59.324 Y152.251 E42.73431
G1 X16.270 Y122.596 E48.80368
G1 X15.122 Y121.326 E49.00245
G1 X14.663 Y119.537 E49.21685
G1 X14.663 Y49.537 E57.34360
G1 X15.057 Y47.871 E57.54237
G1 X15.631 Y47.048 E57.65881
G1 F1800.000 E56.65881
G92 E0
G1 X95.353 Y12.763 F9000.000
G1 E1.00000 F1800.000
G1 X94.623 Y12.908 E1.08642 F420.000
G1 X93.893 Y12.763 E1.17284
G1 X93.274 Y12.349 E1.25927
G1 X92.861 Y11.730 E1.34569
G1 X92.715 Y11.000 E1.43211
G1 X92.861 Y10.270 E1.51853
G1 X93.274 Y9.651 E1.60496
G1 X93.893 Y9.237 E1.69138
G1 X94.623 Y9.092 E1.77780
G1 X95.353 Y9.237 E1.86422
G1 X95.972 Y9.651 E1.95065
G1 X96.386 Y10.270 E2.03707
G1 X96.531 Y11.000 E2.12349
G1 X96.386 Y11.730 E2.20991
G1 X95.972 Y12.349 E2.29633
G1 X95.403 Y12.729 E2.37579
G1 X95.275 Y13.155 F9000.000
G1 X80.501 Y48.322 F9000.000
G1 X80.501 Y59.078 E3.62460 F600.000
G1 X62.345 Y59.078 E5.73252
G1 X62.345 Y48.322 E6.98132
G1 X80.441 Y48.322 E9.08227
G1 X79.787 Y49.036 F9000.000
G1 X79.787 Y58.364 E10.16526 F600.000
G1 X63.059 Y58.364 E12.10735
G1 X63.059 Y49.036 E13.19034
G1 X79.727 Y49.036 E15.12547
G1 X79.073 Y49.750 F9000.000
G1 X79.073 Y57.650 E16.04263 F420.000
G1 X63.773 Y57.650 E17.81890
G1 X63.773 Y49.750 E18.73606
G1 X79.013 Y49.750 E20.50537
G1 X79.473 Y49.750 F9000.000
G1 X80.501 Y61.922 F9000.000
G1 X80.501 Y72.678 E21.75418 F600.000
G1 X62.345 Y72.678 E23.86210
G1 X62.345 Y61.922 E25.11090
G1 X80.441 Y61.922 E27.21186
G1 X79.787 Y62.636 F9000.000
G1 X79.787 Y71.964 E28.29484 F600.000
G1 X63.059 Y71.964 E30.23694
G1 X63.059 Y62.636 E31.31992
G1 X79.727 Y62.636 E33.25505
G1 X79.073 Y63.350 F9000.000
G1 X79.073 Y71.250 E34.17221 F420.000
G1 X63.773 Y71.250 E35.94849
G1 X63.773 Y63.350 E36.86565
G1 X79.013 Y63.350 E38.63496
G1 X79.473 Y63.350 F9000.000
G1 F1800.000 E37.63496
G92 E0
G1 X75.457 Y97.978 F9000.000
G1 E1.00000 F1800.000
G1 X75.457 Y99.043 E1.12365 F600.000
G1 X75.947 Y99.371 E1.19213
G1 X76.659 Y100.437 E1.34100
G1 X76.910 Y101.695 E1.48987
G1 X76.659 Y102.953 E1.63875
G1 X76.073 Y103.830 E1.76124
G1 X76.803 Y104.025 E1.84894
G1 X77.389 Y104.224 E1.92075
G1 X78.680 Y105.087 E2.10099
G1 X79.610 Y106.480 E2.29550
G1 X79.901 Y107.943 E2.46871
G1 X79.901 Y127.957 E4.79222
G1 X79.610 Y129.420 E4.96543
G1 X78.680 Y130.813 E5.15995
G1 X77.389 Y131.676 E5.34019
G1 X76.803 Y131.875 E5.41198
G1 X76.073 Y132.070 E5.49969
G1 X76.659 Y132.947 E5.62218
G1 X76.910 Y134.205 E5.77106
G1 X76.659 Y135.463 E5.91993
G1 X75.947 Y136.529 E6.06880
G1 X74.881 Y137.241 E6.21768
G1 X73.623 Y137.491 E6.36655
G1 X72.365 Y137.241 E6.51543
G1 X71.299 Y136.529 E6.66430
G1 X70.587 Y135.463 E6.81318
G1 X70.337 Y134.205 E6.96205
G1 X70.587 Y132.947 E7.11093
G1 X70.955 Y132.397 E7.18783
G1 X69.614 Y132.130 E7.34652
G1 X68.403 Y131.320 E7.51567
G1 X67.593 Y130.109 E7.68483
G1 X67.345 Y128.860 E7.83266
G1 X67.345 Y107.040 E10.36590
G1 X67.593 Y105.791 E10.51374
G1 X68.403 Y104.580 E10.68289
G1 X69.614 Y103.770 E10.85204
G1 X70.955 Y103.503 E11.01073
G1 X70.587 Y102.953 E11.08763
G1 X70.337 Y101.695 E11.23651
G1 X70.587 Y100.437 E11.38538
G1 X71.299 Y99.371 E11.53425
G1 X72.365 Y98.659 E11.68313
G1 X73.195 Y98.494 E11.78133
G1 X73.144 Y97.978 E11.84144
G1 X64.295 Y97.978 E12.86884
G1 X64.295 Y77.672 E15.22636
G1 X81.151 Y77.672 E17.18336
G1 X81.151 Y97.978 E19.54089
G1 X75.517 Y97.978 E20.19506
G1 X80.437 Y97.264 F9000.000
G1 X65.009 Y97.264 E21.98624 F600.000
G1 X65.009 Y78.386 E24.17794
G1 X80.437 Y78.386 E25.96911
G1 X80.437 Y97.204 E28.15385
G1 X79.723 Y96.550 F9000.000
G1 X65.723 Y96.550 E29.77920 F420.000
G1 X65.723 Y79.100 E31.80508
G1 X79.723 Y79.100 E33.43043
G1 X79.723 Y96.490 E35.44935
G1 X79.723 Y96.950 F9000.000
G1 X74.478 Y104.142 F9000.000
G1 X76.596 Y104.709 E35.70390 F600.000
G1 X77.070 Y104.870 E35.76207
G1 X78.165 Y105.602 E35.91490
G1 X78.938 Y106.759 E36.07644
G1 X79.187 Y108.014 E36.22498
G1 X79.187 Y127.887 E38.53217
G1 X78.938 Y129.141 E38.68071
G1 X78.165 Y130.298 E38.84225
G1 X77.070 Y131.030 E38.99508
G1 X76.596 Y131.191 E39.05324
G1 X74.478 Y131.758 E39.30780
G1 X75.432 Y132.396 E39.44107
G1 X75.987 Y133.226 E39.55695
G1 X76.182 Y134.205 E39.67285
G1 X75.987 Y135.184 E39.78874
G1 X75.432 Y136.014 E39.90462
G1 X74.602 Y136.569 E40.02051
G1 X73.623 Y136.763 E40.13640
G1 X72.644 Y136.569 E40.25230
G1 X71.814 Y136.014 E40.36819
G1 X71.260 Y135.184 E40.48408
G1 X71.065 Y134.205 E40.59996
G1 X71.260 Y133.226 E40.71586
G1 X71.814 Y132.396 E40.83174
G1 X72.303 Y132.070 E40.89994
G1 X72.180 Y131.664 E40.94913
G1 X70.933 Y131.664 E41.09380
G1 X69.893 Y131.457 E41.21698
G1 X68.918 Y130.806 E41.35314
G1 X68.266 Y129.830 E41.48931
G1 X68.059 Y128.790 E41.61249
G1 X68.059 Y107.110 E44.12940
G1 X68.266 Y106.070 E44.25257
G1 X68.918 Y105.094 E44.38874
G1 X69.893 Y104.443 E44.52491
G1 X70.933 Y104.236 E44.64808
G1 X72.179 Y104.236 E44.79275
G1 X72.302 Y103.830 E44.84194
G1 X71.814 Y103.504 E44.91013
G1 X71.260 Y102.674 E45.02602
G1 X71.065 Y101.695 E45.14192
G1 X71.260 Y100.716 E45.25780
G1 X71.814 Y99.886 E45.37369
G1 X72.644 Y99.331 E45.48958
G1 X74.743 Y98.914 E45.73797
G1 X74.743 Y99.425 E45.79732
G1 X75.432 Y99.886 E45.89362
G1 X75.987 Y100.716 E46.00950
G1 X76.182 Y101.695 E46.12539
G1 X75.987 Y102.674 E46.24129
G1 X75.432 Y103.504 E46.35718
G1 X74.528 Y104.108 E46.48348
G1 X73.736 Y103.548 F9000.000
G1 X72.923 Y103.386 E46.57974 F420.000
G1 X72.329 Y102.989 E46.66265
G1 X71.932 Y102.395 E46.74555
G1 X71.793 Y101.695 E46.82846
G1 X71.932 Y100.995 E46.91136
G1 X72.329 Y100.401 E46.99427
G1 X72.923 Y100.004 E47.07717
G1 X74.028 Y99.784 E47.20804
G1 X74.028 Y99.945 E47.22676
G1 X74.324 Y100.004 E47.26170
G1 X74.917 Y100.401 E47.34461
G1 X75.314 Y100.995 E47.42751
G1 X75.453 Y101.695 E47.51042
G1 X75.314 Y102.395 E47.59332
G1 X74.917 Y102.989 E47.67623
G1 X73.736 Y103.779 E47.84117
G1 X73.736 Y103.608 E47.86101
G1 X73.788 Y103.151 F9000.000
G1 X74.500 Y104.950 F9000.000
G1 X74.961 Y105.011 E47.91498 F420.000
G1 X76.388 Y105.393 E48.08649
G1 X76.752 Y105.516 E48.13103
G1 X77.650 Y106.117 E48.25645
G1 X78.265 Y107.037 E48.38500
G1 X78.473 Y108.084 E48.50889
G1 X78.473 Y127.816 E50.79974
G1 X78.265 Y128.863 E50.92363
G1 X77.650 Y129.783 E51.05218
G1 X76.751 Y130.384 E51.17761
G1 X76.388 Y130.507 E51.22214
G1 X74.961 Y130.889 E51.39366
G1 X74.500 Y130.950 E51.44763
G1 X71.004 Y130.950 E51.85357
G1 X70.171 Y130.784 E51.95209
G1 X69.432 Y130.291 E52.05527
G1 X68.939 Y129.552 E52.15846
G1 X68.773 Y128.719 E52.25697
G1 X68.773 Y107.181 E54.75755
G1 X68.939 Y106.348 E54.85607
G1 X69.432 Y105.609 E54.95925
G1 X70.171 Y105.116 E55.06244
G1 X71.004 Y104.950 E55.16095
G1 X74.440 Y104.950 E55.55993
G1 X74.669 Y105.313 F9000.000
G1 F1800.000 E54.55993
G92 E0
G1 X73.623 Y132.375 F9000.000
G1 E1.00000 F1800.000
G1 X74.324 Y132.514 E1.08291 F420.000
G1 X74.917 Y132.911 E1.16581
G1 X75.314 Y133.505 E1.24872
G1 X75.453 Y134.205 E1.33163
G1 X75.314 Y134.905 E1.41453
G1 X74.917 Y135.499 E1.49743
G1 X74.324 Y135.896 E1.58034
G1 X73.756 Y136.009 E1.64757
G1 X73.623 Y136.035 E1.66325
G1 X72.923 Y135.896 E1.74615
G1 X72.329 Y135.499 E1.82906
G1 X71.932 Y134.905 E1.91196
G1 X71.793 Y134.205 E1.99487
G1 X71.932 Y133.505 E2.07778
G1 X72.329 Y132.911 E2.16068
G1 X72.923 Y132.514 E2.24359
G1 X73.564 Y132.387 E2.31953
G1 X73.845 Y132.042 F9000.000
G1 X93.274 Y147.651 F9000.000
G1 X93.893 Y147.237 E2.40595 F420.000
G1 X94.623 Y147.092 E2.49237
G1 X95.353 Y147.237 E2.57880
G1 X95.972 Y147.651 E2.66522
G1 X96.386 Y148.270 E2.75164
G1 X96.531 Y149.000 E2.83806
G1 X96.386 Y149.730 E2.92448
G1 X95.972 Y150.349 E3.01091
G1 X95.353 Y150.763 E3.09733
G1 X94.623 Y150.908 E3.18375
G1 X93.893 Y150.763 E3.27017
G1 X93.274 Y150.349 E3.35659
G1 X92.861 Y149.730 E3.44302
G1 X92.715 Y149.000 E3.52944
G1 X92.861 Y148.270 E3.61586
G1 X93.241 Y147.701 E3.69531
G1 X93.196 Y147.259 F9000.000
G1 X92.106 Y151.172 F9000.000
G1 X70.803 Y151.172 E6.16847 F600.000
G1 X66.362 Y150.288 E6.69423
G1 X62.749 Y147.874 E7.19867
G1 X60.335 Y144.262 E7.70310
G1 X59.451 Y139.820 E8.22886
G1 X59.451 Y8.828 E23.43651
G1 X92.106 Y8.828 E27.22757
G1 X91.515 Y9.713 E27.35105
G1 X91.259 Y11.000 E27.50344
G1 X91.515 Y12.287 E27.65582
G1 X92.244 Y13.379 E27.80822
G1 X93.336 Y14.108 E27.96061
G1 X94.623 Y14.364 E28.11300
G1 X95.911 Y14.108 E28.26539
G1 X96.262 Y13.874 E28.31441
G1 X97.002 Y13.379 E28.41778
G1 X97.731 Y12.287 E28.57017
G1 X97.987 Y11.000 E28.72256
G1 X97.731 Y9.713 E28.87495
G1 X97.140 Y8.828 E28.99842
G1 X129.795 Y8.828 E32.78948
G1 X129.807 Y139.759 E47.99009
G1 X128.911 Y144.262 E48.52303
G1 X126.497 Y147.874 E49.02746
G1 X122.885 Y150.288 E49.53190
G1 X118.443 Y151.172 E50.05766
G1 X97.140 Y151.172 E52.53082
G1 X97.731 Y150.287 E52.65431
G1 X97.987 Y149.000 E52.80668
G1 X97.731 Y147.713 E52.95907
G1 X97.002 Y146.621 E53.11145
G1 X95.911 Y145.892 E53.26384
G1 X94.623 Y145.636 E53.41624
G1 X93.336 Y145.892 E53.56864
G1 X92.244 Y146.621 E53.72103
G1 X91.515 Y147.713 E53.87341
G1 X91.259 Y149.000 E54.02580
G1 X91.515 Y150.287 E54.17817
G1 X92.073 Y151.122 E54.29469
G1 X93.682 Y151.480 F9000.000
G1 X93.559 Y151.886 E54.34389 F600.000
G1 X70.733 Y151.886 E56.99390
G1 X66.083 Y150.961 E57.54431
G1 X62.234 Y148.389 E58.08174
G1 X59.662 Y144.540 E58.61916
G1 X58.737 Y139.890 E59.16957
G1 X58.737 Y8.114 E74.46830
G1 X93.559 Y8.114 E78.51095
G1 X93.682 Y8.520 E78.56014
G1 X92.759 Y9.136 E78.68896
G1 X92.188 Y9.991 E78.80837
G1 X91.987 Y11.000 E78.92777
G1 X92.188 Y12.009 E79.04718
G1 X92.759 Y12.864 E79.16658
G1 X93.614 Y13.435 E79.28599
G1 X94.623 Y13.636 E79.40539
G1 X95.632 Y13.435 E79.52480
G1 X96.487 Y12.864 E79.64421
G1 X97.058 Y12.009 E79.76362
G1 X97.259 Y11.000 E79.88302
G1 X97.058 Y9.991 E80.00243
G1 X96.487 Y9.136 E80.12183
G1 X95.565 Y8.520 E80.25065
G1 X95.688 Y8.114 E80.29984
G1 X130.509 Y8.114 E84.34249
G1 X130.509 Y139.890 E99.64122
G1 X129.584 Y144.540 E100.19163
G1 X127.012 Y148.389 E100.72905
G1 X123.163 Y150.961 E101.26647
G1 X118.513 Y151.886 E101.81689
G1 X95.687 Y151.886 E104.46690
G1 X95.564 Y151.480 E104.51610
G1 X96.487 Y150.864 E104.64492
G1 X97.058 Y150.009 E104.76433
G1 X97.259 Y149.000 E104.88373
G1 X97.058 Y147.991 E105.00313
G1 X96.487 Y147.136 E105.12253
G1 X95.632 Y146.565 E105.24194
G1 X94.623 Y146.364 E105.36135
G1 X93.614 Y146.565 E105.48076
G1 X92.759 Y147.136 E105.60017
G1 X92.188 Y147.991 E105.71957
G1 X91.987 Y149.000 E105.83897
G1 X92.188 Y150.009 E105.95837
G1 X92.759 Y150.864 E106.07779
G1 X93.632 Y151.447 E106.19964
G1 X70.663 Y152.600 F9000.000
G1 X65.804 Y151.634 E106.77471 F420.000
G1 X61.719 Y148.904 E107.34512
G1 X58.990 Y144.819 E107.91552
G1 X58.023 Y139.961 E108.49059
G1 X58.023 Y8.039 E123.80617
G1 X58.076 Y7.773 E123.83766
G1 X58.204 Y7.581 E123.86448
G1 X58.397 Y7.453 E123.89130
G1 X58.663 Y7.400 E123.92279
G1 X130.584 Y7.400 E132.27258
G1 X130.850 Y7.453 E132.30407
G1 X131.042 Y7.581 E132.33089
G1 X131.170 Y7.773 E132.35772
G1 X131.223 Y8.039 E132.38921
G1 X131.223 Y139.961 E147.70478
G1 X130.257 Y144.819 E148.27985
G1 X127.527 Y148.904 E148.85025
G1 X123.442 Y151.634 E149.42066
G1 X118.584 Y152.600 E149.99573
G1 X70.723 Y152.600 E155.55225
G1 X70.509 Y152.230 F9000.000
G1 X63.195 Y147.573 F9000.000
G1 X63.050 Y147.428 E155.57605 F960.000
G1 X61.013 Y144.380 F9000.000
G1 X66.243 Y149.610 E156.43473 F960.000
G1 X67.689 Y150.045 E156.61001
G1 X60.578 Y142.934 E157.77742
G1 X60.327 Y141.672 E157.92687
G1 X68.951 Y150.296 E159.34281
G1 X70.214 Y150.547 E159.49226
G1 X60.076 Y140.409 E161.15672
G1 X59.949 Y139.271 E161.28971
G1 X71.352 Y150.674 E163.16193
G1 X72.364 Y150.674 E163.27935
G1 X59.949 Y138.259 E165.31763
G1 X59.949 Y137.248 E165.43506
G1 X73.375 Y150.674 E167.63940
G1 X74.387 Y150.674 E167.75682
G1 X59.949 Y136.237 E170.12723
G1 X59.949 Y135.225 E170.24465
G1 X75.398 Y150.674 E172.78112
G1 X76.409 Y150.674 E172.89855
G1 X59.949 Y134.214 E175.60108
G1 X59.949 Y133.202 E175.71850
G1 X77.421 Y150.674 E178.58710
G1 X78.432 Y150.674 E178.70452
G1 X59.949 Y132.191 E181.73918
G1 X59.949 Y131.179 E181.85660
G1 X79.444 Y150.674 E185.05732
G1 X80.455 Y150.674 E185.17475
G1 X59.949 Y130.168 E188.54153
G1 X59.949 Y129.156 E188.65895
G1 X81.467 Y150.674 E192.19180
G1 X82.478 Y150.674 E192.30922
G1 X59.949 Y128.145 E196.00813
G1 X59.949 Y127.134 E196.12555
G1 X83.490 Y150.674 E199.99052
G1 X84.501 Y150.674 E200.10794
G1 X59.949 Y126.122 E204.13898
G1 X59.949 Y125.111 E204.25640
G1 X70.024 Y135.186 E205.91056
G1 X69.867 Y134.017 F9000.000
G1 X59.949 Y124.099 E207.53885 F960.000
G1 X59.949 Y123.088 E207.65628
G1 X67.114 Y130.253 E208.83270
G1 X66.863 Y128.990 E208.98215
G1 X59.949 Y122.076 E210.11733
G1 X59.949 Y121.065 E210.23476
G1 X66.847 Y127.963 E211.36729
G1 X66.847 Y126.951 E211.48471
G1 X59.949 Y120.054 E212.61724
G1 X59.949 Y119.042 E212.73466
G1 X66.847 Y125.940 E213.86719
G1 X66.847 Y124.929 E213.98461
G1 X59.949 Y118.031 E215.11714
G1 X59.949 Y117.019 E215.23456
G1 X66.847 Y123.917 E216.36709
G1 X66.847 Y122.906 E216.48452
G1 X59.949 Y116.008 E217.61705
G1 X59.949 Y114.996 E217.73447
G1 X66.847 Y121.894 E218.86700
G1 X66.847 Y120.883 E218.98442
G1 X59.949 Y113.985 E220.11695
G1 X59.949 Y112.974 E220.23437
G1 X66.847 Y119.871 E221.36690
G1 X66.847 Y118.860 E221.48433
G1 X59.949 Y111.962 E222.61685
G1 X59.949 Y110.951 E222.73428
G1 X66.847 Y117.849 E223.86681
G1 X66.847 Y116.837 E223.98423
G1 X59.949 Y109.939 E225.11676
G1 X59.949 Y108.928 E225.23418
G1 X66.847 Y115.826 E226.36671
G1 X66.847 Y114.814 E226.48413
G1 X59.949 Y107.916 E227.61666
G1 X59.949 Y106.905 E227.73409
G1 X66.847 Y113.803 E228.86661
G1 X66.847 Y112.791 E228.98404
G1 X59.949 Y105.893 E230.11657
G1 X59.949 Y104.882 E230.23399
G1 X66.847 Y111.780 E231.36652
G1 X66.847 Y110.768 E231.48394
G1 X59.949 Y103.871 E232.61647
G1 X59.949 Y102.859 E232.73389
G1 X66.847 Y109.757 E233.86642
G1 X66.847 Y108.746 E233.98385
G1 X59.949 Y101.848 E235.11637
G1 X59.949 Y100.836 E235.23380
G1 X66.847 Y107.734 E236.36633
G1 X66.892 Y106.767 E236.47870
G1 X59.949 Y99.825 E237.61854
G1 X59.949 Y98.813 E237.73596
G1 X67.059 Y105.924 E238.90334
G1 X67.373 Y105.225 E238.99219
G1 X59.949 Y97.802 E240.21100
G1 X59.949 Y96.791 E240.32842
G1 X67.778 Y104.619 E241.61374
G1 X68.252 Y104.082 E241.69693
G1 X59.949 Y95.779 E243.06010
G1 X59.949 Y94.768 E243.17753
G1 X68.858 Y103.677 E244.64024
G1 X71.140 Y98.879 F9000.000
G1 X70.738 Y98.476 E244.70635 F960.000
G1 X69.726 Y98.476 E244.82377
G1 X70.669 Y99.419 E244.97854
G1 X70.264 Y100.025 E245.06319
G1 X68.715 Y98.476 E245.31750
G1 X67.703 Y98.476 E245.43493
G1 X70.010 Y100.783 E245.81373
G1 X69.843 Y101.627 E245.91359
G1 X66.692 Y98.476 E246.43090
G1 X65.680 Y98.476 E246.54832
G1 X70.060 Y102.856 E247.26738
G1 X69.482 Y103.289 E247.35125
G1 X64.669 Y98.476 E248.14145
G1 X63.797 Y97.604 F9000.000
G1 X59.949 Y93.756 E248.77322 F960.000
G1 X59.949 Y92.745 E248.89064
G1 X63.797 Y96.593 E249.52240
