; generated by Slic3r 1.2.9 on 2019-06-10 at 09:58:23

; external perimeters extrusion width = 0.35mm
; perimeters extrusion width = 0.44mm
; infill extrusion width = 0.44mm
; solid infill extrusion width = 0.44mm
; top infill extrusion width = 0.44mm

M107
M190 S100 ; set bed temperature
M104 S240 ; set temperature
G28 ; home all axes
G1 Z5 F5000 ; lift nozzle
M109 S240 ; wait for temperature to be reached
G21 ; set units to millimeters
G90 ; use absolute coordinates
M82 ; use absolute distances for extrusion
G92 E0
G1 E-1.00000 F1800.00000
G92 E0
G1 Z0.300 F7800.000
G1 X7.295 Y39.763 F7800.000
G1 E1.00000 F1800.00000
G1 X7.585 Y39.725 E1.01144 F1080.000
G1 X8.000 Y39.704 E1.02768
G1 X140.000 Y39.704 E6.18519
G1 X140.887 Y39.729 E6.21985
G1 X141.737 Y39.798 E6.25318
G1 X142.583 Y39.911 E6.28652
G1 X143.421 Y40.068 E6.31985
G1 X144.250 Y40.269 E6.35318
G1 X145.068 Y40.513 E6.38652
G1 X145.898 Y40.810 E6.42099
G1 X146.659 Y41.127 E6.45318
G1 X147.368 Y41.465 E6.48387
G1 X148.118 Y41.871 E6.51720
G1 X148.903 Y42.352 E6.55318
G1 X149.606 Y42.837 E6.58652
G1 X150.281 Y43.357 E6.61984
G1 X150.878 Y43.868 E6.65053
G1 X151.498 Y44.454 E6.68387
G1 X152.132 Y45.122 E6.71985
G1 X152.643 Y45.719 E6.75054
G1 X153.163 Y46.394 E6.78386
G1 X153.648 Y47.097 E6.81720
G1 X154.095 Y47.823 E6.85053
G1 X154.535 Y48.632 E6.88651
G1 X154.911 Y49.430 E6.92100
G1 X155.225 Y50.192 E6.95318
G1 X155.487 Y50.932 E6.98386
G1 X155.731 Y51.750 E7.01720
G1 X155.946 Y52.645 E7.05316
G1 X156.100 Y53.484 E7.08651
G1 X156.209 Y54.330 E7.11984
G1 X156.275 Y55.181 E7.15317
G1 X156.296 Y56.000 E7.18519
G1 X156.296 Y104.000 E9.06065
G1 X156.275 Y104.819 E9.09266
G1 X156.209 Y105.670 E9.12599
G1 X156.100 Y106.516 E9.15932
G1 X155.946 Y107.355 E9.19267
G1 X155.749 Y108.185 E9.22598
G1 X155.508 Y109.003 E9.25932
G1 X155.225 Y109.808 E9.29266
G1 X154.900 Y110.597 E9.32600
G1 X154.535 Y111.368 E9.35932
G1 X154.129 Y112.118 E9.39265
G1 X153.648 Y112.903 E9.42863
G1 X153.163 Y113.606 E9.46197
G1 X152.642 Y114.281 E9.49529
G1 X152.132 Y114.878 E9.52598
G1 X151.546 Y115.499 E9.55932
G1 X150.878 Y116.132 E9.59530
G1 X150.229 Y116.685 E9.62863
G1 X149.606 Y117.163 E9.65932
G1 X148.903 Y117.648 E9.69265
G1 X148.177 Y118.095 E9.72598
G1 X147.368 Y118.535 E9.76197
G1 X146.659 Y118.873 E9.79265
G1 X145.899 Y119.189 E9.82483
G1 X145.068 Y119.487 E9.85931
G1 X144.250 Y119.731 E9.89265
G1 X143.355 Y119.946 E9.92863
G1 X142.516 Y120.100 E9.96196
G1 X141.737 Y120.202 E9.99265
G1 X140.887 Y120.271 E10.02598
G1 X140.000 Y120.296 E10.06064
G1 X8.000 Y120.296 E15.21815
G1 X7.518 Y120.268 E15.23703
G1 X7.074 Y120.194 E15.25461
G1 X6.640 Y120.074 E15.27218
G1 X6.080 Y119.842 E15.29587
G1 X5.632 Y119.584 E15.31608
G1 X5.151 Y119.215 E15.33977
G1 X4.785 Y118.849 E15.35999
G1 X4.416 Y118.368 E15.38369
G1 X4.158 Y117.920 E15.40388
G1 X3.925 Y117.359 E15.42759
G1 X3.792 Y116.860 E15.44780
G1 X3.732 Y116.483 E15.46272
G1 X3.709 Y116.191 E15.47414
G1 X3.705 Y43.966 E18.29612
G1 X3.725 Y43.585 E18.31105
G1 X3.764 Y43.289 E18.32271
G1 X3.860 Y42.856 E18.34004
G1 X3.978 Y42.492 E18.35497
G1 X4.090 Y42.222 E18.36640
G1 X4.297 Y41.823 E18.38396
G1 X4.505 Y41.503 E18.39889
G1 X4.683 Y41.271 E18.41032
G1 X4.939 Y40.987 E18.42524
G1 X5.156 Y40.781 E18.43691
G1 X5.503 Y40.505 E18.45425
G1 X5.823 Y40.297 E18.46917
G1 X6.080 Y40.158 E18.48060
G1 X6.492 Y39.978 E18.49817
G1 X6.856 Y39.860 E18.51309
G1 X7.243 Y39.773 E18.52860
G1 E17.52860 F1800.00000
G92 E0
G1 X21.229 Y107.771 F7800.000
G1 E1.00000 F1800.00000
G1 X21.229 Y52.229 E3.17016 F900.000
G1 X138.771 Y52.229 E7.76279
G1 X138.771 Y107.771 E9.93295
G1 X21.281 Y107.771 E14.52353
G1 X21.524 Y107.476 F7800.000
G1 X21.524 Y52.524 E16.67059 F900.000
G1 X138.476 Y52.524 E21.24012
G1 X138.476 Y107.476 E23.38718
G1 X21.577 Y107.476 E27.95465
G1 X21.820 Y107.180 F7800.000
G1 X21.820 Y52.820 E30.07861 F540.000
G1 X138.180 Y52.820 E34.62504
G1 X138.180 Y107.180 E36.74900
G1 X21.873 Y107.180 E41.29337
G1 X21.470 Y107.180 F7800.000
G1 E40.29337 F1800.00000
G92 E0
G1 X8.021 Y118.229 F7800.000
G1 E1.00000 F1800.00000
G1 X7.772 Y118.215 E1.00972 F900.000
G1 X7.424 Y118.151 E1.02357
G1 X7.090 Y118.032 E1.03742
G1 X6.695 Y117.805 E1.05522
G1 X6.426 Y117.574 E1.06906
G1 X6.192 Y117.301 E1.08312
G1 X6.076 Y117.122 E1.09145
G1 X5.919 Y116.793 E1.10568
G1 X5.802 Y116.358 E1.12328
G1 X5.771 Y115.970 E1.13852
G1 X5.771 Y44.020 E3.94974
G1 X5.784 Y43.777 E3.95924
G1 X5.851 Y43.414 E3.97368
G1 X5.917 Y43.211 E3.98200
G1 X6.076 Y42.878 E3.99645
G1 X6.192 Y42.699 E4.00477
G1 X6.426 Y42.426 E4.01882
G1 X6.695 Y42.195 E4.03266
G1 X6.878 Y42.076 E4.04121
G1 X7.207 Y41.919 E4.05542
G1 X7.642 Y41.802 E4.07303
G1 X8.030 Y41.771 E4.08826
G1 X140.019 Y41.772 E9.24535
G1 X140.745 Y41.791 E9.27369
G1 X141.487 Y41.849 E9.30280
G1 X142.226 Y41.947 E9.33191
G1 X142.958 Y42.082 E9.36101
G1 X143.683 Y42.256 E9.39012
G1 X144.397 Y42.468 E9.41922
G1 X145.099 Y42.717 E9.44833
G1 X145.787 Y43.002 E9.47743
G1 X146.460 Y43.322 E9.50654
G1 X147.114 Y43.678 E9.53565
G1 X147.725 Y44.052 E9.56363
G1 X148.364 Y44.489 E9.59388
G1 X148.954 Y44.942 E9.62296
G1 X149.521 Y45.426 E9.65207
G1 X150.061 Y45.939 E9.68117
G1 X150.574 Y46.479 E9.71028
G1 X151.058 Y47.046 E9.73938
G1 X151.511 Y47.637 E9.76849
G1 X151.933 Y48.251 E9.79759
G1 X152.322 Y48.886 E9.82670
G1 X152.678 Y49.540 E9.85580
G1 X152.998 Y50.213 E9.88491
G1 X153.283 Y50.900 E9.91399
G1 X153.540 Y51.631 E9.94424
G1 X153.744 Y52.317 E9.97222
G1 X153.918 Y53.042 E10.00133
G1 X154.053 Y53.774 E10.03044
G1 X154.151 Y54.513 E10.05954
G1 X154.209 Y55.255 E10.08865
G1 X154.229 Y56.010 E10.11815
G1 X154.229 Y103.990 E11.99282
G1 X154.209 Y104.745 E12.02232
G1 X154.151 Y105.487 E12.05142
G1 X154.053 Y106.226 E12.08053
G1 X153.918 Y106.958 E12.10963
G1 X153.744 Y107.683 E12.13874
G1 X153.532 Y108.397 E12.16784
G1 X153.283 Y109.099 E12.19695
G1 X152.999 Y109.787 E12.22603
G1 X152.664 Y110.485 E12.25628
G1 X152.322 Y111.114 E12.28427
G1 X151.933 Y111.749 E12.31337
G1 X151.511 Y112.363 E12.34248
G1 X151.058 Y112.954 E12.37158
G1 X150.574 Y113.521 E12.40069
G1 X150.061 Y114.061 E12.42979
G1 X149.521 Y114.574 E12.45890
G1 X148.954 Y115.058 E12.48800
G1 X148.363 Y115.511 E12.51711
G1 X147.749 Y115.933 E12.54621
G1 X147.114 Y116.322 E12.57532
G1 X146.460 Y116.678 E12.60442
G1 X145.787 Y116.998 E12.63353
G1 X145.126 Y117.272 E12.66152
G1 X144.396 Y117.532 E12.69177
G1 X143.683 Y117.744 E12.72085
G1 X142.958 Y117.918 E12.74995
G1 X142.226 Y118.053 E12.77906
G1 X141.487 Y118.151 E12.80816
G1 X140.745 Y118.209 E12.83727
G1 X139.990 Y118.229 E12.86677
G1 X8.073 Y118.229 E18.02103
G1 X8.013 Y118.524 F7800.000
G1 X7.737 Y118.510 E18.03181 F900.000
G1 X7.347 Y118.437 E18.04732
G1 X6.973 Y118.305 E18.06282
G1 X6.738 Y118.186 E18.07311
G1 X6.518 Y118.042 E18.08339
G1 X6.216 Y117.784 E18.09889
G1 X5.955 Y117.478 E18.11461
G1 X5.818 Y117.267 E18.12445
G1 X5.644 Y116.903 E18.14019
G1 X5.562 Y116.653 E18.15049
G1 X5.509 Y116.401 E18.16055
G1 X5.476 Y115.981 E18.17700
G1 X5.476 Y44.012 E20.98897
G1 X5.490 Y43.742 E20.99954
G1 X5.564 Y43.341 E21.01550
G1 X5.642 Y43.102 E21.02533
G1 X5.818 Y42.733 E21.04129
G1 X5.955 Y42.522 E21.05112
G1 X6.216 Y42.216 E21.06684
G1 X6.518 Y41.958 E21.08233
G1 X6.733 Y41.818 E21.09240
G1 X7.097 Y41.644 E21.10812
G1 X7.347 Y41.562 E21.11843
G1 X7.599 Y41.509 E21.12849
G1 X8.019 Y41.476 E21.14493
G1 X140.023 Y41.476 E26.30263
G1 X140.760 Y41.496 E26.33143
G1 X141.518 Y41.555 E26.36114
G1 X142.272 Y41.655 E26.39085
G1 X143.020 Y41.793 E26.42056
G1 X143.759 Y41.971 E26.45027
G1 X144.488 Y42.187 E26.47998
G1 X145.205 Y42.440 E26.50969
G1 X145.907 Y42.731 E26.53940
G1 X146.594 Y43.059 E26.56911
G1 X147.262 Y43.422 E26.59882
G1 X147.886 Y43.804 E26.62740
G1 X148.537 Y44.250 E26.65826
G1 X149.140 Y44.713 E26.68795
G1 X149.719 Y45.206 E26.71766
G1 X150.270 Y45.730 E26.74737
G1 X150.794 Y46.281 E26.77708
G1 X151.287 Y46.860 E26.80679
G1 X151.750 Y47.463 E26.83651
G1 X152.181 Y48.090 E26.86622
G1 X152.578 Y48.738 E26.89593
G1 X152.941 Y49.406 E26.92564
G1 X153.269 Y50.092 E26.95535
G1 X153.559 Y50.795 E26.98504
G1 X153.822 Y51.540 E27.01590
G1 X154.029 Y52.241 E27.04448
G1 X154.207 Y52.980 E27.07419
G1 X154.345 Y53.728 E27.10390
G1 X154.445 Y54.482 E27.13361
G1 X154.504 Y55.240 E27.16332
G1 X154.524 Y56.006 E27.19327
G1 X154.524 Y103.994 E29.06824
G1 X154.504 Y104.760 E29.09820
G1 X154.445 Y105.518 E29.12791
G1 X154.345 Y106.272 E29.15762
G1 X154.207 Y107.020 E29.18733
G1 X154.029 Y107.759 E29.21704
G1 X153.813 Y108.488 E29.24675
G1 X153.560 Y109.205 E29.27646
G1 X153.269 Y109.907 E29.30615
G1 X152.927 Y110.619 E29.33701
G1 X152.578 Y111.262 E29.36559
G1 X152.181 Y111.910 E29.39530
G1 X151.750 Y112.537 E29.42501
G1 X151.287 Y113.140 E29.45472
G1 X150.794 Y113.719 E29.48443
G1 X150.270 Y114.270 E29.51414
G1 X149.719 Y114.794 E29.54385
G1 X149.140 Y115.287 E29.57356
G1 X148.537 Y115.750 E29.60327
G1 X147.910 Y116.181 E29.63298
G1 X147.262 Y116.578 E29.66270
G1 X146.594 Y116.941 E29.69240
G1 X145.907 Y117.269 E29.72212
G1 X145.232 Y117.548 E29.75069
G1 X144.488 Y117.813 E29.78155
G1 X143.759 Y118.029 E29.81124
G1 X143.020 Y118.207 E29.84095
G1 X142.272 Y118.345 E29.87067
G1 X141.518 Y118.445 E29.90038
G1 X140.760 Y118.504 E29.93009
G1 X139.994 Y118.524 E29.96004
G1 X8.065 Y118.524 E35.11476
G1 X8.005 Y118.820 F7800.000
G1 X7.702 Y118.804 E35.12661 F540.000
G1 X7.270 Y118.723 E35.14377
G1 X6.856 Y118.577 E35.16093
G1 X6.590 Y118.442 E35.17259
G1 X6.340 Y118.279 E35.18425
G1 X6.006 Y117.994 E35.20140
G1 X5.717 Y117.655 E35.21878
G1 X5.559 Y117.412 E35.23013
G1 X5.369 Y117.014 E35.24738
G1 X5.276 Y116.730 E35.25905
G1 X5.215 Y116.443 E35.27048
G1 X5.180 Y115.993 E35.28814
G1 X5.180 Y44.005 E38.10087
G1 X5.196 Y43.708 E38.11249
G1 X5.277 Y43.268 E38.12996
G1 X5.367 Y42.992 E38.14131
G1 X5.559 Y42.588 E38.15878
G1 X5.717 Y42.345 E38.17013
G1 X6.006 Y42.006 E38.18751
G1 X6.340 Y41.721 E38.20467
G1 X6.588 Y41.559 E38.21624
G1 X6.986 Y41.369 E38.23348
G1 X7.270 Y41.276 E38.24515
G1 X7.557 Y41.215 E38.25659
G1 X8.007 Y41.180 E38.27424
G1 X140.027 Y41.181 E43.43254
G1 X140.776 Y41.200 E43.46179
G1 X141.549 Y41.261 E43.49211
G1 X142.318 Y41.363 E43.52243
G1 X143.081 Y41.504 E43.55274
G1 X143.836 Y41.685 E43.58306
G1 X144.580 Y41.905 E43.61337
G1 X145.311 Y42.164 E43.64369
G1 X146.028 Y42.461 E43.67400
G1 X146.728 Y42.795 E43.70432
G1 X147.410 Y43.166 E43.73463
G1 X148.047 Y43.556 E43.76380
G1 X148.711 Y44.011 E43.79527
G1 X149.326 Y44.483 E43.82558
G1 X149.917 Y44.987 E43.85589
G1 X150.479 Y45.521 E43.88621
G1 X151.013 Y46.084 E43.91652
G1 X151.517 Y46.674 E43.94684
G1 X151.990 Y47.289 E43.97716
G1 X152.429 Y47.928 E44.00747
G1 X152.834 Y48.590 E44.03778
G1 X153.205 Y49.272 E44.06810
G1 X153.539 Y49.972 E44.09842
G1 X153.836 Y50.689 E44.12872
G1 X154.103 Y51.448 E44.16019
G1 X154.315 Y52.164 E44.18936
G1 X154.496 Y52.919 E44.21967
G1 X154.637 Y53.682 E44.24999
G1 X154.739 Y54.451 E44.28031
G1 X154.800 Y55.224 E44.31062
G1 X154.820 Y56.002 E44.34103
G1 X154.820 Y103.998 E46.21630
G1 X154.800 Y104.776 E46.24671
G1 X154.739 Y105.549 E46.27703
G1 X154.637 Y106.318 E46.30734
G1 X154.496 Y107.081 E46.33766
G1 X154.315 Y107.836 E46.36797
G1 X154.095 Y108.580 E46.39829
G1 X153.836 Y109.311 E46.42860
G1 X153.539 Y110.028 E46.45891
G1 X153.191 Y110.754 E46.49038
G1 X152.834 Y111.410 E46.51955
G1 X152.429 Y112.072 E46.54986
G1 X151.990 Y112.711 E46.58018
G1 X151.517 Y113.326 E46.61049
G1 X151.013 Y113.916 E46.64081
G1 X150.479 Y114.479 E46.67113
G1 X149.917 Y115.013 E46.70144
G1 X149.326 Y115.517 E46.73176
G1 X148.711 Y115.990 E46.76207
G1 X148.072 Y116.429 E46.79239
G1 X147.410 Y116.834 E46.82270
G1 X146.728 Y117.205 E46.85302
G1 X146.028 Y117.539 E46.88333
G1 X145.338 Y117.824 E46.91250
G1 X144.579 Y118.095 E46.94397
G1 X143.836 Y118.315 E46.97428
G1 X143.081 Y118.496 E47.00459
G1 X142.318 Y118.637 E47.03491
G1 X141.549 Y118.739 E47.06522
G1 X140.776 Y118.800 E47.09554
G1 X139.998 Y118.820 E47.12595
G1 X8.057 Y118.820 E52.28113
G1 X7.863 Y118.552 F7800.000
G1 X7.631 Y118.005 F7800.000
G1 X5.990 Y116.364 E52.37181 F360.000
G1 X5.940 Y115.896 E52.39023
G1 X8.104 Y118.060 E52.50988
G1 X8.522 Y118.060 E52.52623
G1 X5.940 Y115.478 E52.66899
G1 X5.940 Y115.059 E52.68534
G1 X8.941 Y118.060 E52.85123
G1 X9.359 Y118.060 E52.86757
G1 X5.940 Y114.641 E53.05658
G1 X5.940 Y114.223 E53.07293
G1 X9.777 Y118.060 E53.28506
G1 X10.195 Y118.060 E53.30141
G1 X5.940 Y113.805 E53.53665
G1 X5.940 Y113.386 E53.55300
G1 X10.614 Y118.060 E53.81137
G1 X11.032 Y118.060 E53.82772
G1 X5.940 Y112.968 E54.10921
G1 X5.940 Y112.550 E54.12555
G1 X11.450 Y118.060 E54.43016
G1 X11.868 Y118.060 E54.44651
G1 X5.940 Y112.132 E54.77424
G1 X5.940 Y111.713 E54.79059
G1 X12.287 Y118.060 E55.14144
G1 X12.705 Y118.060 E55.15778
G1 X5.940 Y111.295 E55.53175
G1 X5.940 Y110.877 E55.54810
G1 X13.123 Y118.060 E55.94519
G1 X13.541 Y118.060 E55.96154
G1 X5.940 Y110.459 E56.38175
G1 X5.940 Y110.040 E56.39810
G1 X13.960 Y118.060 E56.84143
G1 X14.378 Y118.060 E56.85778
G1 X5.940 Y109.622 E57.32423
G1 X5.940 Y109.204 E57.34058
G1 X14.796 Y118.060 E57.83015
G1 X15.214 Y118.060 E57.84649
G1 X5.940 Y108.786 E58.35918
G1 X5.940 Y108.367 E58.37553
G1 X15.633 Y118.060 E58.91134
G1 X16.051 Y118.060 E58.92769
G1 X5.940 Y107.949 E59.48662
G1 X5.940 Y107.531 E59.50297
G1 X16.469 Y118.060 E60.08502
G1 X16.887 Y118.060 E60.10137
G1 X5.940 Y107.113 E60.70654
G1 X5.940 Y106.694 E60.72289
G1 X17.306 Y118.060 E61.35118
G1 X17.724 Y118.060 E61.36753
G1 X5.940 Y106.276 E62.01895
G1 X5.940 Y105.858 E62.03529
G1 X18.142 Y118.060 E62.70983
G1 X18.560 Y118.060 E62.72618
G1 X5.940 Y105.440 E63.42383
G1 X5.940 Y105.021 E63.44018
G1 X18.979 Y118.060 E64.16095
G1 X19.397 Y118.060 E64.17730
G1 X5.940 Y104.603 E64.92119
G1 X5.940 Y104.185 E64.93754
G1 X19.815 Y118.060 E65.70455
G1 X20.233 Y118.060 E65.72090
G1 X5.940 Y103.767 E66.51104
G1 X5.940 Y103.349 E66.52739
G1 X20.651 Y118.060 E67.34064
G1 X21.070 Y118.060 E67.35699
G1 X5.940 Y102.930 E68.19336
G1 X5.940 Y102.512 E68.20971
G1 X21.488 Y118.060 E69.06921
G1 X21.906 Y118.060 E69.08556
G1 X5.940 Y102.094 E69.96817
G1 X5.940 Y101.676 E69.98452
G1 X22.324 Y118.060 E70.89025
G1 X22.743 Y118.060 E70.90660
G1 X5.940 Y101.257 E71.83546
G1 X5.940 Y100.839 E71.85181
G1 X23.161 Y118.060 E72.80378
G1 X23.579 Y118.060 E72.82013
G1 X5.940 Y100.421 E73.79523
G1 X5.940 Y100.003 E73.81158
G1 X23.997 Y118.060 E74.80979
G1 X24.416 Y118.060 E74.82614
G1 X5.940 Y99.584 E75.84748
G1 X5.940 Y99.166 E75.86383
G1 X24.834 Y118.060 E76.90828
G1 X25.252 Y118.060 E76.92463
G1 X5.940 Y98.748 E77.99221
G1 X5.940 Y98.330 E78.00856
G1 X25.670 Y118.060 E79.09926
G1 X26.089 Y118.060 E79.11561
G1 X5.940 Y97.911 E80.22942
G1 X5.940 Y97.493 E80.24577
G1 X26.507 Y118.060 E81.38271
G1 X26.925 Y118.060 E81.39906
G1 X5.940 Y97.075 E82.55912
G1 X5.940 Y96.657 E82.57547
G1 X27.343 Y118.060 E83.75864
G1 X27.762 Y118.060 E83.77499
G1 X5.940 Y96.238 E84.98129
G1 X5.940 Y95.820 E84.99764
G1 X28.180 Y118.060 E86.22706
G1 X28.598 Y118.060 E86.24341
G1 X5.940 Y95.402 E87.49595
G1 X5.940 Y94.984 E87.51230
G1 X29.016 Y118.060 E88.78796
G1 X29.435 Y118.060 E88.80431
G1 X5.940 Y94.565 E90.10309
G1 X5.940 Y94.147 E90.11943
G1 X29.853 Y118.060 E91.44134
G1 X30.271 Y118.060 E91.45768
G1 X5.940 Y93.729 E92.80270
G1 X5.940 Y93.311 E92.81905
G1 X30.689 Y118.060 E94.18719
G1 E93.18719 F1800.00000
G92 E0
G1 X21.060 Y52.386 F7800.000
G1 E1.00000 F1800.00000
G1 X10.614 Y41.940 E1.57748 F360.000
G1 X10.195 Y41.940 E1.59383
G1 X21.060 Y52.805 E2.19443
G1 X21.060 Y53.223 E2.21078
G1 X9.777 Y41.940 E2.83450
G1 X9.359 Y41.940 E2.85085
G1 X21.060 Y53.641 E3.49769
G1 X21.060 Y54.059 E3.51404
G1 X8.941 Y41.940 E4.18400
G1 X8.522 Y41.940 E4.20035
G1 X21.060 Y54.478 E4.89343
G1 X21.060 Y54.896 E4.90978
G1 X8.104 Y41.940 E5.62598
G1 X7.707 Y41.961 E5.64153
G1 X21.060 Y55.314 E6.37968
G1 X21.060 Y55.732 E6.39603
G1 X7.358 Y42.030 E7.15349
G1 X7.062 Y42.152 E7.16601
G1 X21.060 Y56.151 E7.93985
G1 X21.060 Y56.569 E7.95620
G1 X6.794 Y42.303 E8.74480
G1 X6.578 Y42.505 E8.75637
G1 X21.060 Y56.987 E9.55695
G1 X21.060 Y57.405 E9.57330
G1 X6.369 Y42.714 E10.38544
