; generated by Slic3r 1.1.7 on 2016-10-11 at 16:05:04

; perimeters extrusion width = 0.40mm
; infill extrusion width = 0.42mm
; solid infill extrusion width = 0.42mm
; top infill extrusion width = 0.42mm

G21 ; set units to millimeters
M107
M190 S60 ; wait for bed temperature to be reached
M104 S185 ; set temperature
G28 ; home all axes
G1 Z5 F5000 ; lift nozzle
M109 S185 ; wait for temperature to be reached
G90 ; use absolute coordinates
G92 E0
M82 ; use absolute distances for extrusion
G1 F1800.000 E-1.00000
G92 E0
G1 Z0.400 F9000.000
G1 X58.972 Y21.684 F9000.000
G1 E1.00000 F1800.000
G1 X59.695 Y20.133 E1.19877 F960.000
G1 X61.161 Y19.017 E1.41261
G1 X63.499 Y18.027 E1.70741
G1 X64.947 Y17.733 E1.87895
G1 X85.054 Y17.733 E4.21330
G1 X86.505 Y18.028 E4.38515
G1 X88.838 Y19.018 E4.67938
G1 X90.217 Y20.032 E4.87815
G1 X91.076 Y22.002 E5.12768
G1 X94.260 Y49.019 E8.28601
G1 X95.508 Y60.990 E9.68328
G1 X96.542 Y71.350 E10.89201
G1 X97.020 Y76.677 E11.51299
G1 X98.168 Y91.969 E13.29325
G1 X101.063 Y132.061 E17.95994
G1 X100.729 Y133.888 E18.17555
G1 X99.494 Y136.557 E18.51696
G1 X98.437 Y137.903 E18.71573
G1 X96.123 Y138.711 E19.00020
G1 X53.877 Y138.711 E23.90490
G1 X52.211 Y138.317 E24.10367
G1 X50.505 Y136.556 E24.38822
G1 X49.271 Y133.887 E24.72959
G1 X48.932 Y132.159 E24.93408
G1 X50.092 Y106.756 E27.88640
G1 X50.604 Y98.256 E28.87500
G1 X51.195 Y89.257 E29.92195
G1 X52.105 Y76.577 E31.39779
G1 X53.205 Y63.470 E32.92491
G1 X53.693 Y58.194 E33.54006
G1 X54.184 Y53.269 E34.11458
G1 X54.637 Y49.141 E34.59673
G1 X56.037 Y37.162 E35.99696
G1 X56.428 Y34.630 E36.29441
G1 X57.675 Y27.951 E37.08312
G1 X58.959 Y21.743 E37.81914
G1 F1800.000 E36.81914
G92 E0
G1 X56.189 Y20.863 F9000.000
G1 E1.00000 F1800.000
G1 X56.303 Y20.545 E1.03915 F960.000
G1 X57.152 Y18.726 E1.27224
G1 X57.312 Y18.469 E1.30733
G1 X57.563 Y18.158 E1.35370
G1 X57.779 Y17.948 E1.38880
G1 X59.486 Y16.648 E1.63783
G1 X59.795 Y16.457 E1.68000
G1 X62.445 Y15.324 E2.01455
G1 X62.841 Y15.202 E2.06276
G1 X64.451 Y14.875 E2.25347
G1 X64.864 Y14.833 E2.30168
G1 X85.137 Y14.833 E4.65523
G1 X85.551 Y14.875 E4.70353
G1 X86.327 Y15.033 E4.79555
G1 X86.537 Y15.014 E4.81997
G1 X86.684 Y14.954 E4.83838
G1 X87.404 Y15.252 E4.92880
G1 X88.097 Y15.393 E5.01094
G1 X88.185 Y15.525 E5.02935
G1 X88.346 Y15.659 E5.05377
G1 X90.058 Y16.386 E5.26969
G1 X90.477 Y16.624 E5.32567
G1 X92.110 Y17.824 E5.56084
G1 X92.347 Y18.052 E5.59907
G1 X92.619 Y18.392 E5.64958
G1 X92.789 Y18.674 E5.68780
G1 X93.782 Y20.955 E5.97666
G1 X93.843 Y21.128 E5.99796
G1 X93.941 Y21.542 E6.04737
G1 X97.142 Y48.705 E9.22267
G1 X98.392 Y60.694 E10.62215
G1 X99.428 Y71.066 E11.83222
G1 X99.909 Y76.434 E12.45790
G1 X101.060 Y91.756 E14.24182
G1 X103.962 Y131.956 E18.92103
G1 X103.934 Y132.479 E18.98185
G1 X103.525 Y134.665 E19.23998
G1 X103.404 Y135.011 E19.28252
G1 X102.017 Y137.990 E19.66403
G1 X101.834 Y138.273 E19.70317
G1 X100.571 Y139.879 E19.94040
G1 X100.314 Y140.125 E19.98173
G1 X99.931 Y140.399 E20.03635
G1 X99.615 Y140.563 E20.07768
G1 X96.949 Y141.494 E20.40558
G1 X96.472 Y141.593 E20.46215
G1 X96.262 Y141.611 E20.48655
G1 X53.781 Y141.611 E25.41851
G1 X53.445 Y141.580 E25.45766
G1 X51.313 Y141.084 E25.71174
G1 X50.982 Y140.954 E25.75307
G1 X50.573 Y140.721 E25.80771
G1 X50.291 Y140.503 E25.84904
G1 X48.326 Y138.474 E26.17702
G1 X48.036 Y138.082 E26.23361
G1 X47.932 Y137.899 E26.25801
G1 X46.598 Y135.015 E26.62698
G1 X46.445 Y134.543 E26.68460
G1 X46.068 Y132.620 E26.91203
G1 X46.031 Y132.125 E26.96965
G1 X47.196 Y106.618 E29.93411
G1 X47.710 Y98.071 E30.92810
G1 X48.302 Y89.055 E31.97708
G1 X49.214 Y76.359 E33.45491
G1 X49.804 Y69.184 E34.29062
G1 X50.317 Y63.205 E34.98739
G1 X50.807 Y57.915 E35.60408
G1 X51.299 Y52.973 E36.18075
G1 X51.756 Y48.808 E36.66721
G1 X53.161 Y36.788 E38.07219
G1 X53.574 Y34.123 E38.38524
G1 X54.826 Y27.412 E39.17783
G1 X56.174 Y20.921 E39.94749
G1 X56.874 Y21.068 F9000.000
G1 X56.959 Y20.829 E39.97700 F960.000
G1 X57.781 Y19.067 E40.20267
G1 X57.895 Y18.884 E40.22774
G1 X58.092 Y18.640 E40.26408
G1 X58.247 Y18.489 E40.28914
G1 X59.901 Y17.229 E40.53056
G1 X60.234 Y17.036 E40.57530
G1 X62.791 Y15.958 E40.89740
G1 X63.001 Y15.898 E40.92280
G1 X64.576 Y15.578 E41.10937
G1 X64.882 Y15.547 E41.14513
G1 X85.119 Y15.547 E43.49453
G1 X85.426 Y15.578 E43.53036
G1 X86.396 Y15.776 E43.64525
G1 X86.605 Y15.756 E43.66967
G1 X86.677 Y15.727 E43.67870
G1 X87.191 Y15.937 E43.74312
G1 X87.665 Y16.034 E43.79926
G1 X87.708 Y16.098 E43.80829
G1 X87.869 Y16.233 E43.83271
G1 X89.760 Y17.035 E44.07118
G1 X90.071 Y17.212 E44.11271
G1 X91.649 Y18.372 E44.34000
G1 X91.818 Y18.534 E44.36731
G1 X92.031 Y18.801 E44.40690
G1 X92.153 Y19.002 E44.43420
G1 X93.117 Y21.216 E44.71455
G1 X93.235 Y21.652 E44.76696
G1 X96.432 Y48.782 E47.93851
G1 X97.682 Y60.767 E49.33742
G1 X98.717 Y71.136 E50.54719
G1 X99.198 Y76.493 E51.17167
G1 X100.348 Y91.808 E52.95470
G1 X103.248 Y131.985 E57.63120
G1 X103.227 Y132.373 E57.67632
G1 X102.837 Y134.470 E57.92399
G1 X102.747 Y134.731 E57.95605
G1 X101.397 Y137.634 E58.32771
G1 X101.259 Y137.848 E58.35721
G1 X100.041 Y139.398 E58.58612
G1 X99.857 Y139.574 E58.61564
G1 X99.557 Y139.788 E58.65846
G1 X99.332 Y139.905 E58.68798
G1 X96.742 Y140.810 E59.00648
G1 X96.382 Y140.884 E59.04913
G1 X96.232 Y140.897 E59.06656
G1 X53.801 Y140.897 E63.99262
G1 X53.548 Y140.873 E64.02213
G1 X51.527 Y140.401 E64.26308
G1 X51.291 Y140.308 E64.29260
G1 X50.970 Y140.125 E64.33542
G1 X50.769 Y139.970 E64.36495
G1 X48.860 Y137.999 E64.68353
G1 X48.642 Y137.703 E64.72619
G1 X47.255 Y134.734 E65.10656
G1 X47.142 Y134.384 E65.14931
G1 X46.773 Y132.504 E65.37177
G1 X46.745 Y132.137 E65.41452
G1 X47.910 Y106.645 E68.37707
G1 X48.423 Y98.117 E69.36900
G1 X49.015 Y89.105 E70.41748
G1 X49.926 Y76.413 E71.89480
G1 X50.516 Y69.244 E72.72981
G1 X51.028 Y63.270 E73.42596
G1 X51.518 Y57.984 E74.04228
G1 X52.010 Y53.046 E74.61843
G1 X52.466 Y48.890 E75.10381
G1 X53.869 Y36.880 E76.50759
G1 X54.277 Y34.247 E76.81687
G1 X55.528 Y27.544 E77.60851
G1 X56.858 Y21.126 E78.36953
G1 X57.558 Y21.273 F9000.000
G1 X57.615 Y21.112 E78.38939 F960.000
G1 X58.410 Y19.408 E78.60764
G1 X58.479 Y19.298 E78.62268
G1 X58.714 Y19.031 E78.66396
G1 X60.316 Y17.811 E78.89777
G1 X60.533 Y17.685 E78.92694
G1 X63.019 Y16.635 E79.24022
G1 X64.700 Y16.282 E79.43968
G1 X64.900 Y16.262 E79.46300
G1 X85.101 Y16.262 E81.80824
G1 X85.301 Y16.282 E81.83161
G1 X86.464 Y16.518 E81.96938
G1 X86.669 Y16.499 E81.99326
G1 X86.910 Y16.602 E82.02362
G1 X87.234 Y16.675 E82.06227
G1 X87.393 Y16.806 E82.08615
G1 X89.462 Y17.684 E82.34717
G1 X89.665 Y17.800 E82.37425
G1 X91.188 Y18.919 E82.59368
G1 X91.444 Y19.210 E82.63864
G1 X91.517 Y19.331 E82.65502
G1 X92.452 Y21.477 E82.92687
G1 X92.529 Y21.762 E82.96104
G1 X95.722 Y48.860 E86.12886
G1 X96.971 Y60.840 E87.52719
G1 X98.007 Y71.206 E88.73665
G1 X98.486 Y76.549 E89.35949
G1 X99.636 Y91.861 E91.14208
G1 X102.534 Y132.014 E95.81587
G1 X102.521 Y132.267 E95.84529
G1 X102.149 Y134.276 E96.08249
G1 X102.089 Y134.452 E96.10407
G1 X100.777 Y137.279 E96.46589
G1 X100.685 Y137.423 E96.48575
G1 X99.511 Y138.917 E96.70635
G1 X99.401 Y139.022 E96.72406
G1 X99.183 Y139.178 E96.75507
G1 X99.048 Y139.248 E96.77278
G1 X96.534 Y140.126 E97.08190
G1 X96.202 Y140.183 E97.12102
G1 X53.822 Y140.183 E102.04118
G1 X53.652 Y140.166 E102.06105
G1 X51.742 Y139.718 E102.28887
G1 X51.600 Y139.662 E102.30658
G1 X51.367 Y139.530 E102.33759
G1 X51.247 Y139.436 E102.35531
G1 X49.394 Y137.523 E102.66450
G1 X49.248 Y137.324 E102.69322
G1 X47.912 Y134.454 E103.06067
G1 X47.838 Y134.226 E103.08855
G1 X47.478 Y132.387 E103.30605
G1 X47.460 Y132.148 E103.33393
G1 X48.623 Y106.681 E106.29356
G1 X49.136 Y98.162 E107.28444
G1 X49.727 Y89.155 E108.33242
G1 X50.638 Y76.467 E109.80922
G1 X51.228 Y69.304 E110.64354
G1 X51.739 Y63.335 E111.33907
G1 X52.229 Y58.054 E111.95488
G1 X52.720 Y53.119 E112.53066
G1 X53.175 Y48.972 E113.01496
G1 X54.578 Y36.973 E114.41751
G1 X54.980 Y34.372 E114.72305
G1 X56.229 Y27.677 E115.51371
G1 X57.542 Y21.331 E116.26609
G1 X58.242 Y21.478 F9000.000
G1 X59.039 Y19.749 E116.48709 F960.000
G1 X59.150 Y19.603 E116.50836
G1 X60.731 Y18.393 E116.73953
G1 X60.832 Y18.334 E116.75314
G1 X63.247 Y17.312 E117.05759
G1 X64.825 Y16.985 E117.24463
G1 X85.083 Y16.976 E119.59654
G1 X86.532 Y17.261 E119.76804
G1 X86.617 Y17.253 E119.77789
G1 X86.850 Y17.326 E119.80627
G1 X86.916 Y17.380 E119.81613
G1 X89.259 Y18.388 E120.11224
G1 X90.727 Y19.467 E120.32380
G1 X90.856 Y19.619 E120.34697
G1 X91.787 Y21.739 E120.61573
G1 X91.823 Y21.871 E120.63167
G1 X95.012 Y48.938 E123.79575
G1 X96.261 Y60.912 E125.19346
G1 X97.296 Y71.276 E126.40267
G1 X97.774 Y76.613 E127.02476
G1 X98.923 Y91.913 E128.80600
G1 X101.820 Y132.043 E133.47709
G1 X101.814 Y132.161 E133.49081
G1 X101.467 Y134.060 E133.71492
G1 X101.432 Y134.173 E133.72865
G1 X100.157 Y136.924 E134.08062
G1 X98.981 Y138.436 E134.30307
G1 X98.764 Y138.591 E134.33396
G1 X96.327 Y139.442 E134.63368
G1 X96.172 Y139.469 E134.65194
G1 X53.822 Y139.467 E139.56862
G1 X51.956 Y139.034 E139.79107
G1 X51.724 Y138.903 E139.82196
G1 X49.928 Y137.048 E140.12176
G1 X49.854 Y136.944 E140.13655
G1 X48.562 Y134.154 E140.49356
G1 X48.182 Y132.271 E140.71657
G1 X48.174 Y132.159 E140.72957
G1 X49.336 Y106.714 E143.68676
G1 X49.848 Y98.207 E144.67611
G1 X50.439 Y89.207 E145.72332
G1 X51.350 Y76.522 E147.19977
G1 X52.450 Y63.404 E148.72805
G1 X52.940 Y58.122 E149.34394
G1 X53.431 Y53.188 E149.91948
G1 X53.884 Y49.054 E150.40234
G1 X55.287 Y37.055 E151.80489
G1 X55.683 Y34.496 E152.10546
G1 X56.931 Y27.810 E152.89516
G1 X58.229 Y21.537 E153.63889
G1 X59.686 Y21.965 F9000.000
G1 X60.265 Y20.703 E153.80010 F960.000
G1 X60.374 Y20.568 E153.82023
G1 X61.508 Y19.704 E153.98574
G1 X63.691 Y18.768 E154.26155
G1 X64.988 Y18.497 E154.41534
G1 X84.942 Y18.490 E156.73193
G1 X86.312 Y18.769 E156.89428
G1 X88.494 Y19.705 E157.16994
G1 X89.526 Y20.463 E157.31856
G1 X89.644 Y20.611 E157.34049
G1 X90.316 Y22.153 E157.53584
G1 X90.343 Y22.255 E157.54803
G1 X93.508 Y49.105 E160.68689
G1 X94.754 Y61.068 E162.08319
G1 X95.789 Y71.420 E163.29099
G1 X96.265 Y76.737 E163.91080
G1 X97.413 Y92.025 E165.69065
G1 X100.297 Y131.974 E170.34070
G1 X100.010 Y133.613 E170.53383
G1 X98.862 Y136.121 E170.85406
G1 X98.044 Y137.178 E171.00924
G1 X97.877 Y137.297 E171.03298
G1 X96.053 Y137.934 E171.25740
G1 X95.934 Y137.954 E171.27137
G1 X54.007 Y137.954 E176.13895
G1 X52.704 Y137.656 E176.29412
G1 X52.526 Y137.555 E176.31786
G1 X51.181 Y136.166 E176.54234
G1 X51.113 Y136.066 E176.55631
G1 X50.015 Y133.691 E176.86011
G1 X49.694 Y132.059 E177.05318
G1 X50.849 Y106.793 E179.98959
G1 X51.359 Y98.304 E180.97688
G1 X51.950 Y89.310 E182.02332
G1 X52.860 Y76.637 E183.49835
G1 X53.959 Y63.538 E185.02448
G1 X54.447 Y58.264 E185.63937
G1 X54.937 Y53.347 E186.21303
G1 X55.389 Y49.225 E186.69450
G1 X56.788 Y37.257 E188.09342
G1 X57.175 Y34.755 E188.38729
G1 X58.417 Y28.101 E189.17317
G1 X59.674 Y22.024 E189.89361
G1 F1800.000 E188.89361
G92 E0
G1 X68.280 Y20.518 F9000.000
G1 E1.00000 F1800.000
G1 X68.386 Y19.204 E1.15302 F960.000
G1 X81.616 Y19.204 E2.68896
G1 X81.721 Y20.518 E2.84200
G1 X81.012 Y20.633 E2.92533
G1 X69.046 Y20.637 E4.31465
G1 X68.339 Y20.527 E4.39765
G1 F1800.000 E3.39765
G92 E0
G1 X87.736 Y22.309 F9000.000
G1 E1.00000 F1800.000
G1 X88.153 Y28.207 E1.68641 F960.000
G1 X88.189 Y28.257 E1.69356
G1 X88.189 Y28.768 E1.75296
G1 X88.980 Y36.324 E2.63490
G1 X90.344 Y45.109 E3.66704
G1 X90.920 Y49.361 E4.16526
G1 X91.322 Y54.282 E4.73850
G1 X92.167 Y61.322 E5.56163
G1 X93.199 Y71.649 E6.76653
G1 X93.672 Y76.927 E7.38170
G1 X93.878 Y80.592 E7.80786
G1 X94.820 Y92.208 E9.16094
G1 X95.343 Y99.860 E10.05130
G1 X96.138 Y112.486 E11.52008
G1 X96.637 Y121.495 E12.56758
G1 X97.062 Y130.401 E13.60275
G1 X97.083 Y130.505 E13.61510
G1 X97.730 Y132.308 E13.83747
G1 X97.680 Y132.516 E13.86224
G1 X96.773 Y133.368 E14.00677
G1 X96.660 Y133.590 E14.03573
G1 X96.458 Y135.198 E14.22387
G1 X96.200 Y135.380 E14.26049
G1 X90.099 Y134.040 E14.98571
G1 X59.902 Y134.040 E18.49152
G1 X53.801 Y135.380 E19.21670
G1 X53.543 Y135.200 E19.25311
G1 X53.330 Y133.603 E19.44020
G1 X53.221 Y133.388 E19.46812
G1 X52.339 Y132.531 E19.61096
G1 X52.282 Y132.388 E19.62878
G1 X52.840 Y120.501 E21.01040
G1 X53.058 Y116.547 E21.47016
G1 X53.443 Y106.958 E22.58431
G1 X53.789 Y101.446 E23.22546
G1 X53.954 Y98.476 E23.57074
G1 X54.543 Y89.499 E24.61523
G1 X55.059 Y82.590 E25.41955
G1 X55.451 Y76.854 E26.08711
G1 X56.547 Y63.780 E27.61019
G1 X56.804 Y61.243 E27.90628
G1 X57.034 Y58.521 E28.22342
G1 X57.240 Y56.401 E28.47074
G1 X57.521 Y53.635 E28.79350
G1 X57.816 Y51.114 E29.08817
G1 X57.971 Y49.531 E29.27283
G1 X58.318 Y46.741 E29.59919
G1 X59.353 Y37.683 E30.65771
G1 X59.728 Y35.248 E30.94369
G1 X60.961 Y28.636 E31.72454
G1 X62.087 Y23.410 E32.34520
G1 X62.271 Y22.286 E32.47738
G1 X62.390 Y22.140 E32.49926
G1 X63.360 Y21.756 E32.62034
G1 X63.623 Y21.707 E32.65141
G1 X63.810 Y21.617 E32.67558
G1 X63.918 Y21.530 E32.69162
G1 X64.836 Y21.105 E32.80904
G1 X64.919 Y21.089 E32.81892
G1 X68.144 Y21.221 E33.19368
G1 X68.988 Y21.351 E33.29281
G1 X81.013 Y21.351 E34.68882
G1 X81.858 Y21.221 E34.78807
G1 X85.083 Y21.088 E35.16281
G1 X85.168 Y21.106 E35.17288
G1 X85.956 Y21.479 E35.27412
G1 X86.079 Y21.588 E35.29322
G1 X86.282 Y21.693 E35.31979
G1 X86.626 Y21.752 E35.36028
G1 X87.614 Y22.143 E35.48365
G1 X87.701 Y22.260 E35.50060
G1 F1800.000 E34.50060
G92 E0
G1 X88.906 Y27.621 F9000.000
G1 E1.00000 F1800.000
G1 X90.248 Y27.545 E1.15604 F960.000
G1 X91.789 Y40.627 E2.68538
G1 X90.400 Y40.817 E2.84818
G1 X89.688 Y36.231 E3.38692
G1 X88.903 Y28.732 E4.26228
G1 X88.905 Y27.681 E4.38440
G1 F1800.000 E3.38440
G92 E0
G1 X97.179 Y118.370 F9000.000
G1 E1.00000 F1800.000
G1 X98.593 Y118.279 E1.16444 F960.000
G1 X99.556 Y131.629 E2.71828
G1 X98.338 Y131.887 E2.86290
G1 X97.791 Y130.365 E3.05066
G1 X97.770 Y130.260 E3.06300
G1 X97.350 Y121.459 E4.08592
G1 X97.183 Y118.430 E4.43822
G1 F1800.000 E3.43822
G92 E0
G1 X98.273 Y132.939 F9000.000
G1 E1.00000 F1800.000
G1 X99.228 Y133.628 E1.13675 F960.000
G1 X98.357 Y135.511 E1.37767
G1 X97.181 Y135.174 E1.51972
G1 X97.337 Y133.935 E1.66474
G1 X97.450 Y133.712 E1.69369
G1 X98.229 Y132.980 E1.81789
G1 F1800.000 E0.81789
G92 E0
G1 X52.817 Y135.155 F9000.000
G1 E1.00000 F1800.000
G1 X51.637 Y135.498 E1.14264 F960.000
G1 X50.777 Y133.637 E1.38068
G1 X51.745 Y132.951 E1.51855
G1 X52.546 Y133.728 E1.64816
G1 X52.655 Y133.943 E1.67607
G1 X52.809 Y135.096 E1.81110
G1 X54.453 Y135.967 F9000.000
G1 X59.980 Y134.754 E2.46795 F960.000
G1 X90.021 Y134.754 E5.95565
G1 X95.547 Y135.967 E6.61245
G1 X95.408 Y137.240 E6.76115
G1 X54.592 Y137.240 E11.49968
G1 X54.460 Y136.027 E11.64141
G1 F1800.000 E10.64141
G92 E0
G1 X95.781 Y134.512 F9000.000
G1 E1.00000 F1800.000
G1 X90.221 Y133.283 E1.66114 F420.000
G1 X59.780 Y133.283 E5.19522
G1 X54.215 Y134.513 E5.85683
G1 X54.028 Y133.116 E6.02041
G1 X53.050 Y132.167 E6.17864
G1 X53.596 Y120.539 E7.53007
G1 X53.814 Y116.585 E7.98987
G1 X54.199 Y106.997 E9.10383
G1 X54.544 Y101.494 E9.74402
G1 X54.709 Y98.523 E10.08942
G1 X55.298 Y89.551 E11.13332
G1 X55.815 Y82.638 E11.93813
G1 X56.206 Y76.913 E12.60434
G1 X57.301 Y63.849 E14.12628
G1 X57.558 Y61.310 E14.42259
G1 X57.788 Y58.588 E14.73969
G1 X57.993 Y56.477 E14.98597
G1 X58.274 Y53.716 E15.30814
G1 X58.569 Y51.191 E15.60326
G1 X58.723 Y49.615 E15.78717
G1 X59.069 Y46.834 E16.11250
G1 X60.104 Y37.780 E17.17051
G1 X60.474 Y35.378 E17.45259
G1 X61.704 Y28.783 E18.23151
G1 X62.833 Y23.542 E18.85391
G1 X62.967 Y22.726 E18.94996
G1 X63.589 Y22.480 E19.02760
G1 X64.275 Y22.369 E19.10836
G1 X64.348 Y22.165 E19.13345
G1 X65.027 Y21.851 E19.22035
G1 X68.079 Y21.976 E19.57492
G1 X68.898 Y22.108 E19.67132
G1 X81.102 Y22.108 E21.08814
G1 X81.923 Y21.976 E21.18468
G1 X84.972 Y21.851 E21.53892
G1 X85.509 Y22.105 E21.60792
G1 X85.579 Y22.348 E21.63729
G1 X86.407 Y22.479 E21.73456
G1 X87.006 Y22.716 E21.80934
G1 X87.492 Y29.594 E22.60980
G1 X87.512 Y29.574 E22.61309
G1 X88.230 Y36.430 E23.41341
G1 X89.595 Y45.219 E24.44606
G1 X90.168 Y49.448 E24.94144
G1 X90.568 Y54.352 E25.51267
